P3
384 216
255
204 226 255
204 226 255
204 226 255
204 226 255
204 226 255
204 226 255
204 226 255
204 226 255
204 226 255
204 226 255
204 226 255
204 226 255
203 226 255
203 226 255
203 226 255
203 226 255
203 226 255
203 226 255
203 226 255
203 226 255
203 225 255
203 225 255
203 225 255
203 225 255
203 225 255
203 225 255
203 225 255
203 225 255
203 225 255
202 225 255
202 225 255
202 225 255
202 225 255
202 225 255
202 225 255
202 225 255
202 225 255
202 225 255
202 225 255
202 225 255
202 225 255
202 225 255
202 225 255
202 225 255
201 225 255
201 225 255
201 225 255
201 225 255
201 224 255
201 224 255
201 224 255
201 224 255
201 224 255
201 224 255
201 224 255
201 224 255
201 224 255
201 224 255
200 224 255
200 224 255
200 224 255
200 224 255
200 224 255
200 224 255
200 224 255
200 224 255
200 224 255
200 224 255
200 224 255
200 224 255
200 224 255
200 224 255
199 224 255
199 224 255
199 223 255
199 223 255
199 223 255
199 223 255
199 223 255
199 223 255
199 223 255
199 223 255
199 223 255
199 223 255
199 223 255
199 223 255
198 223 255
198 223 255
198 223 255
198 223 255
198 223 255
198 223 255
198 223 255
198 223 255
198 223 255
198 223 255
198 223 255
198 223 255
198 223 255
198 223 255
197 222 255
197 222 255
197 222 255
197 222 255
197 222 255
197 222 255
197 222 255
197 222 255
197 222 255
197 222 255
197 222 255
197 222 255
197 222 255
197 222 255
196 222 255
196 222 255
196 222 255
196 222 255
196 222 255
196 222 255
196 222 255
196 222 255
196 222 255
196 222 255
196 222 255
196 222 255
196 222 255
196 221 255
196 221 255
195 221 255
195 221 255
195 221 255
195 221 255
195 221 255
195 221 255
195 221 255
195 221 255
195 221 255
195 221 255
195 221 255
195 221 255
195 221 255
195 221 255
195 221 255
195 221 255
195 221 255
194 221 255
194 221 255
194 221 255
194 221 255
194 221 255
194 221 255
194 221 255
194 221 255
194 221 255
194 221 255
194 221 255
194 221 255
194 221 255
194 221 255
194 221 255
194 221 255
194 221 255
194 221 255
194 221 255
194 220 255
194 220 255
194 220 255
194 220 255
194 220 255
194 220 255
194 220 255
193 220 255
193 220 255
193 220 255
193 220 255
193 220 255
193 220 255
193 220 255
193 220 255
193 220 255
193 220 255
193 220 255
193 220 255
193 220 255
193 220 255
193 220 255
193 220 255
193 220 255
193 220 255
193 220 255
193 220 255
193 220 255
193 220 255
193 220 255
193 220 255
193 220 255
193 220 255
193 220 255
193 220 255
193 220 255
193 220 255
193 220 255
193 220 255
193 220 255
193 220 255
193 220 255
193 220 255
193 220 255
193 220 255
193 220 255
194 220 255
194 220 255
194 220 255
194 220 255
194 220 255
194 220 255
194 220 255
194 221 255
194 221 255
194 221 255
194 221 255
194 221 255
194 221 255
194 221 255
194 221 255
194 221 255
194 221 255
194 221 255
194 221 255
194 221 255
194 221 255
194 221 255
194 221 255
194 221 255
194 221 255
194 221 255
195 221 255
195 221 255
195 221 255
195 221 255
195 221 255
195 221 255
195 221 255
195 221 255
195 221 255
195 221 255
195 221 255
195 221 255
195 221 255
195 221 255
195 221 255
195 221 255
195 221 255
195 221 255
196 221 255
196 222 255
196 222 255
196 222 255
196 222 255
196 222 255
196 222 255
196 222 255
196 222 255
196 222 255
196 222 255
196 222 255
196 222 255
196 222 255
197 222 255
197 222 255
197 222 255
197 222 255
197 222 255
197 222 255
197 222 255
197 222 255
197 222 255
197 222 255
197 222 255
197 222 255
197 222 255
197 222 255
198 223 255
198 223 255
198 223 255
198 223 255
198 223 255
198 223 255
198 223 255
198 223 255
198 223 255
198 223 255
198 223 255
198 223 255
198 223 255
198 223 255
199 223 255
199 223 255
199 223 255
199 223 255
199 223 255
199 223 255
199 223 255
199 223 255
199 223 255
199 223 255
199 223 255
199 223 255
199 224 255
199 224 255
200 224 255
200 224 255
200 224 255
200 224 255
200 224 255
200 224 255
200 224 255
200 224 255
200 224 255
200 224 255
200 224 255
200 224 255
200 224 255
200 224 255
201 224 255
201 224 255
201 224 255
201 224 255
201 224 255
201 224 255
201 224 255
201 224 255
201 224 255
201 224 255
201 225 255
201 225 255
201 225 255
201 225 255
202 225 255
202 225 255
202 225 255
202 225 255
202 225 255
202 225 255
202 225 255
202 225 255
202 225 255
202 225 255
202 225 255
202 225 255
202 225 255
202 225 255
202 225 255
203 225 255
203 225 255
203 225 255
203 225 255
203 225 255
203 225 255
203 225 255
203 225 255
203 225 255
203 226 255
203 226 255
203 226 255
203 226 255
203 226 255
203 226 255
203 226 255
204 226 255
204 226 255
204 226 255
204 226 255
204 226 255
204 226 255
204 226 255
204 226 255
204 226 255
204 226 255
204 226 255
204 226 255
204 226 255
204 226 255
204 226 255
204 226 255
204 226 255
204 226 255
204 226 255
204 226 255
204 226 255
204 226 255
204 226 255
204 226 255
204 226 255
204 226 255
204 226 255
204 226 255
204 226 255
203 226 255
203 226 255
203 226 255
203 226 255
203 226 255
203 226 255
203 226 255
203 225 255
203 225 255
203 225 255
203 225 255
203 225 255
203 225 255
203 225 255
203 225 255
203 225 255
202 225 255
202 225 255
202 225 255
202 225 255
202 225 255
202 225 255
202 225 255
202 225 255
202 225 255
202 225 255
202 225 255
202 225 255
202 225 255
202 225 255
202 225 255
201 225 255
201 225 255
201 225 255
201 225 255
201 224 255
201 224 255
201 224 255
201 224 255
201 224 255
201 224 255
201 224 255
201 224 255
201 224 255
201 224 255
200 224 255
200 224 255
200 224 255
200 224 255
200 224 255
200 224 255
200 224 255
200 224 255
200 224 255
200 224 255
200 224 255
200 224 255
200 224 255
200 224 255
199 224 255
199 224 255
199 223 255
199 223 255
199 223 255
199 223 255
199 223 255
199 223 255
199 223 255
199 223 255
199 223 255
199 223 255
199 223 255
199 223 255
198 223 255
198 223 255
198 223 255
198 223 255
198 223 255
198 223 255
198 223 255
198 223 255
198 223 255
198 223 255
198 223 255
198 223 255
198 223 255
198 223 255
197 222 255
197 222 255
197 222 255
197 222 255
197 222 255
197 222 255
197 222 255
197 222 255
197 222 255
197 222 255
197 222 255
197 222 255
197 222 255
197 222 255
196 222 255
196 222 255
196 222 255
196 222 255
196 222 255
196 222 255
196 222 255
196 222 255
196 222 255
196 222 255
196 222 255
196 222 255
196 222 255
196 222 255
196 221 255
195 221 255
195 221 255
195 221 255
195 221 255
195 221 255
195 221 255
195 221 255
195 221 255
195 221 255
195 221 255
195 221 255
195 221 255
195 221 255
195 221 255
195 221 255
195 221 255
195 221 255
195 221 255
194 221 255
194 221 255
194 221 255
194 221 255
194 221 255
194 221 255
194 221 255
194 221 255
194 221 255
194 221 255
194 221 255
194 221 255
194 221 255
194 221 255
194 221 255
194 221 255
194 221 255
194 221 255
194 221 255
194 221 255
194 221 255
194 220 255
194 220 255
194 220 255
194 220 255
194 220 255
194 220 255
194 220 255
194 220 255
194 220 255
193 220 255
193 220 255
193 220 255
193 220 255
193 220 255
193 220 255
193 220 255
193 220 255
193 220 255
193 220 255
193 220 255
193 220 255
193 220 255
193 220 255
193 220 255
193 220 255
193 220 255
193 220 255
193 220 255
193 220 255
193 220 255
193 220 255
193 220 255
193 220 255
193 220 255
194 220 255
194 220 255
194 220 255
194 220 255
194 220 255
194 220 255
194 220 255
194 220 255
194 220 255
194 221 255
194 221 255
194 221 255
194 221 255
194 221 255
194 221 255
194 221 255
194 221 255
194 221 255
194 221 255
194 221 255
194 221 255
194 221 255
194 221 255
194 221 255
194 221 255
194 221 255
194 221 255
194 221 255
194 221 255
194 221 255
195 221 255
195 221 255
195 221 255
195 221 255
195 221 255
195 221 255
195 221 255
195 221 255
195 221 255
195 221 255
195 221 255
195 221 255
195 221 255
195 221 255
195 221 255
195 221 255
195 221 255
195 221 255
196 221 255
196 221 255
196 222 255
196 222 255
196 222 255
196 222 255
196 222 255
196 222 255
196 222 255
196 222 255
196 222 255
196 222 255
196 222 255
196 222 255
196 222 255
197 222 255
197 222 255
197 222 255
197 222 255
197 222 255
197 222 255
197 222 255
197 222 255
197 222 255
197 222 255
197 222 255
197 222 255
197 222 255
197 222 255
198 223 255
198 223 255
198 223 255
198 223 255
198 223 255
198 223 255
198 223 255
198 223 255
198 223 255
198 223 255
198 223 255
198 223 255
198 223 255
198 223 255
199 223 255
199 223 255
199 223 255
199 223 255
199 223 255
199 223 255
199 223 255
199 223 255
199 223 255
199 223 255
199 223 255
199 223 255
199 224 255
199 224 255
200 224 255
200 224 255
200 224 255
200 224 255
200 224 255
200 224 255
200 224 255
200 224 255
200 224 255
200 224 255
200 224 255
200 224 255
200 224 255
200 224 255
201 224 255
201 224 255
201 224 255
201 224 255
201 224 255
201 224 255
201 224 255
201 224 255
201 224 255
201 224 255
201 225 255
201 225 255
201 225 255
201 225 255
202 225 255
202 225 255
202 225 255
202 225 255
202 225 255
202 225 255
202 225 255
202 225 255
202 225 255
202 225 255
202 225 255
202 225 255
202 225 255
202 225 255
202 225 255
203 225 255
203 225 255
203 225 255
203 225 255
203 225 255
203 225 255
203 225 255
203 225 255
203 225 255
203 226 255
203 226 255
203 226 255
203 226 255
203 226 255
203 226 255
203 226 255
204 226 255
204 226 255
204 226 255
204 226 255
204 226 255
204 226 255
204 226 255
204 226 255
204 226 255
204 226 255
204 226 255
204 226 255
204 226 255
204 226 255
204 226 255
204 226 255
204 226 255
204 226 255
204 226 255
204 226 255
204 226 255
204 226 255
204 226 255
204 226 255
204 226 255
204 226 255
204 226 255
204 226 255
204 226 255
204 226 255
204 226 255
204 226 255
204 226 255
203 226 255
203 226 255
203 226 255
203 226 255
203 226 255
203 226 255
203 226 255
203 225 255
203 225 255
203 225 255
203 225 255
203 225 255
203 225 255
203 225 255
203 225 255
203 225 255
202 225 255
202 225 255
202 225 255
202 225 255
202 225 255
202 225 255
202 225 255
202 225 255
202 225 255
202 225 255
202 225 255
202 225 255
202 225 255
202 225 255
202 225 255
201 225 255
201 225 255
201 225 255
201 225 255
201 224 255
201 224 255
201 224 255
201 224 255
201 224 255
201 224 255
201 224 255
201 224 255
201 224 255
201 224 255
200 224 255
200 224 255
200 224 255
200 224 255
200 224 255
200 224 255
200 224 255
200 224 255
200 224 255
200 224 255
200 224 255
200 224 255
200 224 255
200 224 255
199 224 255
199 224 255
199 223 255
199 223 255
199 223 255
199 223 255
199 223 255
199 223 255
199 223 255
199 223 255
199 223 255
199 223 255
199 223 255
199 223 255
198 223 255
198 223 255
198 223 255
198 223 255
198 223 255
198 223 255
198 223 255
198 223 255
198 223 255
198 223 255
198 223 255
198 223 255
198 223 255
198 223 255
197 222 255
197 222 255
197 222 255
197 222 255
197 222 255
197 222 255
197 222 255
197 222 255
197 222 255
197 222 255
197 222 255
197 222 255
197 222 255
197 222 255
196 222 255
196 222 255
196 222 255
196 222 255
196 222 255
196 222 255
196 222 255
196 222 255
196 222 255
196 222 255
196 222 255
196 222 255
196 222 255
196 222 255
196 221 255
195 221 255
195 221 255
195 221 255
195 221 255
195 221 255
195 221 255
195 221 255
195 221 255
195 221 255
195 221 255
195 221 255
195 221 255
195 221 255
195 221 255
195 221 255
195 221 255
195 221 255
195 221 255
195 221 255
194 221 255
194 221 255
194 221 255
194 221 255
194 221 255
194 221 255
194 221 255
194 221 255
194 221 255
194 221 255
194 221 255
194 221 255
194 221 255
194 221 255
194 221 255
194 221 255
194 221 255
194 221 255
194 221 255
194 221 255
194 221 255
194 221 255
194 221 255
194 221 255
194 220 255
194 220 255
194 220 255
194 220 255
194 220 255
194 220 255
194 220 255
194 220 255
194 220 255
194 220 255
194 220 255
194 220 255
194 220 255
194 220 255
194 220 255
194 220 255
194 220 255
194 220 255
194 220 255
194 220 255
194 220 255
194 220 255
194 220 255
194 220 255
194 220 255
194 220 255
194 220 255
194 220 255
194 220 255
194 220 255
194 220 255
194 221 255
194 221 255
194 221 255
194 221 255
194 221 255
194 221 255
194 221 255
194 221 255
194 221 255
194 221 255
194 221 255
194 221 255
194 221 255
194 221 255
194 221 255
194 221 255
194 221 255
194 221 255
194 221 255
194 221 255
194 221 255
194 221 255
194 221 255
194 221 255
195 221 255
195 221 255
195 221 255
195 221 255
195 221 255
195 221 255
195 221 255
195 221 255
195 221 255
195 221 255
195 221 255
195 221 255
195 221 255
195 221 255
195 221 255
195 221 255
195 221 255
195 221 255
195 221 255
196 221 255
196 222 255
196 222 255
196 222 255
196 222 255
196 222 255
196 222 255
196 222 255
196 222 255
196 222 255
196 222 255
196 222 255
196 222 255
196 222 255
196 222 255
197 222 255
197 222 255
197 222 255
197 222 255
197 222 255
197 222 255
197 222 255
197 222 255
197 222 255
197 222 255
197 222 255
197 222 255
197 222 255
197 222 255
198 223 255
198 223 255
198 223 255
198 223 255
198 223 255
198 223 255
198 223 255
198 223 255
198 223 255
198 223 255
198 223 255
198 223 255
198 223 255
198 223 255
199 223 255
199 223 255
199 223 255
199 223 255
199 223 255
199 223 255
199 223 255
199 223 255
199 223 255
199 223 255
199 223 255
199 224 255
199 224 255
199 224 255
200 224 255
200 224 255
200 224 255
200 224 255
200 224 255
200 224 255
200 224 255
200 224 255
200 224 255
200 224 255
200 224 255
200 224 255
200 224 255
200 224 255
201 224 255
201 224 255
201 224 255
201 224 255
201 224 255
201 224 255
201 224 255
201 224 255
201 224 255
201 224 255
201 225 255
201 225 255
201 225 255
201 225 255
202 225 255
202 225 255
202 225 255
202 225 255
202 225 255
202 225 255
202 225 255
202 225 255
202 225 255
202 225 255
202 225 255
202 225 255
202 225 255
202 225 255
202 225 255
203 225 255
203 225 255
203 225 255
203 225 255
203 225 255
203 225 255
203 225 255
203 225 255
203 225 255
203 226 255
203 226 255
203 226 255
203 226 255
203 226 255
203 226 255
203 226 255
204 226 255
204 226 255
204 226 255
204 226 255
204 226 255
204 226 255
204 226 255
204 226 255
204 226 255
204 226 255
204 226 255
204 226 255
204 226 255
204 226 255
204 226 255
204 226 255
204 226 255
205 226 255
205 226 255
205 226 255
204 226 255
204 226 255
204 226 255
204 226 255
204 226 255
204 226 255
204 226 255
204 226 255
204 226 255
204 226 255
204 226 255
204 226 255
204 226 255
204 226 255
204 226 255
204 226 255
204 226 255
203 226 255
203 226 255
203 226 255
203 226 255
203 226 255
203 226 255
203 226 255
203 226 255
203 225 255
203 225 255
203 225 255
203 225 255
203 225 255
203 225 255
203 225 255
203 225 255
202 225 255
202 225 255
202 225 255
202 225 255
202 225 255
202 225 255
202 225 255
202 225 255
202 225 255
202 225 255
202 225 255
202 225 255
202 225 255
202 225 255
202 225 255
201 225 255
201 225 255
201 225 255
201 225 255
201 225 255
201 224 255
201 224 255
201 224 255
201 224 255
201 224 255
201 224 255
201 224 255
201 224 255
201 224 255
201 224 255
200 224 255
200 224 255
200 224 255
200 224 255
200 224 255
200 224 255
200 224 255
200 224 255
200 224 255
200 224 255
200 224 255
200 224 255
200 224 255
199 224 255
199 224 255
199 224 255
199 223 255
199 223 255
199 223 255
199 223 255
199 223 255
199 223 255
199 223 255
199 223 255
199 223 255
199 223 255
199 223 255
198 223 255
198 223 255
198 223 255
198 223 255
198 223 255
198 223 255
198 223 255
198 223 255
198 223 255
198 223 255
198 223 255
198 223 255
198 223 255
198 223 255
197 222 255
197 222 255
197 222 255
197 222 255
197 222 255
197 222 255
197 222 255
197 222 255
197 222 255
197 222 255
197 222 255
197 222 255
197 222 255
197 222 255
196 222 255
196 222 255
196 222 255
196 222 255
196 222 255
196 222 255
196 222 255
196 222 255
196 222 255
196 222 255
196 222 255
196 222 255
196 222 255
196 222 255
196 221 255
196 221 255
195 221 255
195 221 255
195 221 255
195 221 255
195 221 255
195 221 255
195 221 255
195 221 255
195 221 255
195 221 255
195 221 255
195 221 255
195 221 255
195 221 255
195 221 255
195 221 255
195 221 255
195 221 255
195 221 255
194 221 255
194 221 255
194 221 255
194 221 255
194 221 255
194 221 255
194 221 255
194 221 255
194 221 255
194 221 255
194 221 255
194 221 255
194 221 255
194 221 255
194 221 255
194 221 255
194 221 255
194 221 255
194 221 255
194 221 255
194 221 255
194 221 255
194 221 255
194 221 255
194 221 255
194 221 255
194 221 255
194 221 255
194 221 255
194 221 255
194 221 255
194 221 255
194 220 255
194 220 255
194 220 255
194 220 255
194 220 255
194 220 255
194 220 255
194 220 255
194 220 255
194 220 255
194 221 255
194 221 255
194 221 255
194 221 255
194 221 255
194 221 255
194 221 255
194 221 255
194 221 255
194 221 255
194 221 255
194 221 255
194 221 255
194 221 255
194 221 255
194 221 255
194 221 255
194 221 255
194 221 255
194 221 255
194 221 255
194 221 255
194 221 255
194 221 255
194 221 255
194 221 255
194 221 255
194 221 255
194 221 255
194 221 255
194 221 255
195 221 255
195 221 255
195 221 255
195 221 255
195 221 255
195 221 255
195 221 255
195 221 255
195 221 255
195 221 255
195 221 255
195 221 255
195 221 255
195 221 255
195 221 255
195 221 255
195 221 255
195 221 255
195 221 255
196 221 255
196 221 255
196 222 255
196 222 255
196 222 255
196 222 255
196 222 255
196 222 255
196 222 255
196 222 255
196 222 255
196 222 255
196 222 255
196 222 255
196 222 255
196 222 255
197 222 255
197 222 255
197 222 255
197 222 255
197 222 255
197 222 255
197 222 255
197 222 255
197 222 255
197 222 255
197 222 255
197 222 255
197 222 255
197 222 255
198 223 255
198 223 255
198 223 255
198 223 255
198 223 255
198 223 255
198 223 255
198 223 255
198 223 255
198 223 255
198 223 255
198 223 255
198 223 255
198 223 255
199 223 255
199 223 255
199 223 255
199 223 255
199 223 255
199 223 255
199 223 255
199 223 255
199 223 255
199 223 255
199 223 255
199 224 255
199 224 255
199 224 255
200 224 255
200 224 255
200 224 255
200 224 255
200 224 255
200 224 255
200 224 255
200 224 255
200 224 255
200 224 255
200 224 255
200 224 255
200 224 255
200 224 255
201 224 255
201 224 255
201 224 255
201 224 255
201 224 255
201 224 255
201 224 255
201 224 255
201 224 255
201 224 255
201 225 255
201 225 255
201 225 255
201 225 255
202 225 255
202 225 255
202 225 255
202 225 255
202 225 255
202 225 255
202 225 255
202 225 255
202 225 255
202 225 255
202 225 255
202 225 255
202 225 255
202 225 255
202 225 255
203 225 255
203 225 255
203 225 255
203 225 255
203 225 255
203 225 255
203 225 255
203 225 255
203 225 255
203 226 255
203 226 255
203 226 255
203 226 255
203 226 255
203 226 255
203 226 255
204 226 255
204 226 255
204 226 255
204 226 255
204 226 255
204 226 255
204 226 255
204 226 255
204 226 255
204 226 255
204 226 255
204 226 255
204 226 255
204 226 255
204 226 255
204 226 255
204 226 255
205 226 255
205 226 255
205 226 255
205 226 255
205 226 255
205 226 255
205 226 255
205 226 255
204 226 255
204 226 255
204 226 255
204 226 255
204 226 255
204 226 255
204 226 255
204 226 255
204 226 255
204 226 255
204 226 255
204 226 255
204 226 255
204 226 255
204 226 255
204 226 255
204 226 255
203 226 255
203 226 255
203 226 255
203 226 255
203 226 255
203 226 255
203 226 255
203 225 255
203 225 255
203 225 255
203 225 255
203 225 255
203 225 255
203 225 255
203 225 255
202 225 255
202 225 255
202 225 255
202 225 255
202 225 255
202 225 255
202 225 255
202 225 255
202 225 255
202 225 255
202 225 255
202 225 255
202 225 255
202 225 255
202 225 255
201 225 255
201 225 255
201 225 255
201 225 255
201 225 255
201 224 255
201 224 255
201 224 255
201 224 255
201 224 255
201 224 255
201 224 255
201 224 255
201 224 255
201 224 255
200 224 255
200 224 255
200 224 255
200 224 255
200 224 255
200 224 255
200 224 255
200 224 255
200 224 255
200 224 255
200 224 255
200 224 255
200 224 255
199 224 255
199 224 255
199 224 255
199 223 255
199 223 255
199 223 255
199 223 255
199 223 255
199 223 255
199 223 255
199 223 255
199 223 255
199 223 255
199 223 255
198 223 255
198 223 255
198 223 255
198 223 255
198 223 255
198 223 255
198 223 255
198 223 255
198 223 255
198 223 255
198 223 255
198 223 255
198 223 255
198 223 255
197 222 255
197 222 255
197 222 255
197 222 255
197 222 255
197 222 255
197 222 255
197 222 255
197 222 255
197 222 255
197 222 255
197 222 255
197 222 255
197 222 255
196 222 255
196 222 255
196 222 255
196 222 255
196 222 255
196 222 255
196 222 255
196 222 255
196 222 255
196 222 255
196 222 255
196 222 255
196 222 255
196 222 255
196 222 255
196 221 255
195 221 255
195 221 255
195 221 255
195 221 255
195 221 255
195 221 255
195 221 255
195 221 255
195 221 255
195 221 255
195 221 255
195 221 255
195 221 255
195 221 255
195 221 255
195 221 255
195 221 255
195 221 255
195 221 255
195 221 255
195 221 255
194 221 255
194 221 255
194 221 255
194 221 255
194 221 255
194 221 255
194 221 255
194 221 255
194 221 255
194 221 255
194 221 255
194 221 255
194 221 255
194 221 255
194 221 255
194 221 255
194 221 255
194 221 255
194 221 255
194 221 255
194 221 255
194 221 255
194 221 255
194 221 255
194 221 255
194 221 255
194 221 255
194 221 255
194 221 255
194 221 255
194 221 255
194 221 255
194 221 255
194 221 255
194 221 255
194 221 255
194 221 255
194 221 255
194 221 255
194 221 255
194 221 255
194 221 255
194 221 255
194 221 255
194 221 255
194 221 255
194 221 255
194 221 255
194 221 255
194 221 255
194 221 255
194 221 255
194 221 255
194 221 255
194 221 255
194 221 255
194 221 255
194 221 255
194 221 255
194 221 255
194 221 255
194 221 255
194 221 255
194 221 255
194 221 255
194 221 255
195 221 255
195 221 255
195 221 255
195 221 255
195 221 255
195 221 255
195 221 255
195 221 255
195 221 255
195 221 255
195 221 255
195 221 255
195 221 255
195 221 255
195 221 255
195 221 255
195 221 255
195 221 255
195 221 255
195 221 255
196 221 255
196 222 255
196 222 255
196 222 255
196 222 255
196 222 255
196 222 255
196 222 255
196 222 255
196 222 255
196 222 255
196 222 255
196 222 255
196 222 255
196 222 255
196 222 255
197 222 255
197 222 255
197 222 255
197 222 255
197 222 255
197 222 255
197 222 255
197 222 255
197 222 255
197 222 255
197 222 255
197 222 255
197 222 255
197 222 255
198 223 255
198 223 255
198 223 255
198 223 255
198 223 255
198 223 255
198 223 255
198 223 255
198 223 255
198 223 255
198 223 255
198 223 255
198 223 255
198 223 255
199 223 255
199 223 255
199 223 255
199 223 255
199 223 255
199 223 255
199 223 255
199 223 255
199 223 255
199 223 255
199 223 255
199 224 255
199 224 255
199 224 255
200 224 255
200 224 255
200 224 255
200 224 255
200 224 255
200 224 255
200 224 255
200 224 255
200 224 255
200 224 255
200 224 255
200 224 255
200 224 255
201 224 255
201 224 255
201 224 255
201 224 255
201 224 255
201 224 255
201 224 255
201 224 255
201 224 255
201 224 255
201 225 255
201 225 255
201 225 255
201 225 255
201 225 255
202 225 255
202 225 255
202 225 255
202 225 255
202 225 255
202 225 255
202 225 255
202 225 255
202 225 255
202 225 255
202 225 255
202 225 255
202 225 255
202 225 255
202 225 255
203 225 255
203 225 255
203 225 255
203 225 255
203 225 255
203 225 255
203 225 255
203 225 255
203 226 255
203 226 255
203 226 255
203 226 255
203 226 255
203 226 255
203 226 255
204 226 255
204 226 255
204 226 255
204 226 255
204 226 255
204 226 255
204 226 255
204 226 255
204 226 255
204 226 255
204 226 255
204 226 255
204 226 255
204 226 255
204 226 255
204 226 255
204 226 255
205 226 255
205 226 255
205 226 255
205 226 255
205 226 255
205 226 255
205 226 255
205 226 255
205 226 255
205 226 255
205 226 255
205 226 255
205 226 255
204 226 255
204 226 255
204 226 255
204 226 255
204 226 255
204 226 255
204 226 255
204 226 255
204 226 255
204 226 255
204 226 255
204 226 255
204 226 255
204 226 255
204 226 255
204 226 255
204 226 255
203 226 255
203 226 255
203 226 255
203 226 255
203 226 255
203 226 255
203 226 255
203 225 255
203 225 255
203 225 255
203 225 255
203 225 255
203 225 255
203 225 255
203 225 255
203 225 255
202 225 255
202 225 255
202 225 255
202 225 255
202 225 255
202 225 255
202 225 255
202 225 255
202 225 255
202 225 255
202 225 255
202 225 255
202 225 255
202 225 255
201 225 255
201 225 255
201 225 255
201 225 255
201 225 255
201 224 255
201 224 255
201 224 255
201 224 255
201 224 255
201 224 255
201 224 255
201 224 255
201 224 255
201 224 255
200 224 255
200 224 255
200 224 255
200 224 255
200 224 255
200 224 255
200 224 255
200 224 255
200 224 255
200 224 255
200 224 255
200 224 255
200 224 255
200 224 255
199 224 255
199 224 255
199 223 255
199 223 255
199 223 255
199 223 255
199 223 255
199 223 255
199 223 255
199 223 255
199 223 255
199 223 255
199 223 255
198 223 255
198 223 255
198 223 255
198 223 255
198 223 255
198 223 255
198 223 255
198 223 255
198 223 255
198 223 255
198 223 255
198 223 255
198 223 255
198 223 255
197 222 255
197 222 255
197 222 255
197 222 255
197 222 255
197 222 255
197 222 255
197 222 255
197 222 255
197 222 255
197 222 255
197 222 255
197 222 255
197 222 255
197 222 255
196 222 255
196 222 255
196 222 255
196 222 255
196 222 255
196 222 255
196 222 255
196 222 255
196 222 255
196 222 255
196 222 255
196 222 255
196 222 255
196 222 255
196 221 255
196 221 255
195 221 255
195 221 255
195 221 255
195 221 255
195 221 255
195 221 255
195 221 255
195 221 255
195 221 255
195 221 255
195 221 255
195 221 255
195 221 255
195 221 255
195 221 255
195 221 255
195 221 255
195 221 255
195 221 255
195 221 255
195 221 255
194 221 255
194 221 255
194 221 255
194 221 255
194 221 255
194 221 255
194 221 255
194 221 255
194 221 255
194 221 255
194 221 255
194 221 255
194 221 255
194 221 255
194 221 255
194 221 255
194 221 255
194 221 255
194 221 255
194 221 255
194 221 255
194 221 255
194 221 255
194 221 255
194 221 255
194 221 255
194 221 255
194 221 255
194 221 255
194 221 255
194 221 255
194 221 255
194 221 255
194 221 255
194 221 255
194 221 255
194 221 255
194 221 255
194 221 255
194 221 255
194 221 255
194 221 255
194 221 255
194 221 255
194 221 255
194 221 255
194 221 255
194 221 255
194 221 255
194 221 255
194 221 255
194 221 255
194 221 255
194 221 255
194 221 255
194 221 255
194 221 255
194 221 255
194 221 255
195 221 255
195 221 255
195 221 255
195 221 255
195 221 255
195 221 255
195 221 255
195 221 255
195 221 255
195 221 255
195 221 255
195 221 255
195 221 255
195 221 255
195 221 255
195 221 255
195 221 255
195 221 255
195 221 255
195 221 255
195 221 255
196 221 255
196 222 255
196 222 255
196 222 255
196 222 255
196 222 255
196 222 255
196 222 255
196 222 255
196 222 255
196 222 255
196 222 255
196 222 255
196 222 255
196 222 255
196 222 255
197 222 255
197 222 255
197 222 255
197 222 255
197 222 255
197 222 255
197 222 255
197 222 255
197 222 255
197 222 255
197 222 255
197 222 255
197 222 255
197 222 255
197 222 255
198 223 255
198 223 255
198 223 255
198 223 255
198 223 255
198 223 255
198 223 255
198 223 255
198 223 255
198 223 255
198 223 255
198 223 255
198 223 255
198 223 255
199 223 255
199 223 255
199 223 255
199 223 255
199 223 255
199 223 255
199 223 255
199 223 255
199 223 255
199 223 255
199 223 255
199 224 255
199 224 255
199 224 255
200 224 255
200 224 255
200 224 255
200 224 255
200 224 255
200 224 255
200 224 255
200 224 255
200 224 255
200 224 255
200 224 255
200 224 255
200 224 255
201 224 255
201 224 255
201 224 255
201 224 255
201 224 255
201 224 255
201 224 255
201 224 255
201 224 255
201 224 255
201 225 255
201 225 255
201 225 255
201 225 255
202 225 255
202 225 255
202 225 255
202 225 255
202 225 255
202 225 255
202 225 255
202 225 255
202 225 255
202 225 255
202 225 255
202 225 255
202 225 255
202 225 255
202 225 255
203 225 255
203 225 255
203 225 255
203 225 255
203 225 255
203 225 255
203 225 255
203 225 255
203 225 255
203 226 255
203 226 255
203 226 255
203 226 255
203 226 255
203 226 255
203 226 255
204 226 255
204 226 255
204 226 255
204 226 255
204 226 255
204 226 255
204 226 255
204 226 255
204 226 255
204 226 255
204 226 255
204 226 255
204 226 255
204 226 255
204 226 255
204 226 255
204 226 255
205 226 255
205 226 255
205 226 255
205 226 255
205 226 255
205 226 255
205 226 255
205 227 255
205 227 255
205 227 255
205 226 255
205 226 255
205 226 255
205 226 255
205 226 255
205 226 255
205 226 255
204 226 255
204 226 255
204 226 255
204 226 255
204 226 255
204 226 255
204 226 255
204 226 255
204 226 255
204 226 255
204 226 255
204 226 255
204 226 255
204 226 255
204 226 255
204 226 255
204 226 255
203 226 255
203 226 255
203 226 255
203 226 255
203 226 255
203 226 255
203 226 255
203 225 255
203 225 255
203 225 255
203 225 255
203 225 255
203 225 255
203 225 255
203 225 255
203 225 255
202 225 255
202 225 255
202 225 255
202 225 255
202 225 255
202 225 255
202 225 255
202 225 255
202 225 255
202 225 255
202 225 255
202 225 255
202 225 255
202 225 255
202 225 255
201 225 255
201 225 255
201 225 255
201 225 255
201 224 255
201 224 255
201 224 255
201 224 255
201 224 255
201 224 255
201 224 255
201 224 255
201 224 255
201 224 255
200 224 255
200 224 255
200 224 255
200 224 255
200 224 255
200 224 255
200 224 255
200 224 255
200 224 255
200 224 255
200 224 255
200 224 255
200 224 255
200 224 255
199 224 255
199 224 255
199 223 255
199 223 255
199 223 255
199 223 255
199 223 255
199 223 255
199 223 255
199 223 255
199 223 255
199 223 255
199 223 255
198 223 255
198 223 255
198 223 255
198 223 255
198 223 255
198 223 255
198 223 255
198 223 255
198 223 255
198 223 255
198 223 255
198 223 255
198 223 255
198 223 255
197 223 255
197 222 255
197 222 255
197 222 255
197 222 255
197 222 255
197 222 255
197 222 255
197 222 255
197 222 255
197 222 255
197 222 255
197 222 255
197 222 255
197 222 255
196 222 255
196 222 255
196 222 255
196 222 255
196 222 255
196 222 255
196 222 255
196 222 255
196 222 255
196 222 255
196 222 255
196 222 255
196 222 255
196 222 255
196 222 255
196 221 255
196 221 255
195 221 255
195 221 255
195 221 255
195 221 255
195 221 255
195 221 255
195 221 255
195 221 255
195 221 255
195 221 255
195 221 255
195 221 255
195 221 255
195 221 255
195 221 255
195 221 255
195 221 255
195 221 255
195 221 255
195 221 255
195 221 255
195 221 255
195 221 255
194 221 255
194 221 255
194 221 255
194 221 255
194 221 255
194 221 255
194 221 255
194 221 255
194 221 255
194 221 255
194 221 255
194 221 255
194 221 255
194 221 255
194 221 255
194 221 255
194 221 255
194 221 255
194 221 255
194 221 255
194 221 255
194 221 255
194 221 255
194 221 255
194 221 255
194 221 255
194 221 255
194 221 255
194 221 255
194 221 255
194 221 255
194 221 255
194 221 255
194 221 255
194 221 255
194 221 255
194 221 255
194 221 255
194 221 255
194 221 255
194 221 255
194 221 255
194 221 255
194 221 255
194 221 255
194 221 255
194 221 255
194 221 255
194 221 255
195 221 255
195 221 255
195 221 255
195 221 255
195 221 255
195 221 255
195 221 255
195 221 255
195 221 255
195 221 255
195 221 255
195 221 255
195 221 255
195 221 255
195 221 255
195 221 255
195 221 255
195 221 255
195 221 255
195 221 255
195 221 255
195 221 255
195 221 255
196 221 255
196 221 255
196 222 255
196 222 255
196 222 255
196 222 255
196 222 255
196 222 255
196 222 255
196 222 255
196 222 255
196 222 255
196 222 255
196 222 255
196 222 255
196 222 255
196 222 255
197 222 255
197 222 255
197 222 255
197 222 255
197 222 255
197 222 255
197 222 255
197 222 255
197 222 255
197 222 255
197 222 255
197 222 255
197 222 255
197 222 255
197 223 255
198 223 255
198 223 255
198 223 255
198 223 255
198 223 255
198 223 255
198 223 255
198 223 255
198 223 255
198 223 255
198 223 255
198 223 255
198 223 255
198 223 255
199 223 255
199 223 255
199 223 255
199 223 255
199 223 255
199 223 255
199 223 255
199 223 255
199 223 255
199 223 255
199 223 255
199 224 255
199 224 255
200 224 255
200 224 255
200 224 255
200 224 255
200 224 255
200 224 255
200 224 255
200 224 255
200 224 255
200 224 255
200 224 255
200 224 255
200 224 255
200 224 255
201 224 255
201 224 255
201 224 255
201 224 255
201 224 255
201 224 255
201 224 255
201 224 255
201 224 255
201 224 255
201 225 255
201 225 255
201 225 255
201 225 255
202 225 255
202 225 255
202 225 255
202 225 255
202 225 255
202 225 255
202 225 255
202 225 255
202 225 255
202 225 255
202 225 255
202 225 255
202 225 255
202 225 255
202 225 255
203 225 255
203 225 255
203 225 255
203 225 255
203 225 255
203 225 255
203 225 255
203 225 255
203 225 255
203 226 255
203 226 255
203 226 255
203 226 255
203 226 255
203 226 255
203 226 255
204 226 255
204 226 255
204 226 255
204 226 255
204 226 255
204 226 255
204 226 255
204 226 255
204 226 255
204 226 255
204 226 255
204 226 255
204 226 255
204 226 255
204 226 255
204 226 255
204 226 255
205 226 255
205 226 255
205 226 255
205 226 255
205 226 255
205 226 255
205 226 255
205 227 255
205 227 255
205 227 255
205 227 255
205 227 255
205 227 255
205 227 255
205 227 255
205 226 255
205 226 255
205 226 255
205 226 255
205 226 255
205 226 255
205 226 255
204 226 255
204 226 255
204 226 255
204 226 255
204 226 255
204 226 255
204 226 255
204 226 255
204 226 255
204 226 255
204 226 255
204 226 255
204 226 255
204 226 255
204 226 255
204 226 255
203 226 255
203 226 255
203 226 255
203 226 255
203 226 255
203 226 255
203 226 255
203 225 255
203 225 255
203 225 255
203 225 255
203 225 255
203 225 255
203 225 255
203 225 255
203 225 255
202 225 255
202 225 255
202 225 255
202 225 255
202 225 255
202 225 255
202 225 255
202 225 255
202 225 255
202 225 255
202 225 255
202 225 255
202 225 255
202 225 255
202 225 255
201 225 255
201 225 255
201 225 255
201 225 255
201 224 255
201 224 255
201 224 255
201 224 255
201 224 255
201 224 255
201 224 255
201 224 255
201 224 255
201 224 255
200 224 255
200 224 255
200 224 255
200 224 255
200 224 255
200 224 255
200 224 255
200 224 255
200 224 255
200 224 255
200 224 255
200 224 255
200 224 255
200 224 255
199 224 255
199 224 255
199 223 255
199 223 255
199 223 255
199 223 255
199 223 255
199 223 255
199 223 255
199 223 255
199 223 255
199 223 255
199 223 255
198 223 255
198 223 255
198 223 255
198 223 255
198 223 255
198 223 255
198 223 255
198 223 255
198 223 255
198 223 255
198 223 255
198 223 255
198 223 255
198 223 255
197 223 255
197 222 255
197 222 255
197 222 255
197 222 255
197 222 255
197 222 255
197 222 255
197 222 255
197 222 255
197 222 255
197 222 255
197 222 255
197 222 255
197 222 255
196 222 255
196 222 255
196 222 255
196 222 255
196 222 255
196 222 255
196 222 255
196 222 255
196 222 255
196 222 255
196 222 255
196 222 255
196 222 255
196 222 255
196 222 255
196 222 255
196 221 255
196 221 255
195 221 255
195 221 255
195 221 255
195 221 255
195 221 255
195 221 255
195 221 255
195 221 255
195 221 255
195 221 255
195 221 255
195 221 255
195 221 255
195 221 255
195 221 255
195 221 255
195 221 255
195 221 255
195 221 255
195 221 255
195 221 255
195 221 255
195 221 255
195 221 255
195 221 255
195 221 255
194 221 255
194 221 255
194 221 255
194 221 255
194 221 255
194 221 255
194 221 255
194 221 255
194 221 255
194 221 255
194 221 255
194 221 255
194 221 255
194 221 255
194 221 255
194 221 255
194 221 255
194 221 255
194 221 255
194 221 255
194 221 255
194 221 255
194 221 255
194 221 255
194 221 255
194 221 255
194 221 255
194 221 255
194 221 255
194 221 255
194 221 255
194 221 255
194 221 255
194 221 255
194 221 255
194 221 255
194 221 255
195 221 255
195 221 255
195 221 255
195 221 255
195 221 255
195 221 255
195 221 255
195 221 255
195 221 255
195 221 255
195 221 255
195 221 255
195 221 255
195 221 255
195 221 255
195 221 255
195 221 255
195 221 255
195 221 255
195 221 255
195 221 255
195 221 255
195 221 255
195 221 255
195 221 255
195 221 255
196 221 255
196 221 255
196 222 255
196 222 255
196 222 255
196 222 255
196 222 255
196 222 255
196 222 255
196 222 255
196 222 255
196 222 255
196 222 255
196 222 255
196 222 255
196 222 255
196 222 255
196 222 255
197 222 255
197 222 255
197 222 255
197 222 255
197 222 255
197 222 255
197 222 255
197 222 255
197 222 255
197 222 255
197 222 255
197 222 255
197 222 255
197 222 255
197 223 255
198 223 255
198 223 255
198 223 255
198 223 255
198 223 255
198 223 255
198 223 255
198 223 255
198 223 255
198 223 255
198 223 255
198 223 255
198 223 255
198 223 255
199 223 255
199 223 255
199 223 255
199 223 255
199 223 255
199 223 255
199 223 255
199 223 255
199 223 255
199 223 255
199 223 255
199 224 255
199 224 255
200 224 255
200 224 255
200 224 255
200 224 255
200 224 255
200 224 255
200 224 255
200 224 255
200 224 255
200 224 255
200 224 255
200 224 255
200 224 255
200 224 255
201 224 255
201 224 255
201 224 255
201 224 255
201 224 255
201 224 255
201 224 255
201 224 255
201 224 255
201 224 255
201 225 255
201 225 255
201 225 255
201 225 255
202 225 255
202 225 255
202 225 255
202 225 255
202 225 255
202 225 255
202 225 255
202 225 255
202 225 255
202 225 255
202 225 255
202 225 255
202 225 255
202 225 255
202 225 255
203 225 255
203 225 255
203 225 255
203 225 255
203 225 255
203 225 255
203 225 255
203 225 255
203 226 255
203 226 255
203 226 255
203 226 255
203 226 255
203 226 255
203 226 255
203 226 255
204 226 255
204 226 255
204 226 255
204 226 255
204 226 255
204 226 255
204 226 255
204 226 255
204 226 255
204 226 255
204 226 255
204 226 255
204 226 255
204 226 255
204 226 255
204 226 255
205 226 255
205 226 255
205 226 255
205 226 255
205 226 255
205 226 255
205 226 255
205 227 255
205 227 255
205 227 255
205 227 255
205 227 255
205 227 255
205 227 255
205 227 255
205 227 255
205 227 255
205 227 255
205 227 255
205 227 255
205 226 255
205 226 255
205 226 255
205 226 255
205 226 255
205 226 255
205 226 255
204 226 255
204 226 255
204 226 255
204 226 255
204 226 255
204 226 255
204 226 255
204 226 255
204 226 255
204 226 255
204 226 255
204 226 255
204 226 255
204 226 255
204 226 255
204 226 255
204 226 255
203 226 255
203 226 255
203 226 255
203 226 255
203 226 255
203 226 255
203 226 255
203 225 255
203 225 255
203 225 255
203 225 255
203 225 255
203 225 255
203 225 255
203 225 255
202 225 255
202 225 255
202 225 255
202 225 255
202 225 255
202 225 255
202 225 255
202 225 255
202 225 255
202 225 255
202 225 255
202 225 255
202 225 255
202 225 255
202 225 255
201 225 255
201 225 255
201 225 255
201 225 255
201 224 255
201 224 255
201 224 255
201 224 255
201 224 255
201 224 255
201 224 255
201 224 255
201 224 255
201 224 255
200 224 255
200 224 255
200 224 255
200 224 255
200 224 255
200 224 255
200 224 255
200 224 255
200 224 255
200 224 255
200 224 255
200 224 255
200 224 255
200 224 255
199 224 255
199 224 255
199 223 255
199 223 255
199 223 255
199 223 255
199 223 255
199 223 255
199 223 255
199 223 255
199 223 255
199 223 255
199 223 255
199 223 255
198 223 255
198 223 255
198 223 255
198 223 255
198 223 255
198 223 255
198 223 255
198 223 255
198 223 255
198 223 255
198 223 255
198 223 255
198 223 255
198 223 255
197 222 255
197 222 255
197 222 255
197 222 255
197 222 255
197 222 255
197 222 255
197 222 255
197 222 255
197 222 255
197 222 255
197 222 255
197 222 255
197 222 255
197 222 255
196 222 255
196 222 255
196 222 255
196 222 255
196 222 255
196 222 255
196 222 255
196 222 255
196 222 255
196 222 255
196 222 255
196 222 255
196 222 255
196 222 255
196 222 255
196 222 255
196 221 255
196 221 255
195 221 255
195 221 255
195 221 255
195 221 255
195 221 255
195 221 255
195 221 255
195 221 255
195 221 255
195 221 255
195 221 255
195 221 255
195 221 255
195 221 255
195 221 255
195 221 255
195 221 255
195 221 255
195 221 255
195 221 255
195 221 255
195 221 255
195 221 255
195 221 255
195 221 255
195 221 255
195 221 255
195 221 255
195 221 255
195 221 255
194 221 255
194 221 255
194 221 255
194 221 255
194 221 255
194 221 255
194 221 255
194 221 255
194 221 255
194 221 255
194 221 255
194 221 255
194 221 255
194 221 255
194 221 255
194 221 255
194 221 255
194 221 255
194 221 255
194 221 255
194 221 255
194 221 255
194 221 255
195 221 255
195 221 255
195 221 255
195 221 255
195 221 255
195 221 255
195 221 255
195 221 255
195 221 255
195 221 255
195 221 255
195 221 255
195 221 255
195 221 255
195 221 255
195 221 255
195 221 255
195 221 255
195 221 255
195 221 255
195 221 255
195 221 255
195 221 255
195 221 255
195 221 255
195 221 255
195 221 255
195 221 255
195 221 255
195 221 255
196 221 255
196 221 255
196 222 255
196 222 255
196 222 255
196 222 255
196 222 255
196 222 255
196 222 255
196 222 255
196 222 255
196 222 255
196 222 255
196 222 255
196 222 255
196 222 255
196 222 255
196 222 255
197 222 255
197 222 255
197 222 255
197 222 255
197 222 255
197 222 255
197 222 255
197 222 255
197 222 255
197 222 255
197 222 255
197 222 255
197 222 255
197 222 255
197 222 255
198 223 255
198 223 255
198 223 255
198 223 255
198 223 255
198 223 255
198 223 255
198 223 255
198 223 255
198 223 255
198 223 255
198 223 255
198 223 255
198 223 255
198 223 255
199 223 255
199 223 255
199 223 255
199 223 255
199 223 255
199 223 255
199 223 255
199 223 255
199 223 255
199 223 255
199 223 255
199 224 255
199 224 255
200 224 255
200 224 255
200 224 255
200 224 255
200 224 255
200 224 255
200 224 255
200 224 255
200 224 255
200 224 255
200 224 255
200 224 255
200 224 255
200 224 255
201 224 255
201 224 255
201 224 255
201 224 255
201 224 255
201 224 255
201 224 255
201 224 255
201 224 255
201 224 255
201 225 255
201 225 255
201 225 255
201 225 255
202 225 255
202 225 255
202 225 255
202 225 255
202 225 255
202 225 255
202 225 255
202 225 255
202 225 255
202 225 255
202 225 255
202 225 255
202 225 255
202 225 255
202 225 255
203 225 255
203 225 255
203 225 255
203 225 255
203 225 255
203 225 255
203 225 255
203 225 255
203 226 255
203 226 255
203 226 255
203 226 255
203 226 255
203 226 255
203 226 255
204 226 255
204 226 255
204 226 255
204 226 255
204 226 255
204 226 255
204 226 255
204 226 255
204 226 255
204 226 255
204 226 255
204 226 255
204 226 255
204 226 255
204 226 255
204 226 255
204 226 255
205 226 255
205 226 255
205 226 255
205 226 255
205 226 255
205 226 255
205 226 255
205 227 255
205 227 255
205 227 255
205 227 255
205 227 255
205 227 255
205 227 255
205 227 255
205 227 255
205 227 255
205 227 255
205 227 255
205 227 255
205 227 255
205 227 255
205 227 255
205 227 255
205 227 255
205 226 255
205 226 255
205 226 255
205 226 255
205 226 255
205 226 255
205 226 255
204 226 255
204 226 255
204 226 255
204 226 255
204 226 255
204 226 255
204 226 255
204 226 255
204 226 255
204 226 255
204 226 255
204 226 255
204 226 255
204 226 255
204 226 255
204 226 255
203 226 255
203 226 255
203 226 255
203 226 255
203 226 255
203 226 255
203 226 255
203 225 255
203 225 255
203 225 255
203 225 255
203 225 255
203 225 255
203 225 255
203 225 255
203 225 255
202 225 255
202 225 255
202 225 255
202 225 255
202 225 255
202 225 255
202 225 255
202 225 255
202 225 255
202 225 255
202 225 255
202 225 255
202 225 255
202 225 255
201 225 255
201 225 255
201 225 255
201 225 255
201 224 255
201 224 255
201 224 255
201 224 255
201 224 255
201 224 255
201 224 255
201 224 255
201 224 255
201 224 255
200 224 255
200 224 255
200 224 255
200 224 255
200 224 255
200 224 255
200 224 255
200 224 255
200 224 255
200 224 255
200 224 255
200 224 255
200 224 255
200 224 255
199 224 255
199 224 255
199 223 255
199 223 255
199 223 255
199 223 255
199 223 255
199 223 255
199 223 255
199 223 255
199 223 255
199 223 255
199 223 255
199 223 255
198 223 255
198 223 255
198 223 255
198 223 255
198 223 255
198 223 255
198 223 255
198 223 255
198 223 255
198 223 255
198 223 255
198 223 255
198 223 255
198 223 255
197 223 255
197 222 255
197 222 255
197 222 255
197 222 255
197 222 255
197 222 255
197 222 255
197 222 255
197 222 255
197 222 255
197 222 255
197 222 255
197 222 255
197 222 255
196 222 255
196 222 255
196 222 255
196 222 255
196 222 255
196 222 255
196 222 255
196 222 255
196 222 255
196 222 255
196 222 255
196 222 255
196 222 255
196 222 255
196 222 255
196 222 255
196 222 255
196 221 255
196 221 255
195 221 255
195 221 255
195 221 255
195 221 255
195 221 255
195 221 255
195 221 255
195 221 255
195 221 255
195 221 255
195 221 255
195 221 255
195 221 255
195 221 255
195 221 255
195 221 255
195 221 255
195 221 255
195 221 255
195 221 255
195 221 255
195 221 255
195 221 255
195 221 255
195 221 255
195 221 255
195 221 255
195 221 255
195 221 255
195 221 255
195 221 255
195 221 255
195 221 255
195 221 255
195 221 255
195 221 255
195 221 255
195 221 255
195 221 255
195 221 255
195 221 255
195 221 255
195 221 255
195 221 255
195 221 255
195 221 255
195 221 255
195 221 255
195 221 255
195 221 255
195 221 255
195 221 255
195 221 255
195 221 255
195 221 255
195 221 255
195 221 255
195 221 255
195 221 255
195 221 255
195 221 255
195 221 255
195 221 255
195 221 255
195 221 255
195 221 255
195 221 255
195 221 255
195 221 255
195 221 255
195 221 255
195 221 255
195 221 255
195 221 255
195 221 255
195 221 255
195 221 255
196 221 255
196 221 255
196 222 255
196 222 255
196 222 255
196 222 255
196 222 255
196 222 255
196 222 255
196 222 255
196 222 255
196 222 255
196 222 255
196 222 255
196 222 255
196 222 255
196 222 255
196 222 255
196 222 255
197 222 255
197 222 255
197 222 255
197 222 255
197 222 255
197 222 255
197 222 255
197 222 255
197 222 255
197 222 255
197 222 255
197 222 255
197 222 255
197 222 255
197 223 255
198 223 255
198 223 255
198 223 255
198 223 255
198 223 255
198 223 255
198 223 255
198 223 255
198 223 255
198 223 255
198 223 255
198 223 255
198 223 255
198 223 255
199 223 255
199 223 255
199 223 255
199 223 255
199 223 255
199 223 255
199 223 255
199 223 255
199 223 255
199 223 255
199 223 255
199 223 255
199 224 255
199 224 255
200 224 255
200 224 255
200 224 255
200 224 255
200 224 255
200 224 255
200 224 255
200 224 255
200 224 255
200 224 255
200 224 255
200 224 255
200 224 255
200 224 255
201 224 255
201 224 255
201 224 255
201 224 255
201 224 255
201 224 255
201 224 255
201 224 255
201 224 255
201 224 255
201 225 255
201 225 255
201 225 255
201 225 255
202 225 255
202 225 255
202 225 255
202 225 255
202 225 255
202 225 255
202 225 255
202 225 255
202 225 255
202 225 255
202 225 255
202 225 255
202 225 255
202 225 255
203 225 255
203 225 255
203 225 255
203 225 255
203 225 255
203 225 255
203 225 255
203 225 255
203 225 255
203 226 255
203 226 255
203 226 255
203 226 255
203 226 255
203 226 255
203 226 255
204 226 255
204 226 255
204 226 255
204 226 255
204 226 255
204 226 255
204 226 255
204 226 255
204 226 255
204 226 255
204 226 255
204 226 255
204 226 255
204 226 255
204 226 255
204 226 255
205 226 255
205 226 255
205 226 255
205 226 255
205 226 255
205 226 255
205 226 255
205 227 255
205 227 255
205 227 255
205 227 255
205 227 255
205 227 255
205 227 255
205 227 255
205 227 255
205 227 255
205 227 255
206 227 255
205 227 255
205 227 255
205 227 255
205 227 255
205 227 255
205 227 255
205 227 255
205 227 255
205 227 255
205 227 255
205 227 255
205 226 255
205 226 255
205 226 255
205 226 255
205 226 255
205 226 255
205 226 255
204 226 255
204 226 255
204 226 255
204 226 255
204 226 255
204 226 255
204 226 255
204 226 255
204 226 255
204 226 255
204 226 255
204 226 255
204 226 255
204 226 255
204 226 255
204 226 255
203 226 255
203 226 255
203 226 255
203 226 255
203 226 255
203 226 255
203 226 255
203 225 255
203 225 255
203 225 255
203 225 255
203 225 255
203 225 255
203 225 255
203 225 255
203 225 255
202 225 255
202 225 255
202 225 255
202 225 255
202 225 255
202 225 255
202 225 255
202 225 255
202 225 255
202 225 255
202 225 255
202 225 255
202 225 255
202 225 255
201 225 255
201 225 255
201 225 255
201 225 255
201 225 255
201 224 255
201 224 255
201 224 255
201 224 255
201 224 255
201 224 255
201 224 255
201 224 255
201 224 255
200 224 255
200 224 255
200 224 255
200 224 255
200 224 255
200 224 255
200 224 255
200 224 255
200 224 255
200 224 255
200 224 255
200 224 255
200 224 255
200 224 255
199 224 255
199 224 255
199 223 255
199 223 255
199 223 255
199 223 255
199 223 255
199 223 255
199 223 255
199 223 255
199 223 255
199 223 255
199 223 255
199 223 255
198 223 255
198 223 255
198 223 255
198 223 255
198 223 255
198 223 255
198 223 255
198 223 255
198 223 255
198 223 255
198 223 255
198 223 255
198 223 255
198 223 255
198 223 255
197 222 255
197 222 255
197 222 255
197 222 255
197 222 255
197 222 255
197 222 255
197 222 255
197 222 255
197 222 255
197 222 255
197 222 255
197 222 255
197 222 255
197 222 255
196 222 255
196 222 255
196 222 255
196 222 255
196 222 255
196 222 255
196 222 255
196 222 255
196 222 255
196 222 255
196 222 255
196 222 255
196 222 255
196 222 255
196 222 255
196 222 255
196 222 255
196 222 255
196 221 255
196 221 255
195 221 255
195 221 255
195 221 255
195 221 255
195 221 255
195 221 255
195 221 255
195 221 255
195 221 255
195 221 255
195 221 255
195 221 255
195 221 255
195 221 255
195 221 255
195 221 255
195 221 255
195 221 255
195 221 255
195 221 255
195 221 255
195 221 255
195 221 255
195 221 255
195 221 255
195 221 255
195 221 255
195 221 255
195 221 255
195 221 255
195 221 255
195 221 255
195 221 255
195 221 255
195 221 255
195 221 255
195 221 255
195 221 255
195 221 255
195 221 255
195 221 255
195 221 255
195 221 255
195 221 255
195 221 255
195 221 255
195 221 255
195 221 255
195 221 255
195 221 255
195 221 255
195 221 255
195 221 255
195 221 255
195 221 255
195 221 255
195 221 255
195 221 255
195 221 255
195 221 255
195 221 255
195 221 255
195 221 255
195 221 255
195 221 255
195 221 255
195 221 255
195 221 255
195 221 255
196 221 255
196 221 255
196 222 255
196 222 255
196 222 255
196 222 255
196 222 255
196 222 255
196 222 255
196 222 255
196 222 255
196 222 255
196 222 255
196 222 255
196 222 255
196 222 255
196 222 255
196 222 255
196 222 255
196 222 255
197 222 255
197 222 255
197 222 255
197 222 255
197 222 255
197 222 255
197 222 255
197 222 255
197 222 255
197 222 255
197 222 255
197 222 255
197 222 255
197 222 255
197 222 255
198 223 255
198 223 255
198 223 255
198 223 255
198 223 255
198 223 255
198 223 255
198 223 255
198 223 255
198 223 255
198 223 255
198 223 255
198 223 255
198 223 255
198 223 255
199 223 255
199 223 255
199 223 255
199 223 255
199 223 255
199 223 255
199 223 255
199 223 255
199 223 255
199 223 255
199 223 255
199 223 255
199 224 255
199 224 255
200 224 255
200 224 255
200 224 255
200 224 255
200 224 255
200 224 255
200 224 255
200 224 255
200 224 255
200 224 255
200 224 255
200 224 255
200 224 255
200 224 255
201 224 255
201 224 255
201 224 255
201 224 255
201 224 255
201 224 255
201 224 255
201 224 255
201 224 255
201 225 255
201 225 255
201 225 255
201 225 255
201 225 255
202 225 255
202 225 255
202 225 255
202 225 255
202 225 255
202 225 255
202 225 255
202 225 255
202 225 255
202 225 255
202 225 255
202 225 255
202 225 255
202 225 255
203 225 255
203 225 255
203 225 255
203 225 255
203 225 255
203 225 255
203 225 255
203 225 255
203 225 255
203 226 255
203 226 255
203 226 255
203 226 255
203 226 255
203 226 255
203 226 255
204 226 255
204 226 255
204 226 255
204 226 255
204 226 255
204 226 255
204 226 255
204 226 255
204 226 255
204 226 255
204 226 255
204 226 255
204 226 255
204 226 255
204 226 255
204 226 255
205 226 255
205 226 255
205 226 255
205 226 255
205 226 255
205 226 255
205 226 255
205 227 255
205 227 255
205 227 255
205 227 255
205 227 255
205 227 255
205 227 255
205 227 255
205 227 255
205 227 255
205 227 255
206 227 255
206 227 255
206 227 255
206 227 255
206 227 255
206 227 255
205 227 255
205 227 255
205 227 255
205 227 255
205 227 255
205 227 255
205 227 255
205 227 255
205 227 255
205 227 255
205 227 255
205 226 255
205 226 255
205 226 255
205 226 255
205 226 255
205 226 255
205 226 255
204 226 255
204 226 255
204 226 255
204 226 255
204 226 255
204 226 255
204 226 255
204 226 255
204 226 255
204 226 255
204 226 255
204 226 255
204 226 255
204 226 255
204 226 255
204 226 255
203 226 255
203 226 255
203 226 255
203 226 255
203 226 255
203 226 255
203 226 255
203 225 255
203 225 255
203 225 255
203 225 255
203 225 255
203 225 255
203 225 255
203 225 255
202 225 255
202 225 255
202 225 255
202 225 255
202 225 255
202 225 255
202 225 255
202 225 255
202 225 255
202 225 255
202 225 255
202 225 255
202 225 255
202 225 255
202 225 255
201 225 255
201 225 255
201 225 255
201 225 255
201 224 255
201 224 255
201 224 255
201 224 255
201 224 255
201 224 255
201 224 255
201 224 255
201 224 255
201 224 255
200 224 255
200 224 255
200 224 255
200 224 255
200 224 255
200 224 255
200 224 255
200 224 255
200 224 255
200 224 255
200 224 255
200 224 255
200 224 255
199 224 255
199 224 255
199 224 255
199 223 255
199 223 255
199 223 255
199 223 255
199 223 255
199 223 255
199 223 255
199 223 255
199 223 255
199 223 255
199 223 255
198 223 255
198 223 255
198 223 255
198 223 255
198 223 255
198 223 255
198 223 255
198 223 255
198 223 255
198 223 255
198 223 255
198 223 255
198 223 255
198 223 255
198 223 255
197 222 255
197 222 255
197 222 255
197 222 255
197 222 255
197 222 255
197 222 255
197 222 255
197 222 255
197 222 255
197 222 255
197 222 255
197 222 255
197 222 255
197 222 255
197 222 255
196 222 255
196 222 255
196 222 255
196 222 255
196 222 255
196 222 255
196 222 255
196 222 255
196 222 255
196 222 255
196 222 255
196 222 255
196 222 255
196 222 255
196 222 255
196 222 255
196 222 255
196 222 255
196 221 255
196 221 255
196 221 255
195 221 255
195 221 255
195 221 255
195 221 255
195 221 255
195 221 255
195 221 255
195 221 255
195 221 255
195 221 255
195 221 255
195 221 255
195 221 255
195 221 255
195 221 255
195 221 255
195 221 255
195 221 255
195 221 255
195 221 255
195 221 255
195 221 255
195 221 255
195 221 255
195 221 255
195 221 255
195 221 255
195 221 255
195 221 255
195 221 255
195 221 255
195 221 255
195 221 255
195 221 255
195 221 255
195 221 255
195 221 255
195 221 255
195 221 255
195 221 255
195 221 255
195 221 255
195 221 255
195 221 255
195 221 255
195 221 255
195 221 255
195 221 255
195 221 255
195 221 255
195 221 255
195 221 255
195 221 255
195 221 255
195 221 255
195 221 255
195 221 255
195 221 255
195 221 255
195 221 255
195 221 255
196 221 255
196 221 255
196 221 255
196 222 255
196 222 255
196 222 255
196 222 255
196 222 255
196 222 255
196 222 255
196 222 255
196 222 255
196 222 255
196 222 255
196 222 255
196 222 255
196 222 255
196 222 255
196 222 255
196 222 255
196 222 255
197 222 255
197 222 255
197 222 255
197 222 255
197 222 255
197 222 255
197 222 255
197 222 255
197 222 255
197 222 255
197 222 255
197 222 255
197 222 255
197 222 255
197 222 255
197 222 255
198 223 255
198 223 255
198 223 255
198 223 255
198 223 255
198 223 255
198 223 255
198 223 255
198 223 255
198 223 255
198 223 255
198 223 255
198 223 255
198 223 255
198 223 255
199 223 255
199 223 255
199 223 255
199 223 255
199 223 255
199 223 255
199 223 255
199 223 255
199 223 255
199 223 255
199 223 255
199 224 255
199 224 255
199 224 255
200 224 255
200 224 255
200 224 255
200 224 255
200 224 255
200 224 255
200 224 255
200 224 255
200 224 255
200 224 255
200 224 255
200 224 255
200 224 255
201 224 255
201 224 255
201 224 255
201 224 255
201 224 255
201 224 255
201 224 255
201 224 255
201 224 255
201 224 255
201 225 255
201 225 255
201 225 255
201 225 255
202 225 255
202 225 255
202 225 255
202 225 255
202 225 255
202 225 255
202 225 255
202 225 255
202 225 255
202 225 255
202 225 255
202 225 255
202 225 255
202 225 255
202 225 255
203 225 255
203 225 255
203 225 255
203 225 255
203 225 255
203 225 255
203 225 255
203 225 255
203 226 255
203 226 255
203 226 255
203 226 255
203 226 255
203 226 255
203 226 255
204 226 255
204 226 255
204 226 255
204 226 255
204 226 255
204 226 255
204 226 255
204 226 255
204 226 255
204 226 255
204 226 255
204 226 255
204 226 255
204 226 255
204 226 255
204 226 255
204 226 255
205 226 255
205 226 255
205 226 255
205 226 255
205 226 255
205 226 255
205 226 255
205 227 255
205 227 255
205 227 255
205 227 255
205 227 255
205 227 255
205 227 255
205 227 255
205 227 255
205 227 255
206 227 255
206 227 255
206 227 255
206 227 255
206 227 255
206 227 255
206 227 255
206 227 255
206 227 255
206 227 255
206 227 255
206 227 255
205 227 255
205 227 255
205 227 255
205 227 255
205 227 255
205 227 255
205 227 255
205 227 255
205 227 255
205 227 255
205 226 255
205 226 255
205 226 255
205 226 255
205 226 255
205 226 255
205 226 255
204 226 255
204 226 255
204 226 255
204 226 255
204 226 255
204 226 255
204 226 255
204 226 255
204 226 255
204 226 255
204 226 255
204 226 255
204 226 255
204 226 255
204 226 255
204 226 255
203 226 255
203 226 255
203 226 255
203 226 255
203 226 255
203 226 255
203 226 255
203 225 255
203 225 255
203 225 255
203 225 255
203 225 255
203 225 255
203 225 255
203 225 255
202 225 255
202 225 255
202 225 255
202 225 255
202 225 255
202 225 255
202 225 255
202 225 255
202 225 255
202 225 255
202 225 255
202 225 255
202 225 255
202 225 255
202 225 255
201 225 255
201 225 255
201 225 255
201 225 255
201 224 255
201 224 255
201 224 255
201 224 255
201 224 255
201 224 255
201 224 255
201 224 255
201 224 255
201 224 255
200 224 255
200 224 255
200 224 255
200 224 255
200 224 255
200 224 255
200 224 255
200 224 255
200 224 255
200 224 255
200 224 255
200 224 255
200 224 255
200 224 255
199 224 255
199 224 255
199 223 255
199 223 255
199 223 255
199 223 255
199 223 255
199 223 255
199 223 255
199 223 255
199 223 255
199 223 255
199 223 255
199 223 255
198 223 255
198 223 255
198 223 255
198 223 255
198 223 255
198 223 255
198 223 255
198 223 255
198 223 255
198 223 255
198 223 255
198 223 255
198 223 255
198 223 255
197 223 255
197 222 255
197 222 255
197 222 255
197 222 255
197 222 255
197 222 255
197 222 255
197 222 255
197 222 255
197 222 255
197 222 255
197 222 255
197 222 255
197 222 255
197 222 255
197 222 255
196 222 255
196 222 255
196 222 255
196 222 255
196 222 255
196 222 255
196 222 255
196 222 255
196 222 255
196 222 255
196 222 255
196 222 255
196 222 255
196 222 255
196 222 255
196 222 255
196 222 255
196 222 255
196 222 255
196 222 255
196 221 255
196 221 255
195 221 255
195 221 255
195 221 255
195 221 255
195 221 255
195 221 255
195 221 255
195 221 255
195 221 255
195 221 255
195 221 255
195 221 255
195 221 255
195 221 255
195 221 255
195 221 255
195 221 255
195 221 255
195 221 255
195 221 255
195 221 255
195 221 255
195 221 255
195 221 255
195 221 255
195 221 255
195 221 255
195 221 255
195 221 255
195 221 255
195 221 255
195 221 255
195 221 255
195 221 255
195 221 255
195 221 255
195 221 255
195 221 255
195 221 255
195 221 255
195 221 255
195 221 255
195 221 255
195 221 255
195 221 255
195 221 255
195 221 255
195 221 255
195 221 255
195 221 255
195 221 255
195 221 255
195 221 255
196 221 255
196 221 255
196 222 255
196 222 255
196 222 255
196 222 255
196 222 255
196 222 255
196 222 255
196 222 255
196 222 255
196 222 255
196 222 255
196 222 255
196 222 255
196 222 255
196 222 255
196 222 255
196 222 255
196 222 255
196 222 255
196 222 255
197 222 255
197 222 255
197 222 255
197 222 255
197 222 255
197 222 255
197 222 255
197 222 255
197 222 255
197 222 255
197 222 255
197 222 255
197 222 255
197 222 255
197 222 255
197 222 255
197 223 255
198 223 255
198 223 255
198 223 255
198 223 255
198 223 255
198 223 255
198 223 255
198 223 255
198 223 255
198 223 255
198 223 255
198 223 255
198 223 255
198 223 255
199 223 255
199 223 255
199 223 255
199 223 255
199 223 255
199 223 255
199 223 255
199 223 255
199 223 255
199 223 255
199 223 255
199 223 255
199 224 255
199 224 255
200 224 255
200 224 255
200 224 255
200 224 255
200 224 255
200 224 255
200 224 255
200 224 255
200 224 255
200 224 255
200 224 255
200 224 255
200 224 255
200 224 255
201 224 255
201 224 255
201 224 255
201 224 255
201 224 255
201 224 255
201 224 255
201 224 255
201 224 255
201 224 255
201 225 255
201 225 255
201 225 255
201 225 255
202 225 255
202 225 255
202 225 255
202 225 255
202 225 255
202 225 255
202 225 255
202 225 255
202 225 255
202 225 255
202 225 255
202 225 255
202 225 255
202 225 255
202 225 255
203 225 255
203 225 255
203 225 255
203 225 255
203 225 255
203 225 255
203 225 255
203 225 255
203 226 255
203 226 255
203 226 255
203 226 255
203 226 255
203 226 255
203 226 255
204 226 255
204 226 255
204 226 255
204 226 255
204 226 255
204 226 255
204 226 255
204 226 255
204 226 255
204 226 255
204 226 255
204 226 255
204 226 255
204 226 255
204 226 255
204 226 255
205 226 255
205 226 255
205 226 255
205 226 255
205 226 255
205 226 255
205 226 255
205 227 255
205 227 255
205 227 255
205 227 255
205 227 255
205 227 255
205 227 255
205 227 255
205 227 255
205 227 255
206 227 255
206 227 255
206 227 255
206 227 255
206 227 255
206 227 255
206 227 255
206 227 255
206 227 255
206 227 255
206 227 255
206 227 255
206 227 255
206 227 255
206 227 255
206 227 255
206 227 255
205 227 255
205 227 255
205 227 255
205 227 255
205 227 255
205 227 255
205 227 255
205 227 255
205 227 255
205 227 255
205 227 255
205 226 255
205 226 255
205 226 255
205 226 255
205 226 255
205 226 255
204 226 255
204 226 255
204 226 255
204 226 255
204 226 255
204 226 255
204 226 255
204 226 255
204 226 255
204 226 255
204 226 255
204 226 255
204 226 255
204 226 255
204 226 255
204 226 255
204 226 255
203 226 255
203 226 255
203 226 255
203 226 255
203 226 255
203 226 255
203 225 255
203 225 255
203 225 255
203 225 255
203 225 255
203 225 255
203 225 255
203 225 255
203 225 255
202 225 255
202 225 255
202 225 255
202 225 255
202 225 255
202 225 255
202 225 255
202 225 255
202 225 255
202 225 255
202 225 255
202 225 255
202 225 255
202 225 255
201 225 255
201 225 255
201 225 255
201 225 255
201 224 255
201 224 255
201 224 255
201 224 255
201 224 255
201 224 255
201 224 255
201 224 255
201 224 255
201 224 255
200 224 255
200 224 255
200 224 255
200 224 255
200 224 255
200 224 255
200 224 255
200 224 255
200 224 255
200 224 255
200 224 255
200 224 255
200 224 255
200 224 255
199 224 255
199 224 255
199 223 255
199 223 255
199 223 255
199 223 255
199 223 255
199 223 255
199 223 255
199 223 255
199 223 255
199 223 255
199 223 255
199 223 255
198 223 255
198 223 255
198 223 255
198 223 255
198 223 255
198 223 255
198 223 255
198 223 255
198 223 255
198 223 255
198 223 255
198 223 255
198 223 255
198 223 255
198 223 255
197 222 255
197 222 255
197 222 255
197 222 255
197 222 255
197 222 255
197 222 255
197 222 255
197 222 255
197 222 255
197 222 255
197 222 255
197 222 255
197 222 255
197 222 255
197 222 255
197 222 255
196 222 255
196 222 255
196 222 255
196 222 255
196 222 255
196 222 255
196 222 255
196 222 255
196 222 255
196 222 255
196 222 255
196 222 255
196 222 255
196 222 255
196 222 255
196 222 255
196 222 255
196 222 255
196 222 255
196 222 255
196 222 255
196 222 255
196 221 255
196 221 255
195 221 255
195 221 255
195 221 255
195 221 255
195 221 255
195 221 255
195 221 255
195 221 255
195 221 255
195 221 255
195 221 255
195 221 255
195 221 255
195 221 255
195 221 255
195 221 255
195 221 255
195 221 255
195 221 255
195 221 255
195 221 255
195 221 255
195 221 255
195 221 255
195 221 255
195 221 255
195 221 255
195 221 255
195 221 255
195 221 255
195 221 255
195 221 255
195 221 255
195 221 255
195 221 255
195 221 255
195 221 255
195 221 255
195 221 255
195 221 255
195 221 255
195 221 255
195 221 255
196 221 255
196 221 255
196 222 255
196 222 255
196 222 255
196 222 255
196 222 255
196 222 255
196 222 255
196 222 255
196 222 255
196 222 255
196 222 255
196 222 255
196 222 255
196 222 255
196 222 255
196 222 255
196 222 255
196 222 255
196 222 255
196 222 255
196 222 255
196 222 255
197 222 255
197 222 255
197 222 255
197 222 255
197 222 255
197 222 255
197 222 255
197 222 255
197 222 255
197 222 255
197 222 255
197 222 255
197 222 255
197 222 255
197 222 255
197 222 255
197 222 255
198 223 255
198 223 255
198 223 255
198 223 255
198 223 255
198 223 255
198 223 255
198 223 255
198 223 255
198 223 255
198 223 255
198 223 255
198 223 255
198 223 255
198 223 255
199 223 255
199 223 255
199 223 255
199 223 255
199 223 255
199 223 255
199 223 255
199 223 255
199 223 255
199 223 255
199 223 255
199 223 255
199 224 255
199 224 255
200 224 255
200 224 255
200 224 255
200 224 255
200 224 255
200 224 255
200 224 255
200 224 255
200 224 255
200 224 255
200 224 255
200 224 255
200 224 255
200 224 255
201 224 255
201 224 255
201 224 255
201 224 255
201 224 255
201 224 255
201 224 255
201 224 255
201 224 255
201 224 255
201 225 255
201 225 255
201 225 255
201 225 255
202 225 255
202 225 255
202 225 255
202 225 255
202 225 255
202 225 255
202 225 255
202 225 255
202 225 255
202 225 255
202 225 255
202 225 255
202 225 255
202 225 255
203 225 255
203 225 255
203 225 255
203 225 255
203 225 255
203 225 255
203 225 255
203 225 255
203 225 255
203 226 255
203 226 255
203 226 255
203 226 255
203 226 255
203 226 255
204 226 255
204 226 255
204 226 255
204 226 255
204 226 255
204 226 255
204 226 255
204 226 255
204 226 255
204 226 255
204 226 255
204 226 255
204 226 255
204 226 255
204 226 255
204 226 255
204 226 255
205 226 255
205 226 255
205 226 255
205 226 255
205 226 255
205 226 255
205 227 255
205 227 255
205 227 255
205 227 255
205 227 255
205 227 255
205 227 255
205 227 255
205 227 255
205 227 255
205 227 255
206 227 255
206 227 255
206 227 255
206 227 255
206 227 255
206 227 255
206 227 255
206 227 255
206 227 255
206 227 255
206 227 255
206 227 255
206 227 255
206 227 255
206 227 255
206 227 255
206 227 255
206 227 255
206 227 255
206 227 255
206 227 255
206 227 255
205 227 255
205 227 255
205 227 255
205 227 255
205 227 255
205 227 255
205 227 255
205 227 255
205 227 255
205 227 255
205 226 255
205 226 255
205 226 255
205 226 255
205 226 255
205 226 255
205 226 255
204 226 255
204 226 255
204 226 255
204 226 255
204 226 255
204 226 255
204 226 255
204 226 255
204 226 255
204 226 255
204 226 255
204 226 255
204 226 255
204 226 255
204 226 255
204 226 255
203 226 255
203 226 255
203 226 255
203 226 255
203 226 255
203 226 255
203 226 255
203 225 255
203 225 255
203 225 255
203 225 255
203 225 255
203 225 255
203 225 255
203 225 255
202 225 255
202 225 255
202 225 255
202 225 255
202 225 255
202 225 255
202 225 255
202 225 255
202 225 255
202 225 255
202 225 255
202 225 255
202 225 255
202 225 255
201 225 255
201 225 255
201 225 255
201 225 255
201 225 255
201 224 255
201 224 255
201 224 255
201 224 255
201 224 255
201 224 255
201 224 255
201 224 255
201 224 255
200 224 255
200 224 255
200 224 255
200 224 255
200 224 255
200 224 255
200 224 255
200 224 255
200 224 255
200 224 255
200 224 255
200 224 255
200 224 255
200 224 255
199 224 255
199 224 255
199 223 255
199 223 255
199 223 255
199 223 255
199 223 255
199 223 255
199 223 255
199 223 255
199 223 255
199 223 255
199 223 255
199 223 255
199 223 255
198 223 255
198 223 255
198 223 255
198 223 255
198 223 255
198 223 255
198 223 255
198 223 255
198 223 255
198 223 255
198 223 255
198 223 255
198 223 255
198 223 255
198 223 255
197 222 255
197 222 255
197 222 255
197 222 255
197 222 255
197 222 255
197 222 255
197 222 255
197 222 255
197 222 255
197 222 255
197 222 255
197 222 255
197 222 255
197 222 255
197 222 255
197 222 255
196 222 255
196 222 255
196 222 255
196 222 255
196 222 255
196 222 255
196 222 255
196 222 255
196 222 255
196 222 255
196 222 255
196 222 255
196 222 255
196 222 255
196 222 255
196 222 255
196 222 255
196 222 255
196 222 255
196 222 255
196 222 255
196 222 255
196 222 255
196 222 255
196 222 255
196 221 255
196 221 255
196 221 255
196 221 255
195 221 255
195 221 255
195 221 255
195 221 255
195 221 255
195 221 255
195 221 255
195 221 255
195 221 255
195 221 255
195 221 255
195 221 255
195 221 255
195 221 255
195 221 255
195 221 255
195 221 255
195 221 255
195 221 255
195 221 255
195 221 255
195 221 255
195 221 255
195 221 255
195 221 255
195 221 255
195 221 255
196 221 255
196 221 255
196 221 255
196 221 255
196 222 255
196 222 255
196 222 255
196 222 255
196 222 255
196 222 255
196 222 255
196 222 255
196 222 255
196 222 255
196 222 255
196 222 255
196 222 255
196 222 255
196 222 255
196 222 255
196 222 255
196 222 255
196 222 255
196 222 255
196 222 255
196 222 255
196 222 255
196 222 255
196 222 255
197 222 255
197 222 255
197 222 255
197 222 255
197 222 255
197 222 255
197 222 255
197 222 255
197 222 255
197 222 255
197 222 255
197 222 255
197 222 255
197 222 255
197 222 255
197 222 255
197 222 255
198 223 255
198 223 255
198 223 255
198 223 255
198 223 255
198 223 255
198 223 255
198 223 255
198 223 255
198 223 255
198 223 255
198 223 255
198 223 255
198 223 255
198 223 255
199 223 255
199 223 255
199 223 255
199 223 255
199 223 255
199 223 255
199 223 255
199 223 255
199 223 255
199 223 255
199 223 255
199 223 255
199 224 255
199 224 255
199 224 255
200 224 255
200 224 255
200 224 255
200 224 255
200 224 255
200 224 255
200 224 255
200 224 255
200 224 255
200 224 255
200 224 255
200 224 255
200 224 255
200 224 255
201 224 255
201 224 255
201 224 255
201 224 255
201 224 255
201 224 255
201 224 255
201 224 255
201 224 255
201 225 255
201 225 255
201 225 255
201 225 255
201 225 255
202 225 255
202 225 255
202 225 255
202 225 255
202 225 255
202 225 255
202 225 255
202 225 255
202 225 255
202 225 255
202 225 255
202 225 255
202 225 255
202 225 255
203 225 255
203 225 255
203 225 255
203 225 255
203 225 255
203 225 255
203 225 255
203 225 255
203 226 255
203 226 255
203 226 255
203 226 255
203 226 255
203 226 255
203 226 255
204 226 255
204 226 255
204 226 255
204 226 255
204 226 255
204 226 255
204 226 255
204 226 255
204 226 255
204 226 255
204 226 255
204 226 255
204 226 255
204 226 255
204 226 255
204 226 255
205 226 255
205 226 255
205 226 255
205 226 255
205 226 255
205 226 255
205 226 255
205 227 255
205 227 255
205 227 255
205 227 255
205 227 255
205 227 255
205 227 255
205 227 255
205 227 255
205 227 255
206 227 255
206 227 255
206 227 255
206 227 255
206 227 255
206 227 255
206 227 255
206 227 255
206 227 255
206 227 255
206 227 255
206 227 255
206 227 255
206 227 255
206 227 255
206 227 255
206 227 255
206 227 255
206 227 255
206 227 255
206 227 255
206 227 255
206 227 255
206 227 255
206 227 255
206 227 255
206 227 255
205 227 255
205 227 255
205 227 255
205 227 255
205 227 255
205 227 255
205 227 255
205 227 255
205 227 255
205 227 255
205 227 255
205 226 255
205 226 255
205 226 255
205 226 255
205 226 255
205 226 255
204 226 255
204 226 255
204 226 255
204 226 255
204 226 255
204 226 255
204 226 255
204 226 255
204 226 255
204 226 255
204 226 255
204 226 255
204 226 255
204 226 255
204 226 255
204 226 255
203 226 255
203 226 255
203 226 255
203 226 255
203 226 255
203 226 255
203 226 255
203 225 255
203 225 255
203 225 255
203 225 255
203 225 255
203 225 255
203 225 255
203 225 255
203 225 255
202 225 255
202 225 255
202 225 255
202 225 255
202 225 255
202 225 255
202 225 255
202 225 255
202 225 255
202 225 255
202 225 255
202 225 255
202 225 255
202 225 255
201 225 255
201 225 255
201 225 255
201 225 255
201 224 255
201 224 255
201 224 255
201 224 255
201 224 255
201 224 255
201 224 255
201 224 255
201 224 255
201 224 255
200 224 255
200 224 255
200 224 255
200 224 255
200 224 255
200 224 255
200 224 255
200 224 255
200 224 255
200 224 255
200 224 255
200 224 255
200 224 255
200 224 255
199 224 255
199 224 255
199 223 255
199 223 255
199 223 255
199 223 255
199 223 255
199 223 255
199 223 255
199 223 255
199 223 255
199 223 255
199 223 255
199 223 255
198 223 255
198 223 255
198 223 255
198 223 255
198 223 255
198 223 255
198 223 255
198 223 255
198 223 255
198 223 255
198 223 255
198 223 255
198 223 255
198 223 255
198 223 255
197 223 255
197 222 255
197 222 255
197 222 255
197 222 255
197 222 255
197 222 255
197 222 255
197 222 255
197 222 255
197 222 255
197 222 255
197 222 255
197 222 255
197 222 255
197 222 255
197 222 255
197 222 255
197 222 255
196 222 255
196 222 255
196 222 255
196 222 255
196 222 255
196 222 255
196 222 255
196 222 255
196 222 255
196 222 255
196 222 255
196 222 255
196 222 255
196 222 255
196 222 255
196 222 255
196 222 255
196 222 255
196 222 255
196 222 255
196 222 255
196 222 255
196 222 255
196 222 255
196 222 255
196 222 255
196 222 255
196 222 255
196 222 255
196 222 255
196 221 255
196 221 255
196 221 255
196 221 255
196 221 255
196 221 255
196 221 255
196 221 255
196 221 255
196 221 255
196 221 255
196 221 255
196 221 255
196 221 255
196 221 255
196 221 255
196 222 255
196 222 255
196 222 255
196 222 255
196 222 255
196 222 255
196 222 255
196 222 255
196 222 255
196 222 255
196 222 255
196 222 255
196 222 255
196 222 255
196 222 255
196 222 255
196 222 255
196 222 255
196 222 255
196 222 255
196 222 255
196 222 255
196 222 255
196 222 255
196 222 255
196 222 255
196 222 255
196 222 255
196 222 255
196 222 255
196 222 255
197 222 255
197 222 255
197 222 255
197 222 255
197 222 255
197 222 255
197 222 255
197 222 255
197 222 255
197 222 255
197 222 255
197 222 255
197 222 255
197 222 255
197 222 255
197 222 255
197 222 255
197 222 255
197 223 255
198 223 255
198 223 255
198 223 255
198 223 255
198 223 255
198 223 255
198 223 255
198 223 255
198 223 255
198 223 255
198 223 255
198 223 255
198 223 255
198 223 255
198 223 255
199 223 255
199 223 255
199 223 255
199 223 255
199 223 255
199 223 255
199 223 255
199 223 255
199 223 255
199 223 255
199 223 255
199 223 255
199 224 255
199 224 255
200 224 255
200 224 255
200 224 255
200 224 255
200 224 255
200 224 255
200 224 255
200 224 255
200 224 255
200 224 255
200 224 255
200 224 255
200 224 255
200 224 255
201 224 255
201 224 255
201 224 255
201 224 255
201 224 255
201 224 255
201 224 255
201 224 255
201 224 255
201 224 255
201 225 255
201 225 255
201 225 255
201 225 255
202 225 255
202 225 255
202 225 255
202 225 255
202 225 255
202 225 255
202 225 255
202 225 255
202 225 255
202 225 255
202 225 255
202 225 255
202 225 255
202 225 255
202 225 255
203 225 255
203 225 255
203 225 255
203 225 255
203 225 255
203 225 255
203 225 255
203 225 255
203 226 255
203 226 255
203 226 255
203 226 255
203 226 255
203 226 255
203 226 255
204 226 255
204 226 255
204 226 255
204 226 255
204 226 255
204 226 255
204 226 255
204 226 255
204 226 255
204 226 255
204 226 255
204 226 255
204 226 255
204 226 255
204 226 255
204 226 255
205 226 255
205 226 255
205 226 255
205 226 255
205 226 255
205 226 255
205 227 255
205 227 255
205 227 255
205 227 255
205 227 255
205 227 255
205 227 255
205 227 255
205 227 255
205 227 255
205 227 255
206 227 255
206 227 255
206 227 255
206 227 255
206 227 255
206 227 255
206 227 255
206 227 255
206 227 255
206 227 255
206 227 255
206 227 255
206 227 255
206 227 255
206 227 255
206 227 255
206 227 255
206 227 255
206 227 255
206 227 255
206 227 255
206 227 255
206 227 255
206 227 255
206 227 255
206 227 255
206 227 255
206 227 255
206 227 255
206 227 255
206 227 255
206 227 255
205 227 255
205 227 255
205 227 255
205 227 255
205 227 255
205 227 255
205 227 255
205 227 255
205 227 255
205 227 255
205 226 255
205 226 255
205 226 255
205 226 255
205 226 255
205 226 255
205 226 255
204 226 255
204 226 255
204 226 255
204 226 255
204 226 255
204 226 255
204 226 255
204 226 255
204 226 255
204 226 255
204 226 255
204 226 255
204 226 255
204 226 255
204 226 255
204 226 255
203 226 255
203 226 255
203 226 255
203 226 255
203 226 255
203 226 255
203 226 255
203 225 255
203 225 255
203 225 255
203 225 255
203 225 255
203 225 255
203 225 255
203 225 255
202 225 255
202 225 255
202 225 255
202 225 255
202 225 255
202 225 255
202 225 255
202 225 255
202 225 255
202 225 255
202 225 255
202 225 255
202 225 255
202 225 255
201 225 255
201 225 255
201 225 255
201 225 255
201 224 255
201 224 255
201 224 255
201 224 255
201 224 255
201 224 255
201 224 255
201 224 255
201 224 255
201 224 255
200 224 255
200 224 255
200 224 255
200 224 255
200 224 255
200 224 255
200 224 255
200 224 255
200 224 255
200 224 255
200 224 255
200 224 255
200 224 255
200 224 255
199 224 255
199 224 255
199 223 255
199 223 255
199 223 255
199 223 255
199 223 255
199 223 255
199 223 255
199 223 255
199 223 255
199 223 255
199 223 255
199 223 255
198 223 255
198 223 255
198 223 255
198 223 255
198 223 255
198 223 255
198 223 255
198 223 255
198 223 255
198 223 255
198 223 255
198 223 255
198 223 255
198 223 255
198 223 255
198 223 255
197 223 255
197 222 255
197 222 255
197 222 255
197 222 255
197 222 255
197 222 255
197 222 255
197 222 255
197 222 255
197 222 255
197 222 255
197 222 255
197 222 255
197 222 255
197 222 255
197 222 255
197 222 255
197 222 255
196 222 255
196 222 255
196 222 255
196 222 255
196 222 255
196 222 255
196 222 255
196 222 255
196 222 255
196 222 255
196 222 255
196 222 255
196 222 255
196 222 255
196 222 255
196 222 255
196 222 255
196 222 255
196 222 255
196 222 255
196 222 255
196 222 255
196 222 255
196 222 255
196 222 255
196 222 255
196 222 255
196 222 255
196 222 255
196 222 255
196 222 255
196 222 255
196 222 255
196 222 255
196 222 255
196 222 255
196 222 255
196 222 255
196 222 255
196 222 255
196 222 255
196 222 255
196 222 255
196 222 255
196 222 255
196 222 255
196 222 255
196 222 255
196 222 255
196 222 255
196 222 255
196 222 255
196 222 255
196 222 255
196 222 255
196 222 255
196 222 255
196 222 255
196 222 255
196 222 255
196 222 255
196 222 255
196 222 255
196 222 255
196 222 255
196 222 255
196 222 255
196 222 255
196 222 255
196 222 255
197 222 255
197 222 255
197 222 255
197 222 255
197 222 255
197 222 255
197 222 255
197 222 255
197 222 255
197 222 255
197 222 255
197 222 255
197 222 255
197 222 255
197 222 255
197 222 255
197 222 255
197 222 255
197 222 255
197 223 255
198 223 255
198 223 255
198 223 255
198 223 255
198 223 255
198 223 255
198 223 255
198 223 255
198 223 255
198 223 255
198 223 255
198 223 255
198 223 255
198 223 255
198 223 255
199 223 255
199 223 255
199 223 255
199 223 255
199 223 255
199 223 255
199 223 255
199 223 255
199 223 255
199 223 255
199 223 255
199 223 255
199 223 255
199 224 255
199 224 255
200 224 255
200 224 255
200 224 255
200 224 255
200 224 255
200 224 255
200 224 255
200 224 255
200 224 255
200 224 255
200 224 255
200 224 255
200 224 255
200 224 255
201 224 255
201 224 255
201 224 255
201 224 255
201 224 255
201 224 255
201 224 255
201 224 255
201 224 255
201 224 255
201 225 255
201 225 255
201 225 255
201 225 255
202 225 255
202 225 255
202 225 255
202 225 255
202 225 255
202 225 255
202 225 255
202 225 255
202 225 255
202 225 255
202 225 255
202 225 255
202 225 255
202 225 255
203 225 255
203 225 255
203 225 255
203 225 255
203 225 255
203 225 255
203 225 255
203 225 255
203 226 255
203 226 255
203 226 255
203 226 255
203 226 255
203 226 255
203 226 255
204 226 255
204 226 255
204 226 255
204 226 255
204 226 255
204 226 255
204 226 255
204 226 255
204 226 255
204 226 255
204 226 255
204 226 255
204 226 255
204 226 255
204 226 255
204 226 255
205 226 255
205 226 255
205 226 255
205 226 255
205 226 255
205 226 255
205 226 255
205 227 255
205 227 255
205 227 255
205 227 255
205 227 255
205 227 255
205 227 255
205 227 255
205 227 255
205 227 255
206 227 255
206 227 255
206 227 255
206 227 255
206 227 255
206 227 255
206 227 255
206 227 255
206 227 255
206 227 255
206 227 255
206 227 255
206 227 255
206 227 255
206 227 255
206 227 255
206 227 255
206 227 255
207 227 255
206 227 255
206 227 255
206 227 255
206 227 255
206 227 255
206 227 255
206 227 255
206 227 255
206 227 255
206 227 255
206 227 255
206 227 255
206 227 255
206 227 255
206 227 255
206 227 255
206 227 255
206 227 255
206 227 255
205 227 255
205 227 255
205 227 255
205 227 255
205 227 255
205 227 255
205 227 255
205 227 255
205 227 255
205 227 255
205 226 255
205 226 255
205 226 255
205 226 255
205 226 255
205 226 255
205 226 255
204 226 255
204 226 255
204 226 255
204 226 255
204 226 255
204 226 255
204 226 255
204 226 255
204 226 255
204 226 255
204 226 255
204 226 255
204 226 255
204 226 255
204 226 255
203 226 255
203 226 255
203 226 255
203 226 255
203 226 255
203 226 255
203 226 255
203 225 255
203 225 255
203 225 255
203 225 255
203 225 255
203 225 255
203 225 255
203 225 255
202 225 255
202 225 255
202 225 255
202 225 255
202 225 255
202 225 255
202 225 255
202 225 255
202 225 255
202 225 255
202 225 255
202 225 255
202 225 255
202 225 255
201 225 255
201 225 255
201 225 255
201 225 255
201 225 255
201 224 255
201 224 255
201 224 255
201 224 255
201 224 255
201 224 255
201 224 255
201 224 255
201 224 255
200 224 255
200 224 255
200 224 255
200 224 255
200 224 255
200 224 255
200 224 255
200 224 255
200 224 255
200 224 255
200 224 255
200 224 255
200 224 255
200 224 255
199 224 255
199 224 255
199 224 255
199 223 255
199 223 255
199 223 255
199 223 255
199 223 255
199 223 255
199 223 255
199 223 255
199 223 255
199 223 255
199 223 255
199 223 255
198 223 255
198 223 255
198 223 255
198 223 255
198 223 255
198 223 255
198 223 255
198 223 255
198 223 255
198 223 255
198 223 255
198 223 255
198 223 255
198 223 255
198 223 255
198 223 255
197 223 255
197 222 255
197 222 255
197 222 255
197 222 255
197 222 255
197 222 255
197 222 255
197 222 255
197 222 255
197 222 255
197 222 255
197 222 255
197 222 255
197 222 255
197 222 255
197 222 255
197 222 255
197 222 255
197 222 255
197 222 255
196 222 255
196 222 255
196 222 255
196 222 255
196 222 255
196 222 255
196 222 255
196 222 255
196 222 255
196 222 255
196 222 255
196 222 255
196 222 255
196 222 255
196 222 255
196 222 255
196 222 255
196 222 255
196 222 255
196 222 255
196 222 255
196 222 255
196 222 255
196 222 255
196 222 255
196 222 255
196 222 255
196 222 255
196 222 255
196 222 255
196 222 255
196 222 255
196 222 255
196 222 255
196 222 255
196 222 255
196 222 255
196 222 255
196 222 255
196 222 255
196 222 255
196 222 255
196 222 255
196 222 255
196 222 255
196 222 255
196 222 255
196 222 255
196 222 255
196 222 255
196 222 255
196 222 255
196 222 255
196 222 255
196 222 255
196 222 255
196 222 255
196 222 255
196 222 255
196 222 255
196 222 255
197 222 255
197 222 255
197 222 255
197 222 255
197 222 255
197 222 255
197 222 255
197 222 255
197 222 255
197 222 255
197 222 255
197 222 255
197 222 255
197 222 255
197 222 255
197 222 255
197 222 255
197 222 255
197 222 255
197 222 255
197 223 255
198 223 255
198 223 255
198 223 255
198 223 255
198 223 255
198 223 255
198 223 255
198 223 255
198 223 255
198 223 255
198 223 255
198 223 255
198 223 255
198 223 255
198 223 255
198 223 255
199 223 255
199 223 255
199 223 255
199 223 255
199 223 255
199 223 255
199 223 255
199 223 255
199 223 255
199 223 255
199 223 255
199 223 255
199 224 255
199 224 255
200 224 255
200 224 255
200 224 255
200 224 255
200 224 255
200 224 255
200 224 255
200 224 255
200 224 255
200 224 255
200 224 255
200 224 255
200 224 255
200 224 255
200 224 255
201 224 255
201 224 255
201 224 255
201 224 255
201 224 255
201 224 255
201 224 255
201 224 255
201 224 255
201 225 255
201 225 255
201 225 255
201 225 255
201 225 255
202 225 255
202 225 255
202 225 255
202 225 255
202 225 255
202 225 255
202 225 255
202 225 255
202 225 255
202 225 255
202 225 255
202 225 255
202 225 255
202 225 255
203 225 255
203 225 255
203 225 255
203 225 255
203 225 255
203 225 255
203 225 255
203 225 255
203 226 255
203 226 255
203 226 255
203 226 255
203 226 255
203 226 255
203 226 255
204 226 255
204 226 255
204 226 255
204 226 255
204 226 255
204 226 255
204 226 255
204 226 255
204 226 255
204 226 255
204 226 255
204 226 255
204 226 255
204 226 255
204 226 255
205 226 255
205 226 255
205 226 255
205 226 255
205 226 255
205 226 255
205 226 255
205 227 255
205 227 255
205 227 255
205 227 255
205 227 255
205 227 255
205 227 255
205 227 255
205 227 255
205 227 255
205 227 255
206 227 255
206 227 255
206 227 255
206 227 255
206 227 255
206 227 255
206 227 255
206 227 255
206 227 255
206 227 255
206 227 255
206 227 255
206 227 255
206 227 255
206 227 255
206 227 255
206 227 255
206 227 255
207 227 255
207 227 255
207 227 255
207 227 255
207 227 255
207 227 255
206 227 255
206 227 255
206 227 255
206 227 255
206 227 255
206 227 255
206 227 255
206 227 255
206 227 255
206 227 255
206 227 255
206 227 255
206 227 255
206 227 255
206 227 255
206 227 255
206 227 255
206 227 255
205 227 255
205 227 255
205 227 255
205 227 255
205 227 255
205 227 255
205 227 255
205 227 255
205 227 255
205 227 255
205 226 255
205 226 255
205 226 255
205 226 255
205 226 255
205 226 255
205 226 255
204 226 255
204 226 255
204 226 255
204 226 255
204 226 255
204 226 255
204 226 255
204 226 255
204 226 255
204 226 255
204 226 255
204 226 255
204 226 255
204 226 255
204 226 255
204 226 255
203 226 255
203 226 255
203 226 255
203 226 255
203 226 255
203 226 255
203 225 255
203 225 255
203 225 255
203 225 255
203 225 255
203 225 255
203 225 255
203 225 255
203 225 255
202 225 255
202 225 255
202 225 255
202 225 255
202 225 255
202 225 255
202 225 255
202 225 255
202 225 255
202 225 255
202 225 255
202 225 255
202 225 255
202 225 255
201 225 255
201 225 255
201 225 255
201 225 255
201 224 255
201 224 255
201 224 255
201 224 255
201 224 255
201 224 255
201 224 255
201 224 255
201 224 255
201 224 255
200 224 255
200 224 255
200 224 255
200 224 255
200 224 255
200 224 255
200 224 255
200 224 255
200 224 255
200 224 255
200 224 255
200 224 255
200 224 255
200 224 255
199 224 255
199 224 255
199 223 255
199 223 255
199 223 255
199 223 255
199 223 255
199 223 255
199 223 255
199 223 255
199 223 255
199 223 255
199 223 255
199 223 255
199 223 255
198 223 255
198 223 255
198 223 255
198 223 255
198 223 255
198 223 255
198 223 255
198 223 255
198 223 255
198 223 255
198 223 255
198 223 255
198 223 255
198 223 255
198 223 255
198 223 255
197 223 255
197 222 255
197 222 255
197 222 255
197 222 255
197 222 255
197 222 255
197 222 255
197 222 255
197 222 255
197 222 255
197 222 255
197 222 255
197 222 255
197 222 255
197 222 255
197 222 255
197 222 255
197 222 255
197 222 255
197 222 255
197 222 255
197 222 255
196 222 255
196 222 255
196 222 255
196 222 255
196 222 255
196 222 255
196 222 255
196 222 255
196 222 255
196 222 255
196 222 255
196 222 255
196 222 255
196 222 255
196 222 255
196 222 255
196 222 255
196 222 255
196 222 255
196 222 255
196 222 255
196 222 255
196 222 255
196 222 255
196 222 255
196 222 255
196 222 255
196 222 255
196 222 255
196 222 255
196 222 255
196 222 255
196 222 255
196 222 255
196 222 255
196 222 255
196 222 255
196 222 255
196 222 255
196 222 255
196 222 255
196 222 255
196 222 255
196 222 255
196 222 255
196 222 255
196 222 255
196 222 255
196 222 255
196 222 255
196 222 255
197 222 255
197 222 255
197 222 255
197 222 255
197 222 255
197 222 255
197 222 255
197 222 255
197 222 255
197 222 255
197 222 255
197 222 255
197 222 255
197 222 255
197 222 255
197 222 255
197 222 255
197 222 255
197 222 255
197 222 255
197 222 255
197 222 255
197 223 255
198 223 255
198 223 255
198 223 255
198 223 255
198 223 255
198 223 255
198 223 255
198 223 255
198 223 255
198 223 255
198 223 255
198 223 255
198 223 255
198 223 255
198 223 255
198 223 255
199 223 255
199 223 255
199 223 255
199 223 255
199 223 255
199 223 255
199 223 255
199 223 255
199 223 255
199 223 255
199 223 255
199 223 255
199 223 255
199 224 255
199 224 255
200 224 255
200 224 255
200 224 255
200 224 255
200 224 255
200 224 255
200 224 255
200 224 255
200 224 255
200 224 255
200 224 255
200 224 255
200 224 255
200 224 255
201 224 255
201 224 255
201 224 255
201 224 255
201 224 255
201 224 255
201 224 255
201 224 255
201 224 255
201 224 255
201 225 255
201 225 255
201 225 255
201 225 255
202 225 255
202 225 255
202 225 255
202 225 255
202 225 255
202 225 255
202 225 255
202 225 255
202 225 255
202 225 255
202 225 255
202 225 255
202 225 255
202 225 255
203 225 255
203 225 255
203 225 255
203 225 255
203 225 255
203 225 255
203 225 255
203 225 255
203 225 255
203 226 255
203 226 255
203 226 255
203 226 255
203 226 255
203 226 255
204 226 255
204 226 255
204 226 255
204 226 255
204 226 255
204 226 255
204 226 255
204 226 255
204 226 255
204 226 255
204 226 255
204 226 255
204 226 255
204 226 255
204 226 255
204 226 255
205 226 255
205 226 255
205 226 255
205 226 255
205 226 255
205 226 255
205 226 255
205 227 255
205 227 255
205 227 255
205 227 255
205 227 255
205 227 255
205 227 255
205 227 255
205 227 255
205 227 255
206 227 255
206 227 255
206 227 255
206 227 255
206 227 255
206 227 255
206 227 255
206 227 255
206 227 255
206 227 255
206 227 255
206 227 255
206 227 255
206 227 255
206 227 255
206 227 255
206 227 255
206 227 255
207 227 255
207 227 255
207 227 255
207 227 255
207 227 255
207 228 255
207 228 255
207 227 255
207 227 255
207 227 255
207 227 255
207 227 255
206 227 255
206 227 255
206 227 255
206 227 255
206 227 255
206 227 255
206 227 255
206 227 255
206 227 255
206 227 255
206 227 255
206 227 255
206 227 255
206 227 255
206 227 255
206 227 255
206 227 255
206 227 255
205 227 255
205 227 255
205 227 255
205 227 255
205 227 255
205 227 255
205 227 255
205 227 255
205 227 255
205 227 255
205 226 255
205 226 255
205 226 255
205 226 255
205 226 255
205 226 255
204 226 255
204 226 255
204 226 255
204 226 255
204 226 255
204 226 255
204 226 255
204 226 255
204 226 255
204 226 255
204 226 255
204 226 255
204 226 255
204 226 255
204 226 255
204 226 255
203 226 255
203 226 255
203 226 255
203 226 255
203 226 255
203 226 255
203 226 255
203 225 255
203 225 255
203 225 255
203 225 255
203 225 255
203 225 255
203 225 255
203 225 255
202 225 255
202 225 255
202 225 255
202 225 255
202 225 255
202 225 255
202 225 255
202 225 255
202 225 255
202 225 255
202 225 255
202 225 255
202 225 255
202 225 255
201 225 255
201 225 255
201 225 255
201 225 255
201 224 255
201 224 255
201 224 255
201 224 255
201 224 255
201 224 255
201 224 255
201 224 255
201 224 255
201 224 255
200 224 255
200 224 255
200 224 255
200 224 255
200 224 255
200 224 255
200 224 255
200 224 255
200 224 255
200 224 255
200 224 255
200 224 255
200 224 255
200 224 255
199 224 255
199 224 255
199 224 255
199 223 255
199 223 255
199 223 255
199 223 255
199 223 255
199 223 255
199 223 255
199 223 255
199 223 255
199 223 255
199 223 255
199 223 255
198 223 255
198 223 255
198 223 255
198 223 255
198 223 255
198 223 255
198 223 255
198 223 255
198 223 255
198 223 255
198 223 255
198 223 255
198 223 255
198 223 255
198 223 255
198 223 255
198 223 255
198 223 255
197 222 255
197 222 255
197 222 255
197 222 255
197 222 255
197 222 255
197 222 255
197 222 255
197 222 255
197 222 255
197 222 255
197 222 255
197 222 255
197 222 255
197 222 255
197 222 255
197 222 255
197 222 255
197 222 255
197 222 255
197 222 255
197 222 255
197 222 255
197 222 255
196 222 255
196 222 255
196 222 255
196 222 255
196 222 255
196 222 255
196 222 255
196 222 255
196 222 255
196 222 255
196 222 255
196 222 255
196 222 255
196 222 255
196 222 255
196 222 255
196 222 255
196 222 255
196 222 255
196 222 255
196 222 255
196 222 255
196 222 255
196 222 255
196 222 255
196 222 255
196 222 255
196 222 255
196 222 255
196 222 255
196 222 255
196 222 255
196 222 255
196 222 255
196 222 255
196 222 255
196 222 255
196 222 255
196 222 255
196 222 255
196 222 255
197 222 255
197 222 255
197 222 255
197 222 255
197 222 255
197 222 255
197 222 255
197 222 255
197 222 255
197 222 255
197 222 255
197 222 255
197 222 255
197 222 255
197 222 255
197 222 255
197 222 255
197 222 255
197 222 255
197 222 255
197 222 255
197 222 255
197 222 255
197 222 255
198 223 255
198 223 255
198 223 255
198 223 255
198 223 255
198 223 255
198 223 255
198 223 255
198 223 255
198 223 255
198 223 255
198 223 255
198 223 255
198 223 255
198 223 255
198 223 255
198 223 255
198 223 255
199 223 255
199 223 255
199 223 255
199 223 255
199 223 255
199 223 255
199 223 255
199 223 255
199 223 255
199 223 255
199 223 255
199 223 255
199 224 255
199 224 255
199 224 255
200 224 255
200 224 255
200 224 255
200 224 255
200 224 255
200 224 255
200 224 255
200 224 255
200 224 255
200 224 255
200 224 255
200 224 255
200 224 255
200 224 255
201 224 255
201 224 255
201 224 255
201 224 255
201 224 255
201 224 255
201 224 255
201 224 255
201 224 255
201 224 255
201 225 255
201 225 255
201 225 255
201 225 255
202 225 255
202 225 255
202 225 255
202 225 255
202 225 255
202 225 255
202 225 255
202 225 255
202 225 255
202 225 255
202 225 255
202 225 255
202 225 255
202 225 255
203 225 255
203 225 255
203 225 255
203 225 255
203 225 255
203 225 255
203 225 255
203 225 255
203 226 255
203 226 255
203 226 255
203 226 255
203 226 255
203 226 255
203 226 255
204 226 255
204 226 255
204 226 255
204 226 255
204 226 255
204 226 255
204 226 255
204 226 255
204 226 255
204 226 255
204 226 255
204 226 255
204 226 255
204 226 255
204 226 255
205 226 255
205 226 255
205 226 255
205 226 255
205 226 255
205 226 255
205 226 255
205 227 255
205 227 255
205 227 255
205 227 255
205 227 255
205 227 255
205 227 255
205 227 255
205 227 255
205 227 255
206 227 255
206 227 255
206 227 255
206 227 255
206 227 255
206 227 255
206 227 255
206 227 255
206 227 255
206 227 255
206 227 255
206 227 255
206 227 255
206 227 255
206 227 255
206 227 255
206 227 255
206 227 255
206 227 255
207 227 255
207 227 255
207 227 255
207 227 255
207 228 255
207 228 255
207 228 255
207 228 255
207 228 255
207 228 255
207 228 255
207 228 255
207 227 255
207 227 255
207 227 255
207 227 255
206 227 255
206 227 255
206 227 255
206 227 255
206 227 255
206 227 255
206 227 255
206 227 255
206 227 255
206 227 255
206 227 255
206 227 255
206 227 255
206 227 255
206 227 255
206 227 255
206 227 255
206 227 255
205 227 255
205 227 255
205 227 255
205 227 255
205 227 255
205 227 255
205 227 255
205 227 255
205 227 255
205 227 255
205 226 255
205 226 255
205 226 255
205 226 255
205 226 255
205 226 255
205 226 255
204 226 255
204 226 255
204 226 255
204 226 255
204 226 255
204 226 255
204 226 255
204 226 255
204 226 255
204 226 255
204 226 255
204 226 255
204 226 255
204 226 255
204 226 255
204 226 255
203 226 255
203 226 255
203 226 255
203 226 255
203 226 255
203 226 255
203 225 255
203 225 255
203 225 255
203 225 255
203 225 255
203 225 255
203 225 255
203 225 255
202 225 255
202 225 255
202 225 255
202 225 255
202 225 255
202 225 255
202 225 255
202 225 255
202 225 255
202 225 255
202 225 255
202 225 255
202 225 255
202 225 255
202 225 255
201 225 255
201 225 255
201 225 255
201 225 255
201 224 255
201 224 255
201 224 255
201 224 255
201 224 255
201 224 255
201 224 255
201 224 255
201 224 255
201 224 255
200 224 255
200 224 255
200 224 255
200 224 255
200 224 255
200 224 255
200 224 255
200 224 255
200 224 255
200 224 255
200 224 255
200 224 255
200 224 255
200 224 255
199 224 255
199 224 255
199 223 255
199 223 255
199 223 255
199 223 255
199 223 255
199 223 255
199 223 255
199 223 255
199 223 255
199 223 255
199 223 255
199 223 255
199 223 255
198 223 255
198 223 255
198 223 255
198 223 255
198 223 255
198 223 255
198 223 255
198 223 255
198 223 255
198 223 255
198 223 255
198 223 255
198 223 255
198 223 255
198 223 255
198 223 255
198 223 255
198 223 255
197 223 255
197 222 255
197 222 255
197 222 255
197 222 255
197 222 255
197 222 255
197 222 255
197 222 255
197 222 255
197 222 255
197 222 255
197 222 255
197 222 255
197 222 255
197 222 255
197 222 255
197 222 255
197 222 255
197 222 255
197 222 255
197 222 255
197 222 255
197 222 255
197 222 255
197 222 255
197 222 255
197 222 255
197 222 255
197 222 255
196 222 255
196 222 255
196 222 255
196 222 255
196 222 255
196 222 255
196 222 255
196 222 255
196 222 255
196 222 255
196 222 255
196 222 255
196 222 255
196 222 255
196 222 255
196 222 255
196 222 255
196 222 255
196 222 255
196 222 255
196 222 255
196 222 255
196 222 255
197 222 255
197 222 255
197 222 255
197 222 255
197 222 255
197 222 255
197 222 255
197 222 255
197 222 255
197 222 255
197 222 255
197 222 255
197 222 255
197 222 255
197 222 255
197 222 255
197 222 255
197 222 255
197 222 255
197 222 255
197 222 255
197 222 255
197 222 255
197 222 255
197 222 255
197 222 255
197 222 255
197 222 255
197 222 255
197 223 255
198 223 255
198 223 255
198 223 255
198 223 255
198 223 255
198 223 255
198 223 255
198 223 255
198 223 255
198 223 255
198 223 255
198 223 255
198 223 255
198 223 255
198 223 255
198 223 255
198 223 255
198 223 255
199 223 255
199 223 255
199 223 255
199 223 255
199 223 255
199 223 255
199 223 255
199 223 255
199 223 255
199 223 255
199 223 255
199 223 255
199 223 255
199 224 255
199 224 255
200 224 255
200 224 255
200 224 255
200 224 255
200 224 255
200 224 255
200 224 255
200 224 255
200 224 255
200 224 255
200 224 255
200 224 255
200 224 255
200 224 255
201 224 255
201 224 255
201 224 255
201 224 255
201 224 255
201 224 255
201 224 255
201 224 255
201 224 255
201 224 255
201 225 255
201 225 255
201 225 255
201 225 255
202 225 255
202 225 255
202 225 255
202 225 255
202 225 255
202 225 255
202 225 255
202 225 255
202 225 255
202 225 255
202 225 255
202 225 255
202 225 255
202 225 255
202 225 255
203 225 255
203 225 255
203 225 255
203 225 255
203 225 255
203 225 255
203 225 255
203 225 255
203 226 255
203 226 255
203 226 255
203 226 255
203 226 255
203 226 255
204 226 255
204 226 255
204 226 255
204 226 255
204 226 255
204 226 255
204 226 255
204 226 255
204 226 255
204 226 255
204 226 255
204 226 255
204 226 255
204 226 255
204 226 255
204 226 255
205 226 255
205 226 255
205 226 255
205 226 255
205 226 255
205 226 255
205 227 255
205 227 255
205 227 255
205 227 255
205 227 255
205 227 255
205 227 255
205 227 255
205 227 255
205 227 255
205 227 255
206 227 255
206 227 255
206 227 255
206 227 255
206 227 255
206 227 255
206 227 255
206 227 255
206 227 255
206 227 255
206 227 255
206 227 255
206 227 255
206 227 255
206 227 255
206 227 255
206 227 255
206 227 255
207 227 255
207 227 255
207 227 255
207 227 255
207 228 255
207 228 255
207 228 255
207 228 255
207 228 255
207 228 255
207 228 255
207 228 255
207 228 255
207 228 255
207 228 255
207 228 255
207 228 255
207 228 255
207 227 255
207 227 255
207 227 255
207 227 255
206 227 255
206 227 255
206 227 255
206 227 255
206 227 255
206 227 255
206 227 255
206 227 255
206 227 255
206 227 255
206 227 255
206 227 255
206 227 255
206 227 255
206 227 255
206 227 255
206 227 255
206 227 255
205 227 255
205 227 255
205 227 255
205 227 255
205 227 255
205 227 255
205 227 255
205 227 255
205 227 255
205 227 255
205 226 255
205 226 255
205 226 255
205 226 255
205 226 255
205 226 255
205 226 255
204 226 255
204 226 255
204 226 255
204 226 255
204 226 255
204 226 255
204 226 255
204 226 255
204 226 255
204 226 255
204 226 255
204 226 255
204 226 255
204 226 255
204 226 255
203 226 255
203 226 255
203 226 255
203 226 255
203 226 255
203 226 255
203 226 255
203 225 255
203 225 255
203 225 255
203 225 255
203 225 255
203 225 255
203 225 255
203 225 255
202 225 255
202 225 255
202 225 255
202 225 255
202 225 255
202 225 255
202 225 255
202 225 255
202 225 255
202 225 255
202 225 255
202 225 255
202 225 255
202 225 255
201 225 255
201 225 255
201 225 255
201 225 255
201 224 255
201 224 255
201 224 255
201 224 255
201 224 255
201 224 255
201 224 255
201 224 255
201 224 255
201 224 255
200 224 255
200 224 255
200 224 255
200 224 255
200 224 255
200 224 255
200 224 255
200 224 255
200 224 255
200 224 255
200 224 255
200 224 255
200 224 255
200 224 255
200 224 255
199 224 255
199 224 255
199 223 255
199 223 255
199 223 255
199 223 255
199 223 255
199 223 255
199 223 255
199 223 255
199 223 255
199 223 255
199 223 255
199 223 255
199 223 255
198 223 255
198 223 255
198 223 255
198 223 255
198 223 255
198 223 255
198 223 255
198 223 255
198 223 255
198 223 255
198 223 255
198 223 255
198 223 255
198 223 255
198 223 255
198 223 255
198 223 255
198 223 255
198 223 255
197 223 255
197 222 255
197 222 255
197 222 255
197 222 255
197 222 255
197 222 255
197 222 255
197 222 255
197 222 255
197 222 255
197 222 255
197 222 255
197 222 255
197 222 255
197 222 255
197 222 255
197 222 255
197 222 255
197 222 255
197 222 255
197 222 255
197 222 255
197 222 255
197 222 255
197 222 255
197 222 255
197 222 255
197 222 255
197 222 255
197 222 255
197 222 255
197 222 255
197 222 255
197 222 255
197 222 255
197 222 255
197 222 255
197 222 255
197 222 255
197 222 255
197 222 255
197 222 255
197 222 255
197 222 255
197 222 255
197 222 255
197 222 255
197 222 255
197 222 255
197 222 255
197 222 255
197 222 255
197 222 255
197 222 255
197 222 255
197 222 255
197 222 255
197 222 255
197 222 255
197 222 255
197 222 255
197 222 255
197 222 255
197 222 255
197 222 255
197 222 255
197 222 255
197 222 255
197 222 255
197 222 255
197 222 255
197 222 255
197 222 255
197 223 255
198 223 255
198 223 255
198 223 255
198 223 255
198 223 255
198 223 255
198 223 255
198 223 255
198 223 255
198 223 255
198 223 255
198 223 255
198 223 255
198 223 255
198 223 255
198 223 255
198 223 255
198 223 255
198 223 255
199 223 255
199 223 255
199 223 255
199 223 255
199 223 255
199 223 255
199 223 255
199 223 255
199 223 255
199 223 255
199 223 255
199 223 255
199 223 255
199 224 255
199 224 255
200 224 255
200 224 255
200 224 255
200 224 255
200 224 255
200 224 255
200 224 255
200 224 255
200 224 255
200 224 255
200 224 255
200 224 255
200 224 255
200 224 255
200 224 255
201 224 255
201 224 255
201 224 255
201 224 255
201 224 255
201 224 255
201 224 255
201 224 255
201 224 255
201 224 255
201 225 255
201 225 255
201 225 255
201 225 255
202 225 255
202 225 255
202 225 255
202 225 255
202 225 255
202 225 255
202 225 255
202 225 255
202 225 255
202 225 255
202 225 255
202 225 255
202 225 255
202 225 255
203 225 255
203 225 255
203 225 255
203 225 255
203 225 255
203 225 255
203 225 255
203 225 255
203 226 255
203 226 255
203 226 255
203 226 255
203 226 255
203 226 255
203 226 255
204 226 255
204 226 255
204 226 255
204 226 255
204 226 255
204 226 255
204 226 255
204 226 255
204 226 255
204 226 255
204 226 255
204 226 255
204 226 255
204 226 255
204 226 255
205 226 255
205 226 255
205 226 255
205 226 255
205 226 255
205 226 255
205 226 255
205 227 255
205 227 255
205 227 255
205 227 255
205 227 255
205 227 255
205 227 255
205 227 255
205 227 255
205 227 255
206 227 255
206 227 255
206 227 255
206 227 255
206 227 255
206 227 255
206 227 255
206 227 255
206 227 255
206 227 255
206 227 255
206 227 255
206 227 255
206 227 255
206 227 255
206 227 255
206 227 255
206 227 255
207 227 255
207 227 255
207 227 255
207 227 255
207 227 255
207 228 255
207 228 255
207 228 255
207 228 255
207 228 255
207 228 255
207 228 255
207 228 255
207 228 255
207 228 255
207 228 255
207 228 255
207 228 255
207 228 255
207 228 255
207 228 255
207 228 255
207 228 255
207 228 255
207 227 255
207 227 255
207 227 255
207 227 255
206 227 255
206 227 255
206 227 255
206 227 255
206 227 255
206 227 255
206 227 255
206 227 255
206 227 255
206 227 255
206 227 255
206 227 255
206 227 255
206 227 255
206 227 255
206 227 255
206 227 255
206 227 255
205 227 255
205 227 255
205 227 255
205 227 255
205 227 255
205 227 255
205 227 255
205 227 255
205 227 255
205 227 255
205 226 255
205 226 255
205 226 255
205 226 255
205 226 255
205 226 255
204 226 255
204 226 255
204 226 255
204 226 255
204 226 255
204 226 255
204 226 255
204 226 255
204 226 255
204 226 255
204 226 255
204 226 255
204 226 255
204 226 255
204 226 255
204 226 255
203 226 255
203 226 255
203 226 255
203 226 255
203 226 255
203 226 255
203 225 255
203 225 255
203 225 255
203 225 255
203 225 255
203 225 255
203 225 255
203 225 255
202 225 255
202 225 255
202 225 255
202 225 255
202 225 255
202 225 255
202 225 255
202 225 255
202 225 255
202 225 255
202 225 255
202 225 255
202 225 255
202 225 255
202 225 255
201 225 255
201 225 255
201 225 255
201 225 255
201 224 255
201 224 255
201 224 255
201 224 255
201 224 255
201 224 255
201 224 255
201 224 255
201 224 255
201 224 255
200 224 255
200 224 255
200 224 255
200 224 255
200 224 255
200 224 255
200 224 255
200 224 255
200 224 255
200 224 255
200 224 255
200 224 255
200 224 255
200 224 255
199 224 255
199 224 255
199 224 255
199 223 255
199 223 255
199 223 255
199 223 255
199 223 255
199 223 255
199 223 255
199 223 255
199 223 255
199 223 255
199 223 255
199 223 255
199 223 255
198 223 255
198 223 255
198 223 255
198 223 255
198 223 255
198 223 255
198 223 255
198 223 255
198 223 255
198 223 255
198 223 255
198 223 255
198 223 255
198 223 255
198 223 255
198 223 255
198 223 255
198 223 255
198 223 255
198 223 255
197 223 255
197 222 255
197 222 255
197 222 255
197 222 255
197 222 255
197 222 255
197 222 255
197 222 255
197 222 255
197 222 255
197 222 255
197 222 255
197 222 255
197 222 255
197 222 255
197 222 255
197 222 255
197 222 255
197 222 255
197 222 255
197 222 255
197 222 255
197 222 255
197 222 255
197 222 255
197 222 255
197 222 255
197 222 255
197 222 255
197 222 255
197 222 255
197 222 255
197 222 255
197 222 255
197 222 255
197 222 255
197 222 255
197 222 255
197 222 255
197 222 255
197 222 255
197 222 255
197 222 255
197 222 255
197 222 255
197 222 255
197 222 255
197 222 255
197 222 255
197 222 255
197 222 255
197 222 255
197 222 255
197 222 255
197 222 255
197 222 255
197 222 255
197 222 255
197 222 255
197 222 255
197 222 255
197 222 255
197 222 255
197 222 255
197 222 255
197 223 255
198 223 255
198 223 255
198 223 255
198 223 255
198 223 255
198 223 255
198 223 255
198 223 255
198 223 255
198 223 255
198 223 255
198 223 255
198 223 255
198 223 255
198 223 255
198 223 255
198 223 255
198 223 255
198 223 255
198 223 255
199 223 255
199 223 255
199 223 255
199 223 255
199 223 255
199 223 255
199 223 255
199 223 255
199 223 255
199 223 255
199 223 255
199 223 255
199 223 255
199 224 255
199 224 255
199 224 255
200 224 255
200 224 255
200 224 255
200 224 255
200 224 255
200 224 255
200 224 255
200 224 255
200 224 255
200 224 255
200 224 255
200 224 255
200 224 255
200 224 255
201 224 255
201 224 255
201 224 255
201 224 255
201 224 255
201 224 255
201 224 255
201 224 255
201 224 255
201 224 255
201 225 255
201 225 255
201 225 255
201 225 255
202 225 255
202 225 255
202 225 255
202 225 255
202 225 255
202 225 255
202 225 255
202 225 255
202 225 255
202 225 255
202 225 255
202 225 255
202 225 255
202 225 255
202 225 255
203 225 255
203 225 255
203 225 255
203 225 255
203 225 255
203 225 255
203 225 255
203 225 255
203 226 255
203 226 255
203 226 255
203 226 255
203 226 255
203 226 255
204 226 255
204 226 255
204 226 255
204 226 255
204 226 255
204 226 255
204 226 255
204 226 255
204 226 255
204 226 255
204 226 255
204 226 255
204 226 255
204 226 255
204 226 255
204 226 255
205 226 255
205 226 255
205 226 255
205 226 255
205 226 255
205 226 255
205 227 255
205 227 255
205 227 255
205 227 255
205 227 255
205 227 255
205 227 255
205 227 255
205 227 255
205 227 255
206 227 255
206 227 255
206 227 255
206 227 255
206 227 255
206 227 255
206 227 255
206 227 255
206 227 255
206 227 255
206 227 255
206 227 255
206 227 255
206 227 255
206 227 255
206 227 255
206 227 255
206 227 255
207 227 255
207 227 255
207 227 255
207 227 255
207 228 255
207 228 255
207 228 255
207 228 255
207 228 255
207 228 255
207 228 255
207 228 255
207 228 255
207 228 255
207 228 255
207 228 255
207 228 255
207 228 255
207 228 255
207 228 255
207 228 255
207 228 255
207 228 255
207 228 255
207 228 255
207 228 255
207 228 255
207 228 255
207 228 255
207 227 255
207 227 255
207 227 255
207 227 255
207 227 255
206 227 255
206 227 255
206 227 255
206 227 255
206 227 255
206 227 255
206 227 255
206 227 255
206 227 255
206 227 255
206 227 255
206 227 255
206 227 255
206 227 255
206 227 255
206 227 255
206 227 255
206 227 255
205 227 255
205 227 255
205 227 255
205 227 255
205 227 255
205 227 255
205 227 255
205 227 255
205 227 255
205 226 255
205 226 255
205 226 255
205 226 255
205 226 255
205 226 255
205 226 255
204 226 255
204 226 255
204 226 255
204 226 255
204 226 255
204 226 255
204 226 255
204 226 255
204 226 255
204 226 255
204 226 255
204 226 255
204 226 255
204 226 255
204 226 255
203 226 255
203 226 255
203 226 255
203 226 255
203 226 255
203 226 255
203 226 255
203 225 255
203 225 255
203 225 255
203 225 255
203 225 255
203 225 255
203 225 255
203 225 255
202 225 255
202 225 255
202 225 255
202 225 255
202 225 255
202 225 255
202 225 255
202 225 255
202 225 255
202 225 255
202 225 255
202 225 255
202 225 255
202 225 255
201 225 255
201 225 255
201 225 255
201 225 255
201 224 255
201 224 255
201 224 255
201 224 255
201 224 255
201 224 255
201 224 255
201 224 255
201 224 255
201 224 255
200 224 255
200 224 255
200 224 255
200 224 255
200 224 255
200 224 255
200 224 255
200 224 255
200 224 255
200 224 255
200 224 255
200 224 255
200 224 255
200 224 255
200 224 255
199 224 255
199 224 255
199 224 255
199 223 255
199 223 255
199 223 255
199 223 255
199 223 255
199 223 255
199 223 255
199 223 255
199 223 255
199 223 255
199 223 255
199 223 255
199 223 255
199 223 255
198 223 255
198 223 255
198 223 255
198 223 255
198 223 255
198 223 255
198 223 255
198 223 255
198 223 255
198 223 255
198 223 255
198 223 255
198 223 255
198 223 255
198 223 255
198 223 255
198 223 255
198 223 255
198 223 255
198 223 255
198 223 255
197 223 255
197 222 255
197 222 255
197 222 255
197 222 255
197 222 255
197 222 255
197 222 255
197 222 255
197 222 255
197 222 255
197 222 255
197 222 255
197 222 255
197 222 255
197 222 255
197 222 255
197 222 255
197 222 255
197 222 255
197 222 255
197 222 255
197 222 255
197 222 255
197 222 255
197 222 255
197 222 255
197 222 255
197 222 255
197 222 255
197 222 255
197 222 255
197 222 255
197 222 255
197 222 255
197 222 255
197 222 255
197 222 255
197 222 255
197 222 255
197 222 255
197 222 255
197 222 255
197 222 255
197 222 255
197 222 255
197 222 255
197 222 255
197 222 255
197 222 255
197 222 255
197 222 255
197 222 255
197 222 255
197 222 255
197 222 255
197 223 255
198 223 255
198 223 255
198 223 255
198 223 255
198 223 255
198 223 255
198 223 255
198 223 255
198 223 255
198 223 255
198 223 255
198 223 255
198 223 255
198 223 255
198 223 255
198 223 255
198 223 255
198 223 255
198 223 255
198 223 255
198 223 255
199 223 255
199 223 255
199 223 255
199 223 255
199 223 255
199 223 255
199 223 255
199 223 255
199 223 255
199 223 255
199 223 255
199 223 255
199 223 255
199 223 255
199 224 255
199 224 255
199 224 255
200 224 255
200 224 255
200 224 255
200 224 255
200 224 255
200 224 255
200 224 255
200 224 255
200 224 255
200 224 255
200 224 255
200 224 255
200 224 255
200 224 255
201 224 255
201 224 255
201 224 255
201 224 255
201 224 255
201 224 255
201 224 255
201 224 255
201 224 255
201 224 255
201 224 255
201 225 255
201 225 255
201 225 255
201 225 255
202 225 255
202 225 255
202 225 255
202 225 255
202 225 255
202 225 255
202 225 255
202 225 255
202 225 255
202 225 255
202 225 255
202 225 255
202 225 255
202 225 255
203 225 255
203 225 255
203 225 255
203 225 255
203 225 255
203 225 255
203 225 255
203 225 255
203 226 255
203 226 255
203 226 255
203 226 255
203 226 255
203 226 255
203 226 255
204 226 255
204 226 255
204 226 255
204 226 255
204 226 255
204 226 255
204 226 255
204 226 255
204 226 255
204 226 255
204 226 255
204 226 255
204 226 255
204 226 255
204 226 255
205 226 255
205 226 255
205 226 255
205 226 255
205 226 255
205 226 255
205 226 255
205 227 255
205 227 255
205 227 255
205 227 255
205 227 255
205 227 255
205 227 255
205 227 255
205 227 255
206 227 255
206 227 255
206 227 255
206 227 255
206 227 255
206 227 255
206 227 255
206 227 255
206 227 255
206 227 255
206 227 255
206 227 255
206 227 255
206 227 255
206 227 255
206 227 255
206 227 255
206 227 255
207 227 255
207 227 255
207 227 255
207 227 255
207 227 255
207 228 255
207 228 255
207 228 255
207 228 255
207 228 255
207 228 255
207 228 255
207 228 255
207 228 255
207 228 255
207 228 255
207 228 255
207 228 255
207 228 255
208 228 255
207 228 255
207 228 255
207 228 255
207 228 255
207 228 255
207 228 255
207 228 255
207 228 255
207 228 255
207 228 255
207 228 255
207 228 255
207 228 255
207 228 255
207 228 255
207 227 255
207 227 255
207 227 255
207 227 255
207 227 255
206 227 255
206 227 255
206 227 255
206 227 255
206 227 255
206 227 255
206 227 255
206 227 255
206 227 255
206 227 255
206 227 255
206 227 255
206 227 255
206 227 255
206 227 255
206 227 255
206 227 255
205 227 255
205 227 255
205 227 255
205 227 255
205 227 255
205 227 255
205 227 255
205 227 255
205 227 255
205 227 255
205 226 255
205 226 255
205 226 255
205 226 255
205 226 255
205 226 255
205 226 255
204 226 255
204 226 255
204 226 255
204 226 255
204 226 255
204 226 255
204 226 255
204 226 255
204 226 255
204 226 255
204 226 255
204 226 255
204 226 255
204 226 255
204 226 255
203 226 255
203 226 255
203 226 255
203 226 255
203 226 255
203 226 255
203 225 255
203 225 255
203 225 255
203 225 255
203 225 255
203 225 255
203 225 255
203 225 255
203 225 255
202 225 255
202 225 255
202 225 255
202 225 255
202 225 255
202 225 255
202 225 255
202 225 255
202 225 255
202 225 255
202 225 255
202 225 255
202 225 255
202 225 255
201 225 255
201 225 255
201 225 255
201 225 255
201 224 255
201 224 255
201 224 255
201 224 255
201 224 255
201 224 255
201 224 255
201 224 255
201 224 255
201 224 255
200 224 255
200 224 255
200 224 255
200 224 255
200 224 255
200 224 255
200 224 255
200 224 255
200 224 255
200 224 255
200 224 255
200 224 255
200 224 255
200 224 255
200 224 255
199 224 255
199 224 255
199 224 255
199 223 255
199 223 255
199 223 255
199 223 255
199 223 255
199 223 255
199 223 255
199 223 255
199 223 255
199 223 255
199 223 255
199 223 255
199 223 255
199 223 255
198 223 255
198 223 255
198 223 255
198 223 255
198 223 255
198 223 255
198 223 255
198 223 255
198 223 255
198 223 255
198 223 255
198 223 255
198 223 255
198 223 255
198 223 255
198 223 255
198 223 255
198 223 255
198 223 255
198 223 255
198 223 255
198 223 255
198 223 255
198 223 255
197 223 255
197 222 255
197 222 255
197 222 255
197 222 255
197 222 255
197 222 255
197 222 255
197 222 255
197 222 255
197 222 255
197 222 255
197 222 255
197 222 255
197 222 255
197 222 255
197 222 255
197 222 255
197 222 255
197 222 255
197 222 255
197 222 255
197 222 255
197 222 255
197 222 255
197 222 255
197 222 255
197 222 255
197 222 255
197 222 255
197 222 255
197 222 255
197 222 255
197 222 255
197 222 255
197 222 255
197 222 255
197 222 255
197 222 255
197 222 255
197 222 255
197 222 255
197 222 255
197 222 255
197 222 255
198 223 255
198 223 255
198 223 255
198 223 255
198 223 255
198 223 255
198 223 255
198 223 255
198 223 255
198 223 255
198 223 255
198 223 255
198 223 255
198 223 255
198 223 255
198 223 255
198 223 255
198 223 255
198 223 255
198 223 255
198 223 255
198 223 255
198 223 255
198 223 255
199 223 255
199 223 255
199 223 255
199 223 255
199 223 255
199 223 255
199 223 255
199 223 255
199 223 255
199 223 255
199 223 255
199 223 255
199 223 255
199 223 255
199 224 255
199 224 255
199 224 255
200 224 255
200 224 255
200 224 255
200 224 255
200 224 255
200 224 255
200 224 255
200 224 255
200 224 255
200 224 255
200 224 255
200 224 255
200 224 255
200 224 255
200 224 255
201 224 255
201 224 255
201 224 255
201 224 255
201 224 255
201 224 255
201 224 255
201 224 255
201 224 255
201 224 255
201 225 255
201 225 255
201 225 255
201 225 255
202 225 255
202 225 255
202 225 255
202 225 255
202 225 255
202 225 255
202 225 255
202 225 255
202 225 255
202 225 255
202 225 255
202 225 255
202 225 255
202 225 255
203 225 255
203 225 255
203 225 255
203 225 255
203 225 255
203 225 255
203 225 255
203 225 255
203 225 255
203 226 255
203 226 255
203 226 255
203 226 255
203 226 255
203 226 255
204 226 255
204 226 255
204 226 255
204 226 255
204 226 255
204 226 255
204 226 255
204 226 255
204 226 255
204 226 255
204 226 255
204 226 255
204 226 255
204 226 255
204 226 255
205 226 255
205 226 255
205 226 255
205 226 255
205 226 255
205 226 255
205 226 255
205 227 255
205 227 255
205 227 255
205 227 255
205 227 255
205 227 255
205 227 255
205 227 255
205 227 255
205 227 255
206 227 255
206 227 255
206 227 255
206 227 255
206 227 255
206 227 255
206 227 255
206 227 255
206 227 255
206 227 255
206 227 255
206 227 255
206 227 255
206 227 255
206 227 255
206 227 255
206 227 255
207 227 255
207 227 255
207 227 255
207 227 255
207 227 255
207 228 255
207 228 255
207 228 255
207 228 255
207 228 255
207 228 255
207 228 255
207 228 255
207 228 255
207 228 255
207 228 255
207 228 255
207 228 255
207 228 255
207 228 255
208 228 255
208 228 255
208 228 255
208 228 255
208 228 255
208 228 255
207 228 255
207 228 255
207 228 255
207 228 255
207 228 255
207 228 255
207 228 255
207 228 255
207 228 255
207 228 255
207 228 255
207 228 255
207 228 255
207 228 255
207 228 255
207 227 255
207 227 255
207 227 255
207 227 255
206 227 255
206 227 255
206 227 255
206 227 255
206 227 255
206 227 255
206 227 255
206 227 255
206 227 255
206 227 255
206 227 255
206 227 255
206 227 255
206 227 255
206 227 255
206 227 255
206 227 255
206 227 255
205 227 255
205 227 255
205 227 255
205 227 255
205 227 255
205 227 255
205 227 255
205 227 255
205 227 255
205 227 255
205 226 255
205 226 255
205 226 255
205 226 255
205 226 255
205 226 255
204 226 255
204 226 255
204 226 255
204 226 255
204 226 255
204 226 255
204 226 255
204 226 255
204 226 255
204 226 255
204 226 255
204 226 255
204 226 255
204 226 255
204 226 255
204 226 255
203 226 255
203 226 255
203 226 255
203 226 255
203 226 255
203 226 255
203 225 255
203 225 255
203 225 255
203 225 255
203 225 255
203 225 255
203 225 255
203 225 255
202 225 255
202 225 255
202 225 255
202 225 255
202 225 255
202 225 255
202 225 255
202 225 255
202 225 255
202 225 255
202 225 255
202 225 255
202 225 255
202 225 255
201 225 255
201 225 255
201 225 255
201 225 255
201 225 255
201 224 255
201 224 255
201 224 255
201 224 255
201 224 255
201 224 255
201 224 255
201 224 255
201 224 255
201 224 255
200 224 255
200 224 255
200 224 255
200 224 255
200 224 255
200 224 255
200 224 255
200 224 255
200 224 255
200 224 255
200 224 255
200 224 255
200 224 255
200 224 255
200 224 255
199 224 255
199 224 255
199 224 255
199 223 255
199 223 255
199 223 255
199 223 255
199 223 255
199 223 255
199 223 255
199 223 255
199 223 255
199 223 255
199 223 255
199 223 255
199 223 255
199 223 255
199 223 255
198 223 255
198 223 255
198 223 255
198 223 255
198 223 255
198 223 255
198 223 255
198 223 255
198 223 255
198 223 255
198 223 255
198 223 255
198 223 255
198 223 255
198 223 255
198 223 255
198 223 255
198 223 255
198 223 255
198 223 255
198 223 255
198 223 255
198 223 255
198 223 255
198 223 255
198 223 255
198 223 255
197 223 255
197 223 255
197 222 255
197 222 255
197 222 255
197 222 255
197 222 255
197 222 255
197 222 255
197 222 255
197 222 255
197 222 255
197 222 255
197 222 255
197 222 255
197 222 255
197 222 255
197 222 255
197 222 255
197 222 255
197 222 255
197 222 255
197 222 255
197 222 255
197 222 255
197 222 255
197 222 255
197 222 255
197 222 255
197 223 255
197 223 255
198 223 255
198 223 255
198 223 255
198 223 255
198 223 255
198 223 255
198 223 255
198 223 255
198 223 255
198 223 255
198 223 255
198 223 255
198 223 255
198 223 255
198 223 255
198 223 255
198 223 255
198 223 255
198 223 255
198 223 255
198 223 255
198 223 255
198 223 255
198 223 255
198 223 255
198 223 255
198 223 255
199 223 255
199 223 255
199 223 255
199 223 255
199 223 255
199 223 255
199 223 255
199 223 255
199 223 255
199 223 255
199 223 255
199 223 255
199 223 255
199 223 255
199 223 255
199 224 255
199 224 255
199 224 255
200 224 255
200 224 255
200 224 255
200 224 255
200 224 255
200 224 255
200 224 255
200 224 255
200 224 255
200 224 255
200 224 255
200 224 255
200 224 255
200 224 255
200 224 255
201 224 255
201 224 255
201 224 255
201 224 255
201 224 255
201 224 255
201 224 255
201 224 255
201 224 255
201 224 255
201 225 255
201 225 255
201 225 255
201 225 255
201 225 255
202 225 255
202 225 255
202 225 255
202 225 255
202 225 255
202 225 255
202 225 255
202 225 255
202 225 255
202 225 255
202 225 255
202 225 255
202 225 255
202 225 255
203 225 255
203 225 255
203 225 255
203 225 255
203 225 255
203 225 255
203 225 255
203 225 255
203 226 255
203 226 255
203 226 255
203 226 255
203 226 255
203 226 255
203 226 255
204 226 255
204 226 255
204 226 255
204 226 255
204 226 255
204 226 255
204 226 255
204 226 255
204 226 255
204 226 255
204 226 255
204 226 255
204 226 255
204 226 255
204 226 255
205 226 255
205 226 255
205 226 255
205 226 255
205 226 255
205 226 255
205 227 255
205 227 255
205 227 255
205 227 255
205 227 255
205 227 255
205 227 255
205 227 255
205 227 255
205 227 255
206 227 255
206 227 255
206 227 255
206 227 255
206 227 255
206 227 255
206 227 255
206 227 255
206 227 255
206 227 255
206 227 255
206 227 255
206 227 255
206 227 255
206 227 255
206 227 255
206 227 255
207 227 255
207 227 255
207 227 255
207 227 255
207 227 255
207 228 255
207 228 255
207 228 255
207 228 255
207 228 255
207 228 255
207 228 255
207 228 255
207 228 255
207 228 255
207 228 255
207 228 255
207 228 255
207 228 255
207 228 255
208 228 255
208 228 255
208 228 255
208 228 255
208 228 255
208 228 255
208 228 255
208 228 255
208 228 255
208 228 255
208 228 255
208 228 255
207 228 255
207 228 255
207 228 255
207 228 255
207 228 255
207 228 255
207 228 255
207 228 255
207 228 255
207 228 255
207 228 255
207 228 255
207 228 255
207 228 255
207 228 255
207 227 255
207 227 255
207 227 255
207 227 255
206 227 255
206 227 255
206 227 255
206 227 255
206 227 255
206 227 255
206 227 255
206 227 255
206 227 255
206 227 255
206 227 255
206 227 255
206 227 255
206 227 255
206 227 255
206 227 255
206 227 255
206 227 255
205 227 255
205 227 255
205 227 255
205 227 255
205 227 255
205 227 255
205 227 255
205 227 255
205 227 255
205 227 255
205 226 255
205 226 255
205 226 255
205 226 255
205 226 255
205 226 255
204 226 255
204 226 255
204 226 255
204 226 255
204 226 255
204 226 255
204 226 255
204 226 255
204 226 255
204 226 255
204 226 255
204 226 255
204 226 255
204 226 255
204 226 255
203 226 255
203 226 255
203 226 255
203 226 255
203 226 255
203 226 255
203 225 255
203 225 255
203 225 255
203 225 255
203 225 255
203 225 255
203 225 255
203 225 255
203 225 255
202 225 255
202 225 255
202 225 255
202 225 255
202 225 255
202 225 255
202 225 255
202 225 255
202 225 255
202 225 255
202 225 255
202 225 255
202 225 255
202 225 255
201 225 255
201 225 255
201 225 255
201 225 255
201 224 255
201 224 255
201 224 255
201 224 255
201 224 255
201 224 255
201 224 255
201 224 255
201 224 255
201 224 255
201 224 255
200 224 255
200 224 255
200 224 255
200 224 255
200 224 255
200 224 255
200 224 255
200 224 255
200 224 255
200 224 255
200 224 255
200 224 255
200 224 255
200 224 255
200 224 255
199 224 255
199 224 255
199 224 255
199 223 255
199 223 255
199 223 255
199 223 255
199 223 255
199 223 255
199 223 255
199 223 255
199 223 255
199 223 255
199 223 255
199 223 255
199 223 255
199 223 255
199 223 255
199 223 255
198 223 255
198 223 255
198 223 255
198 223 255
198 223 255
198 223 255
198 223 255
198 223 255
198 223 255
198 223 255
198 223 255
198 223 255
198 223 255
198 223 255
198 223 255
198 223 255
198 223 255
198 223 255
198 223 255
198 223 255
198 223 255
198 223 255
198 223 255
198 223 255
198 223 255
198 223 255
198 223 255
198 223 255
198 223 255
198 223 255
198 223 255
198 223 255
198 223 255
198 223 255
198 223 255
198 223 255
198 223 255
198 223 255
198 223 255
198 223 255
198 223 255
198 223 255
198 223 255
198 223 255
198 223 255
198 223 255
198 223 255
198 223 255
198 223 255
198 223 255
198 223 255
198 223 255
198 223 255
198 223 255
198 223 255
198 223 255
198 223 255
198 223 255
198 223 255
198 223 255
198 223 255
198 223 255
198 223 255
198 223 255
198 223 255
198 223 255
198 223 255
198 223 255
198 223 255
198 223 255
198 223 255
198 223 255
198 223 255
198 223 255
198 223 255
198 223 255
198 223 255
199 223 255
199 223 255
199 223 255
199 223 255
199 223 255
199 223 255
199 223 255
199 223 255
199 223 255
199 223 255
199 223 255
199 223 255
199 223 255
199 223 255
199 223 255
199 223 255
199 224 255
199 224 255
199 224 255
200 224 255
200 224 255
200 224 255
200 224 255
200 224 255
200 224 255
200 224 255
200 224 255
200 224 255
200 224 255
200 224 255
200 224 255
200 224 255
200 224 255
200 224 255
201 224 255
201 224 255
201 224 255
201 224 255
201 224 255
201 224 255
201 224 255
201 224 255
201 224 255
201 224 255
201 224 255
201 225 255
201 225 255
201 225 255
201 225 255
202 225 255
202 225 255
202 225 255
202 225 255
202 225 255
202 225 255
202 225 255
202 225 255
202 225 255
202 225 255
202 225 255
202 225 255
202 225 255
202 225 255
203 225 255
203 225 255
203 225 255
203 225 255
203 225 255
203 225 255
203 225 255
203 225 255
203 225 255
203 226 255
203 226 255
203 226 255
203 226 255
203 226 255
203 226 255
204 226 255
204 226 255
204 226 255
204 226 255
204 226 255
204 226 255
204 226 255
204 226 255
204 226 255
204 226 255
204 226 255
204 226 255
204 226 255
204 226 255
204 226 255
205 226 255
205 226 255
205 226 255
205 226 255
205 226 255
205 226 255
205 227 255
205 227 255
205 227 255
205 227 255
205 227 255
205 227 255
205 227 255
205 227 255
205 227 255
205 227 255
206 227 255
206 227 255
206 227 255
206 227 255
206 227 255
206 227 255
206 227 255
206 227 255
206 227 255
206 227 255
206 227 255
206 227 255
206 227 255
206 227 255
206 227 255
206 227 255
206 227 255
207 227 255
207 227 255
207 227 255
207 227 255
207 227 255
207 228 255
207 228 255
207 228 255
207 228 255
207 228 255
207 228 255
207 228 255
207 228 255
207 228 255
207 228 255
207 228 255
207 228 255
207 228 255
207 228 255
207 228 255
208 228 255
208 228 255
208 228 255
208 228 255
208 228 255
208 228 255
208 228 255
208 228 255
208 228 255
208 228 255
208 228 255
208 228 255
208 228 255
208 228 255
208 228 255
208 228 255
208 228 255
208 228 255
207 228 255
207 228 255
207 228 255
207 228 255
207 228 255
207 228 255
207 228 255
207 228 255
207 228 255
207 228 255
207 228 255
207 228 255
207 228 255
207 228 255
207 228 255
207 227 255
207 227 255
207 227 255
207 227 255
206 227 255
206 227 255
206 227 255
206 227 255
206 227 255
206 227 255
206 227 255
206 227 255
206 227 255
206 227 255
206 227 255
206 227 255
206 227 255
206 227 255
206 227 255
206 227 255
206 227 255
206 227 255
205 227 255
205 227 255
205 227 255
205 227 255
205 227 255
205 227 255
205 227 255
205 227 255
205 227 255
205 226 255
205 226 255
205 226 255
205 226 255
205 226 255
205 226 255
205 226 255
204 226 255
204 226 255
204 226 255
204 226 255
204 226 255
204 226 255
204 226 255
204 226 255
204 226 255
204 226 255
204 226 255
204 226 255
204 226 255
204 226 255
204 226 255
203 226 255
203 226 255
203 226 255
203 226 255
203 226 255
203 226 255
203 225 255
203 225 255
203 225 255
203 225 255
203 225 255
203 225 255
203 225 255
203 225 255
202 225 255
202 225 255
202 225 255
202 225 255
202 225 255
202 225 255
202 225 255
202 225 255
202 225 255
202 225 255
202 225 255
202 225 255
202 225 255
202 225 255
202 225 255
201 225 255
201 225 255
201 225 255
201 225 255
201 224 255
201 224 255
201 224 255
201 224 255
201 224 255
201 224 255
201 224 255
201 224 255
201 224 255
201 224 255
201 224 255
200 224 255
200 224 255
200 224 255
200 224 255
200 224 255
200 224 255
200 224 255
200 224 255
200 224 255
200 224 255
200 224 255
200 224 255
200 224 255
200 224 255
200 224 255
199 224 255
199 224 255
199 224 255
199 223 255
199 223 255
199 223 255
199 223 255
199 223 255
199 223 255
199 223 255
199 223 255
199 223 255
199 223 255
199 223 255
199 223 255
199 223 255
199 223 255
199 223 255
199 223 255
199 223 255
198 223 255
198 223 255
198 223 255
198 223 255
198 223 255
198 223 255
198 223 255
198 223 255
198 223 255
198 223 255
198 223 255
198 223 255
198 223 255
198 223 255
198 223 255
198 223 255
198 223 255
198 223 255
198 223 255
198 223 255
198 223 255
198 223 255
198 223 255
198 223 255
198 223 255
198 223 255
198 223 255
198 223 255
198 223 255
198 223 255
198 223 255
198 223 255
198 223 255
198 223 255
198 223 255
198 223 255
198 223 255
198 223 255
198 223 255
198 223 255
198 223 255
198 223 255
198 223 255
198 223 255
198 223 255
198 223 255
198 223 255
198 223 255
198 223 255
198 223 255
198 223 255
198 223 255
198 223 255
198 223 255
198 223 255
198 223 255
198 223 255
198 223 255
198 223 255
198 223 255
198 223 255
198 223 255
198 223 255
198 223 255
198 223 255
198 223 255
198 223 255
198 223 255
198 223 255
199 223 255
199 223 255
199 223 255
199 223 255
199 223 255
199 223 255
199 223 255
199 223 255
199 223 255
199 223 255
199 223 255
199 223 255
199 223 255
199 223 255
199 223 255
199 223 255
199 223 255
199 224 255
199 224 255
199 224 255
200 224 255
200 224 255
200 224 255
200 224 255
200 224 255
200 224 255
200 224 255
200 224 255
200 224 255
200 224 255
200 224 255
200 224 255
200 224 255
200 224 255
200 224 255
200 224 255
201 224 255
201 224 255
201 224 255
201 224 255
201 224 255
201 224 255
201 224 255
201 224 255
201 224 255
201 224 255
201 225 255
201 225 255
201 225 255
201 225 255
202 225 255
202 225 255
202 225 255
202 225 255
202 225 255
202 225 255
202 225 255
202 225 255
202 225 255
202 225 255
202 225 255
202 225 255
202 225 255
202 225 255
202 225 255
203 225 255
203 225 255
203 225 255
203 225 255
203 225 255
203 225 255
203 225 255
203 225 255
203 226 255
203 226 255
203 226 255
203 226 255
203 226 255
203 226 255
204 226 255
204 226 255
204 226 255
204 226 255
204 226 255
204 226 255
204 226 255
204 226 255
204 226 255
204 226 255
204 226 255
204 226 255
204 226 255
204 226 255
204 226 255
205 226 255
205 226 255
205 226 255
205 226 255
205 226 255
205 226 255
205 227 255
205 227 255
205 227 255
205 227 255
205 227 255
205 227 255
205 227 255
205 227 255
205 227 255
205 227 255
206 227 255
206 227 255
206 227 255
206 227 255
206 227 255
206 227 255
206 227 255
206 227 255
206 227 255
206 227 255
206 227 255
206 227 255
206 227 255
206 227 255
206 227 255
206 227 255
206 227 255
206 227 255
207 227 255
207 227 255
207 227 255
207 227 255
207 228 255
207 228 255
207 228 255
207 228 255
207 228 255
207 228 255
207 228 255
207 228 255
207 228 255
207 228 255
207 228 255
207 228 255
207 228 255
207 228 255
207 228 255
208 228 255
208 228 255
208 228 255
208 228 255
208 228 255
208 228 255
208 228 255
208 228 255
208 228 255
208 228 255
208 228 255
208 228 255
208 228 255
208 228 255
208 228 255
208 228 255
208 228 255
208 228 255
208 228 255
208 228 255
208 228 255
208 228 255
208 228 255
208 228 255
207 228 255
207 228 255
207 228 255
207 228 255
207 228 255
207 228 255
207 228 255
207 228 255
207 228 255
207 228 255
207 228 255
207 228 255
207 228 255
207 228 255
207 228 255
207 227 255
207 227 255
207 227 255
207 227 255
206 227 255
206 227 255
206 227 255
206 227 255
206 227 255
206 227 255
206 227 255
206 227 255
206 227 255
206 227 255
206 227 255
206 227 255
206 227 255
206 227 255
206 227 255
206 227 255
206 227 255
205 227 255
205 227 255
205 227 255
205 227 255
205 227 255
205 227 255
205 227 255
205 227 255
205 227 255
205 227 255
205 226 255
205 226 255
205 226 255
205 226 255
205 226 255
205 226 255
204 226 255
204 226 255
204 226 255
204 226 255
204 226 255
204 226 255
204 226 255
204 226 255
204 226 255
204 226 255
204 226 255
204 226 255
204 226 255
204 226 255
204 226 255
203 226 255
203 226 255
203 226 255
203 226 255
203 226 255
203 226 255
203 226 255
203 225 255
203 225 255
203 225 255
203 225 255
203 225 255
203 225 255
203 225 255
203 225 255
202 225 255
202 225 255
202 225 255
202 225 255
202 225 255
202 225 255
202 225 255
202 225 255
202 225 255
202 225 255
202 225 255
202 225 255
202 225 255
202 225 255
201 225 255
201 225 255
201 225 255
201 225 255
201 225 255
201 224 255
201 224 255
201 224 255
201 224 255
201 224 255
201 224 255
201 224 255
201 224 255
201 224 255
201 224 255
200 224 255
200 224 255
200 224 255
200 224 255
200 224 255
200 224 255
200 224 255
200 224 255
200 224 255
200 224 255
200 224 255
200 224 255
200 224 255
200 224 255
200 224 255
200 224 255
200 224 255
199 224 255
199 224 255
199 224 255
199 223 255
199 223 255
199 223 255
199 223 255
199 223 255
199 223 255
199 223 255
199 223 255
199 223 255
199 223 255
199 223 255
199 223 255
199 223 255
199 223 255
199 223 255
199 223 255
199 223 255
199 223 255
198 223 255
198 223 255
198 223 255
198 223 255
198 223 255
198 223 255
198 223 255
198 223 255
198 223 255
198 223 255
198 223 255
198 223 255
198 223 255
198 223 255
198 223 255
198 223 255
198 223 255
198 223 255
198 223 255
198 223 255
198 223 255
198 223 255
198 223 255
198 223 255
198 223 255
198 223 255
198 223 255
198 223 255
198 223 255
198 223 255
198 223 255
198 223 255
198 223 255
198 223 255
198 223 255
198 223 255
198 223 255
198 223 255
198 223 255
198 223 255
198 223 255
198 223 255
198 223 255
198 223 255
198 223 255
198 223 255
198 223 255
198 223 255
198 223 255
198 223 255
198 223 255
198 223 255
198 223 255
198 223 255
198 223 255
198 223 255
198 223 255
198 223 255
198 223 255
199 223 255
199 223 255
199 223 255
199 223 255
199 223 255
199 223 255
199 223 255
199 223 255
199 223 255
199 223 255
199 223 255
199 223 255
199 223 255
199 223 255
199 223 255
199 223 255
199 223 255
199 223 255
199 224 255
199 224 255
199 224 255
200 224 255
200 224 255
200 224 255
200 224 255
200 224 255
200 224 255
200 224 255
200 224 255
200 224 255
200 224 255
200 224 255
200 224 255
200 224 255
200 224 255
200 224 255
200 224 255
201 224 255
201 224 255
201 224 255
201 224 255
201 224 255
201 224 255
201 224 255
201 224 255
201 224 255
201 224 255
201 224 255
201 225 255
201 225 255
201 225 255
201 225 255
201 225 255
202 225 255
202 225 255
202 225 255
202 225 255
202 225 255
202 225 255
202 225 255
202 225 255
202 225 255
202 225 255
202 225 255
202 225 255
202 225 255
202 225 255
203 225 255
203 225 255
203 225 255
203 225 255
203 225 255
203 225 255
203 225 255
203 225 255
203 226 255
203 226 255
203 226 255
203 226 255
203 226 255
203 226 255
203 226 255
204 226 255
204 226 255
204 226 255
204 226 255
204 226 255
204 226 255
204 226 255
204 226 255
204 226 255
204 226 255
204 226 255
204 226 255
204 226 255
204 226 255
204 226 255
205 226 255
205 226 255
205 226 255
205 226 255
205 226 255
205 226 255
205 227 255
205 227 255
205 227 255
205 227 255
205 227 255
205 227 255
205 227 255
205 227 255
205 227 255
205 227 255
206 227 255
206 227 255
206 227 255
206 227 255
206 227 255
206 227 255
206 227 255
206 227 255
206 227 255
206 227 255
206 227 255
206 227 255
206 227 255
206 227 255
206 227 255
206 227 255
206 227 255
207 227 255
207 227 255
207 227 255
207 227 255
207 228 255
207 228 255
207 228 255
207 228 255
207 228 255
207 228 255
207 228 255
207 228 255
207 228 255
207 228 255
207 228 255
207 228 255
207 228 255
207 228 255
207 228 255
208 228 255
208 228 255
208 228 255
208 228 255
208 228 255
208 228 255
208 228 255
208 228 255
208 228 255
208 228 255
208 228 255
208 228 255
208 228 255
208 228 255
208 228 255
208 228 255
208 228 255
208 228 255
208 228 255
208 228 255
208 228 255
208 228 255
208 228 255
208 228 255
208 228 255
208 228 255
208 228 255
208 228 255
208 228 255
208 228 255
208 228 255
207 228 255
207 228 255
207 228 255
207 228 255
207 228 255
207 228 255
207 228 255
207 228 255
207 228 255
207 228 255
207 228 255
207 228 255
207 228 255
207 228 255
207 227 255
207 227 255
207 227 255
207 227 255
206 227 255
206 227 255
206 227 255
206 227 255
206 227 255
206 227 255
206 227 255
206 227 255
206 227 255
206 227 255
206 227 255
206 227 255
206 227 255
206 227 255
206 227 255
206 227 255
206 227 255
205 227 255
205 227 255
205 227 255
205 227 255
205 227 255
205 227 255
205 227 255
205 227 255
205 227 255
205 227 255
205 226 255
205 226 255
205 226 255
205 226 255
205 226 255
205 226 255
204 226 255
204 226 255
204 226 255
204 226 255
204 226 255
204 226 255
204 226 255
204 226 255
204 226 255
204 226 255
204 226 255
204 226 255
204 226 255
204 226 255
204 226 255
203 226 255
203 226 255
203 226 255
203 226 255
203 226 255
203 226 255
203 226 255
203 225 255
203 225 255
203 225 255
203 225 255
203 225 255
203 225 255
203 225 255
203 225 255
202 225 255
202 225 255
202 225 255
202 225 255
202 225 255
202 225 255
202 225 255
202 225 255
202 225 255
202 225 255
202 225 255
202 225 255
202 225 255
202 225 255
201 225 255
201 225 255
201 225 255
201 225 255
201 225 255
201 224 255
201 224 255
201 224 255
201 224 255
201 224 255
201 224 255
201 224 255
201 224 255
201 224 255
201 224 255
200 224 255
200 224 255
200 224 255
200 224 255
200 224 255
200 224 255
200 224 255
200 224 255
200 224 255
200 224 255
200 224 255
200 224 255
200 224 255
200 224 255
200 224 255
200 224 255
200 224 255
199 224 255
199 224 255
199 224 255
199 223 255
199 223 255
199 223 255
199 223 255
199 223 255
199 223 255
199 223 255
199 223 255
199 223 255
199 223 255
199 223 255
199 223 255
199 223 255
199 223 255
199 223 255
199 223 255
199 223 255
199 223 255
199 223 255
199 223 255
199 223 255
198 223 255
198 223 255
198 223 255
198 223 255
198 223 255
198 223 255
198 223 255
198 223 255
198 223 255
198 223 255
198 223 255
198 223 255
198 223 255
198 223 255
198 223 255
198 223 255
198 223 255
198 223 255
198 223 255
198 223 255
198 223 255
198 223 255
198 223 255
198 223 255
198 223 255
198 223 255
198 223 255
198 223 255
198 223 255
198 223 255
198 223 255
198 223 255
198 223 255
198 223 255
198 223 255
198 223 255
198 223 255
198 223 255
198 223 255
198 223 255
198 223 255
198 223 255
198 223 255
198 223 255
198 223 255
198 223 255
198 223 255
199 223 255
199 223 255
199 223 255
199 223 255
199 223 255
199 223 255
199 223 255
199 223 255
199 223 255
199 223 255
199 223 255
199 223 255
199 223 255
199 223 255
199 223 255
199 223 255
199 223 255
199 223 255
199 223 255
199 223 255
199 223 255
199 224 255
199 224 255
199 224 255
200 224 255
200 224 255
200 224 255
200 224 255
200 224 255
200 224 255
200 224 255
200 224 255
200 224 255
200 224 255
200 224 255
200 224 255
200 224 255
200 224 255
200 224 255
200 224 255
200 224 255
201 224 255
201 224 255
201 224 255
201 224 255
201 224 255
201 224 255
201 224 255
201 224 255
201 224 255
201 224 255
201 225 255
201 225 255
201 225 255
201 225 255
201 225 255
202 225 255
202 225 255
202 225 255
202 225 255
202 225 255
202 225 255
202 225 255
202 225 255
202 225 255
202 225 255
202 225 255
202 225 255
202 225 255
202 225 255
203 225 255
203 225 255
203 225 255
203 225 255
203 225 255
203 225 255
203 225 255
203 225 255
203 226 255
203 226 255
203 226 255
203 226 255
203 226 255
203 226 255
203 226 255
204 226 255
204 226 255
204 226 255
204 226 255
204 226 255
204 226 255
204 226 255
204 226 255
204 226 255
204 226 255
204 226 255
204 226 255
204 226 255
204 226 255
204 226 255
205 226 255
205 226 255
205 226 255
205 226 255
205 226 255
205 226 255
205 227 255
205 227 255
205 227 255
205 227 255
205 227 255
205 227 255
205 227 255
205 227 255
205 227 255
205 227 255
206 227 255
206 227 255
206 227 255
206 227 255
206 227 255
206 227 255
206 227 255
206 227 255
206 227 255
206 227 255
206 227 255
206 227 255
206 227 255
206 227 255
206 227 255
206 227 255
206 227 255
207 227 255
207 227 255
207 227 255
207 227 255
207 228 255
207 228 255
207 228 255
207 228 255
207 228 255
207 228 255
207 228 255
207 228 255
207 228 255
207 228 255
207 228 255
207 228 255
207 228 255
207 228 255
207 228 255
208 228 255
208 228 255
208 228 255
208 228 255
208 228 255
208 228 255
208 228 255
208 228 255
208 228 255
208 228 255
208 228 255
208 228 255
208 228 255
208 228 255
208 228 255
208 228 255
208 228 255
208 228 255
208 228 255
208 228 255
208 228 255
208 228 255
208 228 255
208 228 255
208 228 255
208 228 255
208 228 255
208 228 255
208 228 255
208 228 255
208 228 255
208 228 255
208 228 255
208 228 255
208 228 255
208 228 255
207 228 255
207 228 255
207 228 255
207 228 255
207 228 255
207 228 255
207 228 255
207 228 255
207 228 255
207 228 255
207 228 255
207 228 255
207 228 255
207 228 255
207 228 255
207 227 255
207 227 255
207 227 255
207 227 255
206 227 255
206 227 255
206 227 255
206 227 255
206 227 255
206 227 255
206 227 255
206 227 255
206 227 255
206 227 255
206 227 255
206 227 255
206 227 255
206 227 255
206 227 255
206 227 255
206 227 255
205 227 255
205 227 255
205 227 255
205 227 255
205 227 255
205 227 255
205 227 255
205 227 255
205 227 255
205 227 255
205 226 255
205 226 255
205 226 255
205 226 255
205 226 255
205 226 255
204 226 255
204 226 255
204 226 255
204 226 255
204 226 255
204 226 255
204 226 255
204 226 255
204 226 255
204 226 255
204 226 255
204 226 255
204 226 255
204 226 255
204 226 255
203 226 255
203 226 255
203 226 255
203 226 255
203 226 255
203 226 255
203 225 255
203 225 255
203 225 255
203 225 255
203 225 255
203 225 255
203 225 255
203 225 255
202 225 255
202 225 255
202 225 255
202 225 255
202 225 255
202 225 255
202 225 255
202 225 255
202 225 255
202 225 255
202 225 255
202 225 255
202 225 255
202 225 255
202 225 255
201 225 255
201 225 255
201 225 255
201 225 255
201 225 255
201 224 255
201 224 255
201 224 255
201 224 255
201 224 255
201 224 255
201 224 255
201 224 255
201 224 255
201 224 255
201 224 255
200 224 255
200 224 255
200 224 255
200 224 255
200 224 255
200 224 255
200 224 255
200 224 255
200 224 255
200 224 255
200 224 255
200 224 255
200 224 255
200 224 255
200 224 255
200 224 255
200 224 255
199 224 255
199 224 255
199 224 255
199 223 255
199 223 255
199 223 255
199 223 255
199 223 255
199 223 255
199 223 255
199 223 255
199 223 255
199 223 255
199 223 255
199 223 255
199 223 255
199 223 255
199 223 255
199 223 255
199 223 255
199 223 255
199 223 255
199 223 255
199 223 255
199 223 255
199 223 255
199 223 255
198 223 255
198 223 255
198 223 255
198 223 255
198 223 255
198 223 255
198 223 255
198 223 255
198 223 255
198 223 255
198 223 255
198 223 255
198 223 255
198 223 255
198 223 255
198 223 255
198 223 255
198 223 255
198 223 255
198 223 255
198 223 255
198 223 255
198 223 255
198 223 255
198 223 255
198 223 255
198 223 255
198 223 255
198 223 255
198 223 255
198 223 255
198 223 255
198 223 255
199 223 255
199 223 255
199 223 255
199 223 255
199 223 255
199 223 255
199 223 255
199 223 255
199 223 255
199 223 255
199 223 255
199 223 255
199 223 255
199 223 255
199 223 255
199 223 255
199 223 255
199 223 255
199 223 255
199 223 255
199 223 255
199 223 255
199 223 255
199 223 255
199 224 255
199 224 255
199 224 255
200 224 255
200 224 255
200 224 255
200 224 255
200 224 255
200 224 255
200 224 255
200 224 255
200 224 255
200 224 255
200 224 255
200 224 255
200 224 255
200 224 255
200 224 255
200 224 255
200 224 255
201 224 255
201 224 255
201 224 255
201 224 255
201 224 255
201 224 255
201 224 255
201 224 255
201 224 255
201 224 255
201 224 255
201 225 255
201 225 255
201 225 255
201 225 255
201 225 255
202 225 255
202 225 255
202 225 255
202 225 255
202 225 255
202 225 255
202 225 255
202 225 255
202 225 255
202 225 255
202 225 255
202 225 255
202 225 255
202 225 255
202 225 255
203 225 255
203 225 255
203 225 255
203 225 255
203 225 255
203 225 255
203 225 255
203 225 255
203 226 255
203 226 255
203 226 255
203 226 255
203 226 255
203 226 255
204 226 255
204 226 255
204 226 255
204 226 255
204 226 255
204 226 255
204 226 255
204 226 255
204 226 255
204 226 255
204 226 255
204 226 255
204 226 255
204 226 255
204 226 255
205 226 255
205 226 255
205 226 255
205 226 255
205 226 255
205 226 255
205 227 255
205 227 255
205 227 255
205 227 255
205 227 255
205 227 255
205 227 255
205 227 255
205 227 255
205 227 255
206 227 255
206 227 255
206 227 255
206 227 255
206 227 255
206 227 255
206 227 255
206 227 255
206 227 255
206 227 255
206 227 255
206 227 255
206 227 255
206 227 255
206 227 255
206 227 255
206 227 255
207 227 255
207 227 255
207 227 255
207 227 255
207 228 255
207 228 255
207 228 255
207 228 255
207 228 255
207 228 255
207 228 255
207 228 255
207 228 255
207 228 255
207 228 255
207 228 255
207 228 255
207 228 255
208 228 255
208 228 255
208 228 255
208 228 255
208 228 255
208 228 255
208 228 255
208 228 255
208 228 255
208 228 255
208 228 255
208 228 255
208 228 255
208 228 255
208 228 255
208 228 255
208 228 255
208 228 255
208 228 255
208 228 255
208 228 255
209 229 255
209 228 255
208 228 255
208 228 255
208 228 255
208 228 255
208 228 255
208 228 255
208 228 255
208 228 255
208 228 255
208 228 255
208 228 255
208 228 255
208 228 255
208 228 255
208 228 255
208 228 255
208 228 255
208 228 255
208 228 255
208 228 255
208 228 255
207 228 255
207 228 255
207 228 255
207 228 255
207 228 255
207 228 255
207 228 255
207 228 255
207 228 255
207 228 255
207 228 255
207 228 255
207 228 255
207 228 255
207 227 255
207 227 255
207 227 255
207 227 255
206 227 255
206 227 255
206 227 255
206 227 255
206 227 255
206 227 255
206 227 255
206 227 255
206 227 255
206 227 255
206 227 255
206 227 255
206 227 255
206 227 255
206 227 255
206 227 255
206 227 255
205 227 255
205 227 255
205 227 255
205 227 255
205 227 255
205 227 255
205 227 255
205 227 255
205 227 255
205 226 255
205 226 255
205 226 255
205 226 255
205 226 255
205 226 255
205 226 255
204 226 255
204 226 255
204 226 255
204 226 255
204 226 255
204 226 255
204 226 255
204 226 255
204 226 255
204 226 255
204 226 255
204 226 255
204 226 255
204 226 255
204 226 255
203 226 255
203 226 255
203 226 255
203 226 255
203 226 255
203 226 255
203 225 255
203 225 255
203 225 255
203 225 255
203 225 255
203 225 255
203 225 255
203 225 255
202 225 255
202 225 255
202 225 255
202 225 255
202 225 255
202 225 255
202 225 255
202 225 255
202 225 255
202 225 255
202 225 255
202 225 255
202 225 255
202 225 255
202 225 255
201 225 255
201 225 255
201 225 255
201 225 255
201 225 255
201 224 255
201 224 255
201 224 255
201 224 255
201 224 255
201 224 255
201 224 255
201 224 255
201 224 255
201 224 255
201 224 255
200 224 255
200 224 255
200 224 255
200 224 255
200 224 255
200 224 255
200 224 255
200 224 255
200 224 255
200 224 255
200 224 255
200 224 255
200 224 255
200 224 255
200 224 255
200 224 255
200 224 255
200 224 255
200 224 255
199 224 255
199 224 255
199 224 255
199 223 255
199 223 255
199 223 255
199 223 255
199 223 255
199 223 255
199 223 255
199 223 255
199 223 255
199 223 255
199 223 255
199 223 255
199 223 255
199 223 255
199 223 255
199 223 255
199 223 255
199 223 255
199 223 255
199 223 255
199 223 255
199 223 255
199 223 255
199 223 255
199 223 255
199 223 255
199 223 255
199 223 255
199 223 255
199 223 255
199 223 255
199 223 255
199 223 255
199 223 255
199 223 255
199 223 255
199 223 255
199 223 255
199 223 255
199 223 255
199 223 255
199 223 255
199 223 255
199 223 255
199 223 255
199 223 255
199 223 255
199 223 255
199 223 255
199 223 255
199 223 255
199 223 255
199 223 255
199 223 255
199 223 255
199 223 255
199 223 255
199 223 255
199 223 255
199 223 255
199 223 255
199 223 255
199 223 255
199 223 255
199 223 255
199 223 255
199 223 255
199 223 255
199 223 255
199 223 255
199 223 255
199 224 255
199 224 255
199 224 255
199 224 255
200 224 255
200 224 255
200 224 255
200 224 255
200 224 255
200 224 255
200 224 255
200 224 255
200 224 255
200 224 255
200 224 255
200 224 255
200 224 255
200 224 255
200 224 255
200 224 255
200 224 255
200 224 255
201 224 255
201 224 255
201 224 255
201 224 255
201 224 255
201 224 255
201 224 255
201 224 255
201 224 255
201 224 255
201 224 255
201 225 255
201 225 255
201 225 255
201 225 255
201 225 255
202 225 255
202 225 255
202 225 255
202 225 255
202 225 255
202 225 255
202 225 255
202 225 255
202 225 255
202 225 255
202 225 255
202 225 255
202 225 255
202 225 255
202 225 255
203 225 255
203 225 255
203 225 255
203 225 255
203 225 255
203 225 255
203 225 255
203 225 255
203 226 255
203 226 255
203 226 255
203 226 255
203 226 255
203 226 255
204 226 255
204 226 255
204 226 255
204 226 255
204 226 255
204 226 255
204 226 255
204 226 255
204 226 255
204 226 255
204 226 255
204 226 255
204 226 255
204 226 255
204 226 255
204 226 255
205 226 255
205 226 255
205 226 255
205 226 255
205 226 255
205 226 255
205 227 255
205 227 255
205 227 255
205 227 255
205 227 255
205 227 255
205 227 255
205 227 255
205 227 255
206 227 255
206 227 255
206 227 255
206 227 255
206 227 255
206 227 255
206 227 255
206 227 255
206 227 255
206 227 255
206 227 255
206 227 255
206 227 255
206 227 255
206 227 255
206 227 255
206 227 255
207 227 255
207 227 255
207 227 255
207 227 255
207 228 255
207 228 255
207 228 255
207 228 255
207 228 255
207 228 255
207 228 255
207 228 255
207 228 255
207 228 255
207 228 255
207 228 255
207 228 255
207 228 255
208 228 255
208 228 255
208 228 255
208 228 255
208 228 255
208 228 255
208 228 255
208 228 255
208 228 255
208 228 255
208 228 255
208 228 255
208 228 255
208 228 255
208 228 255
208 228 255
208 228 255
208 228 255
208 228 255
208 228 255
208 228 255
209 228 255
209 229 255
209 229 255
209 229 255
209 229 255
209 229 255
209 229 255
209 228 255
209 228 255
208 228 255
208 228 255
208 228 255
208 228 255
208 228 255
208 228 255
208 228 255
208 228 255
208 228 255
208 228 255
208 228 255
208 228 255
208 228 255
208 228 255
208 228 255
208 228 255
208 228 255
208 228 255
208 228 255
208 228 255
207 228 255
207 228 255
207 228 255
207 228 255
207 228 255
207 228 255
207 228 255
207 228 255
207 228 255
207 228 255
207 228 255
207 228 255
207 228 255
207 228 255
207 227 255
207 227 255
207 227 255
207 227 255
206 227 255
206 227 255
206 227 255
206 227 255
206 227 255
206 227 255
206 227 255
206 227 255
206 227 255
206 227 255
206 227 255
206 227 255
206 227 255
206 227 255
206 227 255
206 227 255
206 227 255
205 227 255
205 227 255
205 227 255
205 227 255
205 227 255
205 227 255
205 227 255
205 227 255
205 227 255
205 226 255
205 226 255
205 226 255
205 226 255
205 226 255
205 226 255
204 226 255
204 226 255
204 226 255
204 226 255
204 226 255
204 226 255
204 226 255
204 226 255
204 226 255
204 226 255
204 226 255
204 226 255
204 226 255
204 226 255
204 226 255
203 226 255
203 226 255
203 226 255
203 226 255
203 226 255
203 226 255
203 226 255
203 225 255
203 225 255
203 225 255
203 225 255
203 225 255
203 225 255
203 225 255
203 225 255
202 225 255
202 225 255
202 225 255
202 225 255
202 225 255
202 225 255
202 225 255
202 225 255
202 225 255
202 225 255
202 225 255
202 225 255
202 225 255
202 225 255
202 225 255
201 225 255
201 225 255
201 225 255
201 225 255
201 225 255
201 224 255
201 224 255
201 224 255
201 224 255
201 224 255
201 224 255
201 224 255
201 224 255
201 224 255
201 224 255
201 224 255
200 224 255
200 224 255
200 224 255
200 224 255
200 224 255
200 224 255
200 224 255
200 224 255
200 224 255
200 224 255
200 224 255
200 224 255
200 224 255
200 224 255
200 224 255
200 224 255
200 224 255
200 224 255
200 224 255
200 224 255
199 224 255
199 224 255
199 224 255
199 224 255
199 223 255
199 223 255
199 223 255
199 223 255
199 223 255
199 223 255
199 223 255
199 223 255
199 223 255
199 223 255
199 223 255
199 223 255
199 223 255
199 223 255
199 223 255
199 223 255
199 223 255
199 223 255
199 223 255
199 223 255
199 223 255
199 223 255
199 223 255
199 223 255
199 223 255
199 223 255
199 223 255
199 223 255
199 223 255
199 223 255
199 223 255
199 223 255
199 223 255
199 223 255
199 223 255
199 223 255
199 223 255
199 223 255
199 223 255
199 223 255
199 223 255
199 223 255
199 223 255
199 223 255
199 223 255
199 223 255
199 223 255
199 223 255
199 223 255
199 223 255
199 223 255
199 223 255
199 223 255
199 223 255
199 223 255
199 223 255
199 223 255
199 223 255
199 223 255
199 223 255
199 223 255
199 224 255
199 224 255
199 224 255
199 224 255
200 224 255
200 224 255
200 224 255
200 224 255
200 224 255
200 224 255
200 224 255
200 224 255
200 224 255
200 224 255
200 224 255
200 224 255
200 224 255
200 224 255
200 224 255
200 224 255
200 224 255
200 224 255
200 224 255
200 224 255
201 224 255
201 224 255
201 224 255
201 224 255
201 224 255
201 224 255
201 224 255
201 224 255
201 224 255
201 224 255
201 224 255
201 225 255
201 225 255
201 225 255
201 225 255
201 225 255
202 225 255
202 225 255
202 225 255
202 225 255
202 225 255
202 225 255
202 225 255
202 225 255
202 225 255
202 225 255
202 225 255
202 225 255
202 225 255
202 225 255
202 225 255
203 225 255
203 225 255
203 225 255
203 225 255
203 225 255
203 225 255
203 225 255
203 225 255
203 226 255
203 226 255
203 226 255
203 226 255
203 226 255
203 226 255
204 226 255
204 226 255
204 226 255
204 226 255
204 226 255
204 226 255
204 226 255
204 226 255
204 226 255
204 226 255
204 226 255
204 226 255
204 226 255
204 226 255
204 226 255
204 226 255
205 226 255
205 226 255
205 226 255
205 226 255
205 226 255
205 226 255
205 227 255
205 227 255
205 227 255
205 227 255
205 227 255
205 227 255
205 227 255
205 227 255
205 227 255
206 227 255
206 227 255
206 227 255
206 227 255
206 227 255
206 227 255
206 227 255
206 227 255
206 227 255
206 227 255
206 227 255
206 227 255
206 227 255
206 227 255
206 227 255
206 227 255
206 227 255
207 227 255
207 227 255
207 227 255
207 227 255
207 228 255
207 228 255
207 228 255
207 228 255
207 228 255
207 228 255
207 228 255
207 228 255
207 228 255
207 228 255
207 228 255
207 228 255
207 228 255
207 228 255
208 228 255
208 228 255
208 228 255
208 228 255
208 228 255
208 228 255
208 228 255
208 228 255
208 228 255
208 228 255
208 228 255
208 228 255
208 228 255
208 228 255
208 228 255
208 228 255
208 228 255
208 228 255
208 228 255
208 228 255
208 228 255
209 228 255
209 229 255
209 229 255
209 229 255
209 229 255
209 229 255
209 229 255
209 229 255
209 229 255
209 229 255
209 229 255
209 229 255
209 229 255
209 228 255
209 228 255
208 228 255
208 228 255
208 228 255
208 228 255
208 228 255
208 228 255
208 228 255
208 228 255
208 228 255
208 228 255
208 228 255
208 228 255
208 228 255
208 228 255
208 228 255
208 228 255
208 228 255
208 228 255
208 228 255
208 228 255
207 228 255
207 228 255
207 228 255
207 228 255
207 228 255
207 228 255
207 228 255
207 228 255
207 228 255
207 228 255
207 228 255
207 228 255
207 228 255
207 228 255
207 227 255
207 227 255
207 227 255
207 227 255
206 227 255
206 227 255
206 227 255
206 227 255
206 227 255
206 227 255
206 227 255
206 227 255
206 227 255
206 227 255
206 227 255
206 227 255
206 227 255
206 227 255
206 227 255
206 227 255
206 227 255
205 227 255
205 227 255
205 227 255
205 227 255
205 227 255
205 227 255
205 227 255
205 227 255
205 227 255
205 226 255
205 226 255
205 226 255
205 226 255
205 226 255
205 226 255
204 226 255
204 226 255
204 226 255
204 226 255
204 226 255
204 226 255
204 226 255
204 226 255
204 226 255
204 226 255
204 226 255
204 226 255
204 226 255
204 226 255
204 226 255
203 226 255
203 226 255
203 226 255
203 226 255
203 226 255
203 226 255
203 226 255
203 225 255
203 225 255
203 225 255
203 225 255
203 225 255
203 225 255
203 225 255
203 225 255
202 225 255
202 225 255
202 225 255
202 225 255
202 225 255
202 225 255
202 225 255
202 225 255
202 225 255
202 225 255
202 225 255
202 225 255
202 225 255
202 225 255
202 225 255
202 225 255
201 225 255
201 225 255
201 225 255
201 225 255
201 224 255
201 224 255
201 224 255
201 224 255
201 224 255
201 224 255
201 224 255
201 224 255
201 224 255
201 224 255
201 224 255
201 224 255
200 224 255
200 224 255
200 224 255
200 224 255
200 224 255
200 224 255
200 224 255
200 224 255
200 224 255
200 224 255
200 224 255
200 224 255
200 224 255
200 224 255
200 224 255
200 224 255
200 224 255
200 224 255
200 224 255
200 224 255
200 224 255
199 224 255
199 224 255
199 224 255
199 224 255
199 224 255
199 223 255
199 223 255
199 223 255
199 223 255
199 223 255
199 223 255
199 223 255
199 223 255
199 223 255
199 223 255
199 223 255
199 223 255
199 223 255
199 223 255
199 223 255
199 223 255
199 223 255
199 223 255
199 223 255
199 223 255
199 223 255
199 223 255
199 223 255
199 223 255
199 223 255
199 223 255
199 223 255
199 223 255
199 223 255
199 223 255
199 223 255
199 223 255
199 223 255
199 223 255
199 223 255
199 223 255
199 223 255
199 223 255
199 223 255
199 223 255
199 223 255
199 223 255
199 223 255
199 223 255
199 223 255
199 223 255
199 223 255
199 223 255
199 223 255
199 224 255
199 224 255
199 224 255
199 224 255
199 224 255
200 224 255
200 224 255
200 224 255
200 224 255
200 224 255
200 224 255
200 224 255
200 224 255
200 224 255
200 224 255
200 224 255
200 224 255
200 224 255
200 224 255
200 224 255
200 224 255
200 224 255
200 224 255
200 224 255
200 224 255
200 224 255
201 224 255
201 224 255
201 224 255
201 224 255
201 224 255
201 224 255
201 224 255
201 224 255
201 224 255
201 224 255
201 224 255
201 224 255
201 225 255
201 225 255
201 225 255
201 225 255
202 225 255
202 225 255
202 225 255
202 225 255
202 225 255
202 225 255
202 225 255
202 225 255
202 225 255
202 225 255
202 225 255
202 225 255
202 225 255
202 225 255
202 225 255
202 225 255
203 225 255
203 225 255
203 225 255
203 225 255
203 225 255
203 225 255
203 225 255
203 225 255
203 226 255
203 226 255
203 226 255
203 226 255
203 226 255
203 226 255
203 226 255
204 226 255
204 226 255
204 226 255
204 226 255
204 226 255
204 226 255
204 226 255
204 226 255
204 226 255
204 226 255
204 226 255
204 226 255
204 226 255
204 226 255
204 226 255
205 226 255
205 226 255
205 226 255
205 226 255
205 226 255
205 226 255
205 227 255
205 227 255
205 227 255
205 227 255
205 227 255
205 227 255
205 227 255
205 227 255
205 227 255
206 227 255
206 227 255
206 227 255
206 227 255
206 227 255
206 227 255
206 227 255
206 227 255
206 227 255
206 227 255
206 227 255
206 227 255
206 227 255
206 227 255
206 227 255
206 227 255
206 227 255
207 227 255
207 227 255
207 227 255
207 227 255
207 228 255
207 228 255
207 228 255
207 228 255
207 228 255
207 228 255
207 228 255
207 228 255
207 228 255
207 228 255
207 228 255
207 228 255
207 228 255
207 228 255
208 228 255
208 228 255
208 228 255
208 228 255
208 228 255
208 228 255
208 228 255
208 228 255
208 228 255
208 228 255
208 228 255
208 228 255
208 228 255
208 228 255
208 228 255
208 228 255
208 228 255
208 228 255
208 228 255
208 228 255
209 228 255
209 228 255
209 229 255
209 229 255
209 229 255
209 229 255
209 229 255
209 229 255
209 229 255
209 229 255
209 229 255
209 229 255
209 229 255
209 229 255
209 229 255
209 229 255
209 229 255
209 229 255
209 229 255
209 229 255
209 229 255
209 228 255
208 228 255
208 228 255
208 228 255
208 228 255
208 228 255
208 228 255
208 228 255
208 228 255
208 228 255
208 228 255
208 228 255
208 228 255
208 228 255
208 228 255
208 228 255
208 228 255
208 228 255
208 228 255
208 228 255
208 228 255
207 228 255
207 228 255
207 228 255
207 228 255
207 228 255
207 228 255
207 228 255
207 228 255
207 228 255
207 228 255
207 228 255
207 228 255
207 228 255
207 228 255
207 227 255
207 227 255
207 227 255
207 227 255
206 227 255
206 227 255
206 227 255
206 227 255
206 227 255
206 227 255
206 227 255
206 227 255
206 227 255
206 227 255
206 227 255
206 227 255
206 227 255
206 227 255
206 227 255
206 227 255
205 227 255
205 227 255
205 227 255
205 227 255
205 227 255
205 227 255
205 227 255
205 227 255
205 227 255
205 227 255
205 226 255
205 226 255
205 226 255
205 226 255
205 226 255
205 226 255
204 226 255
204 226 255
204 226 255
204 226 255
204 226 255
204 226 255
204 226 255
204 226 255
204 226 255
204 226 255
204 226 255
204 226 255
204 226 255
204 226 255
204 226 255
203 226 255
203 226 255
203 226 255
203 226 255
203 226 255
203 226 255
203 226 255
203 225 255
203 225 255
203 225 255
203 225 255
203 225 255
203 225 255
203 225 255
203 225 255
202 225 255
202 225 255
202 225 255
202 225 255
202 225 255
202 225 255
202 225 255
202 225 255
202 225 255
202 225 255
202 225 255
202 225 255
202 225 255
202 225 255
202 225 255
202 225 255
201 225 255
201 225 255
201 225 255
201 225 255
201 224 255
201 224 255
201 224 255
201 224 255
201 224 255
201 224 255
201 224 255
201 224 255
201 224 255
201 224 255
201 224 255
201 224 255
201 224 255
200 224 255
200 224 255
200 224 255
200 224 255
200 224 255
200 224 255
200 224 255
200 224 255
200 224 255
200 224 255
200 224 255
200 224 255
200 224 255
200 224 255
200 224 255
200 224 255
200 224 255
200 224 255
200 224 255
200 224 255
200 224 255
200 224 255
200 224 255
200 224 255
199 224 255
199 224 255
199 224 255
199 224 255
199 224 255
199 224 255
199 223 255
199 223 255
199 223 255
199 223 255
199 223 255
199 223 255
199 223 255
199 223 255
199 223 255
199 223 255
199 223 255
199 223 255
199 223 255
199 223 255
199 223 255
199 223 255
199 223 255
199 223 255
199 223 255
199 223 255
199 223 255
199 223 255
199 223 255
199 223 255
199 223 255
199 223 255
199 223 255
199 223 255
199 223 255
199 223 255
199 223 255
199 223 255
199 223 255
199 224 255
199 224 255
199 224 255
199 224 255
199 224 255
199 224 255
200 224 255
200 224 255
200 224 255
200 224 255
200 224 255
200 224 255
200 224 255
200 224 255
200 224 255
200 224 255
200 224 255
200 224 255
200 224 255
200 224 255
200 224 255
200 224 255
200 224 255
200 224 255
200 224 255
200 224 255
200 224 255
200 224 255
200 224 255
200 224 255
201 224 255
201 224 255
201 224 255
201 224 255
201 224 255
201 224 255
201 224 255
201 224 255
201 224 255
201 224 255
201 224 255
201 224 255
201 224 255
201 225 255
201 225 255
201 225 255
201 225 255
202 225 255
202 225 255
202 225 255
202 225 255
202 225 255
202 225 255
202 225 255
202 225 255
202 225 255
202 225 255
202 225 255
202 225 255
202 225 255
202 225 255
202 225 255
202 225 255
203 225 255
203 225 255
203 225 255
203 225 255
203 225 255
203 225 255
203 225 255
203 225 255
203 226 255
203 226 255
203 226 255
203 226 255
203 226 255
203 226 255
203 226 255
204 226 255
204 226 255
204 226 255
204 226 255
204 226 255
204 226 255
204 226 255
204 226 255
204 226 255
204 226 255
204 226 255
204 226 255
204 226 255
204 226 255
204 226 255
205 226 255
205 226 255
205 226 255
205 226 255
205 226 255
205 226 255
205 227 255
205 227 255
205 227 255
205 227 255
205 227 255
205 227 255
205 227 255
205 227 255
205 227 255
205 227 255
206 227 255
206 227 255
206 227 255
206 227 255
206 227 255
206 227 255
206 227 255
206 227 255
206 227 255
206 227 255
206 227 255
206 227 255
206 227 255
206 227 255
206 227 255
206 227 255
207 227 255
207 227 255
207 227 255
207 227 255
207 228 255
207 228 255
207 228 255
207 228 255
207 228 255
207 228 255
207 228 255
207 228 255
207 228 255
207 228 255
207 228 255
207 228 255
207 228 255
207 228 255
208 228 255
208 228 255
208 228 255
208 228 255
208 228 255
208 228 255
208 228 255
208 228 255
208 228 255
208 228 255
208 228 255
208 228 255
208 228 255
208 228 255
208 228 255
208 228 255
208 228 255
208 228 255
208 228 255
208 228 255
209 228 255
209 229 255
209 229 255
209 229 255
209 229 255
209 229 255
209 229 255
209 229 255
209 229 255
209 229 255
209 229 255
209 229 255
209 229 255
209 229 255
209 229 255
209 229 255
209 229 255
209 229 255
209 229 255
209 229 255
209 229 255
209 229 255
209 229 255
209 229 255
209 229 255
209 229 255
209 229 255
209 228 255
208 228 255
208 228 255
208 228 255
208 228 255
208 228 255
208 228 255
208 228 255
208 228 255
208 228 255
208 228 255
208 228 255
208 228 255
208 228 255
208 228 255
208 228 255
208 228 255
208 228 255
208 228 255
208 228 255
208 228 255
207 228 255
207 228 255
207 228 255
207 228 255
207 228 255
207 228 255
207 228 255
207 228 255
207 228 255
207 228 255
207 228 255
207 228 255
207 228 255
207 228 255
207 227 255
207 227 255
207 227 255
207 227 255
206 227 255
206 227 255
206 227 255
206 227 255
206 227 255
206 227 255
206 227 255
206 227 255
206 227 255
206 227 255
206 227 255
206 227 255
206 227 255
206 227 255
206 227 255
206 227 255
206 227 255
205 227 255
205 227 255
205 227 255
205 227 255
205 227 255
205 227 255
205 227 255
205 227 255
205 227 255
205 226 255
205 226 255
205 226 255
205 226 255
205 226 255
205 226 255
204 226 255
204 226 255
204 226 255
204 226 255
204 226 255
204 226 255
204 226 255
204 226 255
204 226 255
204 226 255
204 226 255
204 226 255
204 226 255
204 226 255
204 226 255
203 226 255
203 226 255
203 226 255
203 226 255
203 226 255
203 226 255
203 226 255
203 225 255
203 225 255
203 225 255
203 225 255
203 225 255
203 225 255
203 225 255
203 225 255
202 225 255
202 225 255
202 225 255
202 225 255
202 225 255
202 225 255
202 225 255
202 225 255
202 225 255
202 225 255
202 225 255
202 225 255
202 225 255
202 225 255
202 225 255
202 225 255
201 225 255
201 225 255
201 225 255
201 225 255
201 225 255
201 224 255
201 224 255
201 224 255
201 224 255
201 224 255
201 224 255
201 224 255
201 224 255
201 224 255
201 224 255
201 224 255
201 224 255
201 224 255
200 224 255
200 224 255
200 224 255
200 224 255
200 224 255
200 224 255
200 224 255
200 224 255
200 224 255
200 224 255
200 224 255
200 224 255
200 224 255
200 224 255
200 224 255
200 224 255
200 224 255
200 224 255
200 224 255
200 224 255
200 224 255
200 224 255
200 224 255
200 224 255
200 224 255
200 224 255
200 224 255
200 224 255
200 224 255
199 224 255
199 224 255
199 224 255
199 224 255
199 224 255
199 224 255
199 224 255
199 224 255
199 224 255
199 224 255
199 224 255
199 224 255
199 224 255
199 224 255
199 224 255
199 224 255
199 224 255
199 224 255
199 224 255
199 224 255
199 224 255
199 224 255
199 224 255
199 224 255
199 224 255
199 224 255
199 224 255
200 224 255
200 224 255
200 224 255
200 224 255
200 224 255
200 224 255
200 224 255
200 224 255
200 224 255
200 224 255
200 224 255
200 224 255
200 224 255
200 224 255
200 224 255
200 224 255
200 224 255
200 224 255
200 224 255
200 224 255
200 224 255
200 224 255
200 224 255
200 224 255
200 224 255
200 224 255
200 224 255
200 224 255
200 224 255
201 224 255
201 224 255
201 224 255
201 224 255
201 224 255
201 224 255
201 224 255
201 224 255
201 224 255
201 224 255
201 224 255
201 224 255
201 224 255
201 225 255
201 225 255
201 225 255
201 225 255
201 225 255
202 225 255
202 225 255
202 225 255
202 225 255
202 225 255
202 225 255
202 225 255
202 225 255
202 225 255
202 225 255
202 225 255
202 225 255
202 225 255
202 225 255
202 225 255
202 225 255
203 225 255
203 225 255
203 225 255
203 225 255
203 225 255
203 225 255
203 225 255
203 225 255
203 226 255
203 226 255
203 226 255
203 226 255
203 226 255
203 226 255
203 226 255
204 226 255
204 226 255
204 226 255
204 226 255
204 226 255
204 226 255
204 226 255
204 226 255
204 226 255
204 226 255
204 226 255
204 226 255
204 226 255
204 226 255
204 226 255
205 226 255
205 226 255
205 226 255
205 226 255
205 226 255
205 226 255
205 227 255
205 227 255
205 227 255
205 227 255
205 227 255
205 227 255
205 227 255
205 227 255
205 227 255
206 227 255
206 227 255
206 227 255
206 227 255
206 227 255
206 227 255
206 227 255
206 227 255
206 227 255
206 227 255
206 227 255
206 227 255
206 227 255
206 227 255
206 227 255
206 227 255
206 227 255
207 227 255
207 227 255
207 227 255
207 227 255
207 228 255
207 228 255
207 228 255
207 228 255
207 228 255
207 228 255
207 228 255
207 228 255
207 228 255
207 228 255
207 228 255
207 228 255
207 228 255
207 228 255
208 228 255
208 228 255
208 228 255
208 228 255
208 228 255
208 228 255
208 228 255
208 228 255
208 228 255
208 228 255
208 228 255
208 228 255
208 228 255
208 228 255
208 228 255
208 228 255
208 228 255
208 228 255
208 228 255
208 228 255
209 228 255
209 229 255
209 229 255
209 229 255
209 229 255
209 229 255
209 229 255
209 229 255
209 229 255
209 229 255
209 229 255
209 229 255
209 229 255
209 229 255
209 229 255
209 229 255
209 229 255
209 229 255
209 229 255
209 229 255
209 229 255
209 229 255
209 229 255
209 229 255
209 229 255
209 229 255
209 229 255
209 229 255
209 229 255
209 229 255
209 229 255
209 229 255
209 229 255
209 228 255
209 228 255
208 228 255
208 228 255
208 228 255
208 228 255
208 228 255
208 228 255
208 228 255
208 228 255
208 228 255
208 228 255
208 228 255
208 228 255
208 228 255
208 228 255
208 228 255
208 228 255
208 228 255
208 228 255
208 228 255
207 228 255
207 228 255
207 228 255
207 228 255
207 228 255
207 228 255
207 228 255
207 228 255
207 228 255
207 228 255
207 228 255
207 228 255
207 228 255
207 228 255
207 227 255
207 227 255
207 227 255
207 227 255
206 227 255
206 227 255
206 227 255
206 227 255
206 227 255
206 227 255
206 227 255
206 227 255
206 227 255
206 227 255
206 227 255
206 227 255
206 227 255
206 227 255
206 227 255
206 227 255
206 227 255
205 227 255
205 227 255
205 227 255
205 227 255
205 227 255
205 227 255
205 227 255
205 227 255
205 227 255
205 226 255
205 226 255
205 226 255
205 226 255
205 226 255
205 226 255
204 226 255
204 226 255
204 226 255
204 226 255
204 226 255
204 226 255
204 226 255
204 226 255
204 226 255
204 226 255
204 226 255
204 226 255
204 226 255
204 226 255
204 226 255
203 226 255
203 226 255
203 226 255
203 226 255
203 226 255
203 226 255
203 226 255
203 225 255
203 225 255
203 225 255
203 225 255
203 225 255
203 225 255
203 225 255
203 225 255
203 225 255
202 225 255
202 225 255
202 225 255
202 225 255
202 225 255
202 225 255
202 225 255
202 225 255
202 225 255
202 225 255
202 225 255
202 225 255
202 225 255
202 225 255
202 225 255
201 225 255
201 225 255
201 225 255
201 225 255
201 225 255
201 225 255
201 224 255
201 224 255
201 224 255
201 224 255
201 224 255
201 224 255
201 224 255
201 224 255
201 224 255
201 224 255
201 224 255
201 224 255
201 224 255
201 224 255
200 224 255
200 224 255
200 224 255
200 224 255
200 224 255
200 224 255
200 224 255
200 224 255
200 224 255
200 224 255
200 224 255
200 224 255
200 224 255
200 224 255
200 224 255
200 224 255
200 224 255
200 224 255
200 224 255
200 224 255
200 224 255
200 224 255
200 224 255
200 224 255
200 224 255
200 224 255
200 224 255
200 224 255
200 224 255
200 224 255
200 224 255
200 224 255
200 224 255
200 224 255
200 224 255
200 224 255
200 224 255
200 224 255
200 224 255
200 224 255
200 224 255
200 224 255
200 224 255
200 224 255
200 224 255
200 224 255
200 224 255
200 224 255
200 224 255
200 224 255
200 224 255
200 224 255
200 224 255
200 224 255
200 224 255
200 224 255
200 224 255
200 224 255
200 224 255
200 224 255
200 224 255
200 224 255
200 224 255
200 224 255
200 224 255
200 224 255
200 224 255
200 224 255
200 224 255
200 224 255
200 224 255
200 224 255
200 224 255
200 224 255
200 224 255
201 224 255
201 224 255
201 224 255
201 224 255
201 224 255
201 224 255
201 224 255
201 224 255
201 224 255
201 224 255
201 224 255
201 224 255
201 224 255
201 224 255
201 225 255
201 225 255
201 225 255
201 225 255
201 225 255
202 225 255
202 225 255
202 225 255
202 225 255
202 225 255
202 225 255
202 225 255
202 225 255
202 225 255
202 225 255
202 225 255
202 225 255
202 225 255
202 225 255
202 225 255
202 225 255
202 225 255
203 225 255
203 225 255
203 225 255
203 225 255
203 225 255
203 225 255
203 225 255
203 225 255
203 226 255
203 226 255
203 226 255
203 226 255
203 226 255
203 226 255
203 226 255
204 226 255
204 226 255
204 226 255
204 226 255
204 226 255
204 226 255
204 226 255
204 226 255
204 226 255
204 226 255
204 226 255
204 226 255
204 226 255
204 226 255
204 226 255
205 226 255
205 226 255
205 226 255
205 226 255
205 226 255
205 226 255
205 227 255
205 227 255
205 227 255
205 227 255
205 227 255
205 227 255
205 227 255
205 227 255
205 227 255
205 227 255
206 227 255
206 227 255
206 227 255
206 227 255
206 227 255
206 227 255
206 227 255
206 227 255
206 227 255
206 227 255
206 227 255
206 227 255
206 227 255
206 227 255
206 227 255
206 227 255
207 227 255
207 227 255
207 227 255
207 227 255
207 228 255
207 228 255
207 228 255
207 228 255
207 228 255
207 228 255
207 228 255
207 228 255
207 228 255
207 228 255
207 228 255
207 228 255
207 228 255
207 228 255
208 228 255
208 228 255
208 228 255
208 228 255
208 228 255
208 228 255
208 228 255
208 228 255
208 228 255
208 228 255
208 228 255
208 228 255
208 228 255
208 228 255
208 228 255
208 228 255
208 228 255
208 228 255
208 228 255
209 228 255
209 228 255
209 229 255
209 229 255
209 229 255
209 229 255
209 229 255
209 229 255
209 229 255
209 229 255
209 229 255
209 229 255
209 229 255
209 229 255
209 229 255
209 229 255
209 229 255
209 229 255
209 229 255
209 229 255
209 229 255
209 229 255
209 229 255
209 229 255
209 229 255
209 229 255
209 229 255
209 229 255
209 229 255
209 229 255
209 229 255
209 229 255
209 229 255
209 229 255
209 229 255
209 229 255
209 229 255
209 229 255
209 229 255
209 229 255
209 229 255
209 228 255
208 228 255
208 228 255
208 228 255
208 228 255
208 228 255
208 228 255
208 228 255
208 228 255
208 228 255
208 228 255
208 228 255
208 228 255
208 228 255
208 228 255
208 228 255
208 228 255
208 228 255
208 228 255
208 228 255
207 228 255
207 228 255
207 228 255
207 228 255
207 228 255
207 228 255
207 228 255
207 228 255
207 228 255
207 228 255
207 228 255
207 228 255
207 228 255
207 228 255
207 227 255
207 227 255
207 227 255
207 227 255
206 227 255
206 227 255
206 227 255
206 227 255
206 227 255
206 227 255
206 227 255
206 227 255
206 227 255
206 227 255
206 227 255
206 227 255
206 227 255
206 227 255
206 227 255
206 227 255
205 227 255
205 227 255
205 227 255
205 227 255
205 227 255
205 227 255
205 227 255
205 227 255
205 227 255
205 227 255
205 226 255
205 226 255
205 226 255
205 226 255
205 226 255
205 226 255
204 226 255
204 226 255
204 226 255
204 226 255
204 226 255
204 226 255
204 226 255
204 226 255
204 226 255
204 226 255
204 226 255
204 226 255
204 226 255
204 226 255
204 226 255
203 226 255
203 226 255
203 226 255
203 226 255
203 226 255
203 226 255
203 226 255
203 225 255
203 225 255
203 225 255
203 225 255
203 225 255
203 225 255
203 225 255
203 225 255
203 225 255
202 225 255
202 225 255
202 225 255
202 225 255
202 225 255
202 225 255
202 225 255
202 225 255
202 225 255
202 225 255
202 225 255
202 225 255
202 225 255
202 225 255
202 225 255
202 225 255
201 225 255
201 225 255
201 225 255
201 225 255
201 225 255
201 225 255
201 224 255
201 224 255
201 224 255
201 224 255
201 224 255
201 224 255
201 224 255
201 224 255
201 224 255
201 224 255
201 224 255
201 224 255
201 224 255
201 224 255
201 224 255
200 224 255
200 224 255
200 224 255
200 224 255
200 224 255
200 224 255
200 224 255
200 224 255
200 224 255
200 224 255
200 224 255
200 224 255
200 224 255
200 224 255
200 224 255
200 224 255
200 224 255
200 224 255
200 224 255
200 224 255
200 224 255
200 224 255
200 224 255
200 224 255
200 224 255
200 224 255
200 224 255
200 224 255
200 224 255
200 224 255
200 224 255
200 224 255
200 224 255
200 224 255
200 224 255
200 224 255
200 224 255
200 224 255
200 224 255
200 224 255
200 224 255
200 224 255
200 224 255
200 224 255
200 224 255
200 224 255
200 224 255
200 224 255
200 224 255
200 224 255
200 224 255
200 224 255
200 224 255
200 224 255
200 224 255
200 224 255
200 224 255
200 224 255
200 224 255
200 224 255
200 224 255
200 224 255
200 224 255
200 224 255
200 224 255
201 224 255
201 224 255
201 224 255
201 224 255
201 224 255
201 224 255
201 224 255
201 224 255
201 224 255
201 224 255
201 224 255
201 224 255
201 224 255
201 224 255
201 224 255
201 225 255
201 225 255
201 225 255
201 225 255
201 225 255
201 225 255
202 225 255
202 225 255
202 225 255
202 225 255
202 225 255
202 225 255
202 225 255
202 225 255
202 225 255
202 225 255
202 225 255
202 225 255
202 225 255
202 225 255
202 225 255
202 225 255
203 225 255
203 225 255
203 225 255
203 225 255
203 225 255
203 225 255
203 225 255
203 225 255
203 225 255
203 226 255
203 226 255
203 226 255
203 226 255
203 226 255
203 226 255
203 226 255
204 226 255
204 226 255
204 226 255
204 226 255
204 226 255
204 226 255
204 226 255
204 226 255
204 226 255
204 226 255
204 226 255
204 226 255
204 226 255
204 226 255
204 226 255
205 226 255
205 226 255
205 226 255
205 226 255
205 226 255
205 226 255
205 227 255
205 227 255
205 227 255
205 227 255
205 227 255
205 227 255
205 227 255
205 227 255
205 227 255
206 227 255
206 227 255
206 227 255
206 227 255
206 227 255
206 227 255
206 227 255
206 227 255
206 227 255
206 227 255
206 227 255
206 227 255
206 227 255
206 227 255
206 227 255
206 227 255
206 227 255
207 227 255
207 227 255
207 227 255
207 227 255
207 228 255
207 228 255
207 228 255
207 228 255
207 228 255
207 228 255
207 228 255
207 228 255
207 228 255
207 228 255
207 228 255
207 228 255
207 228 255
207 228 255
208 228 255
208 228 255
208 228 255
208 228 255
208 228 255
208 228 255
208 228 255
208 228 255
208 228 255
208 228 255
208 228 255
208 228 255
208 228 255
208 228 255
208 228 255
208 228 255
208 228 255
208 228 255
208 228 255
209 228 255
209 228 255
209 229 255
209 229 255
209 229 255
209 229 255
209 229 255
209 229 255
209 229 255
209 229 255
209 229 255
209 229 255
209 229 255
209 229 255
209 229 255
209 229 255
209 229 255
209 229 255
209 229 255
209 229 255
209 229 255
209 229 255
210 229 255
210 229 255
210 229 255
210 229 255
210 229 255
209 229 255
209 229 255
209 229 255
209 229 255
209 229 255
209 229 255
209 229 255
209 229 255
209 229 255
209 229 255
209 229 255
209 229 255
209 229 255
209 229 255
209 229 255
209 229 255
209 229 255
209 229 255
209 229 255
209 229 255
209 228 255
208 228 255
208 228 255
208 228 255
208 228 255
208 228 255
208 228 255
208 228 255
208 228 255
208 228 255
208 228 255
208 228 255
208 228 255
208 228 255
208 228 255
208 228 255
208 228 255
208 228 255
208 228 255
208 228 255
207 228 255
207 228 255
207 228 255
207 228 255
207 228 255
207 228 255
207 228 255
207 228 255
207 228 255
207 228 255
207 228 255
207 228 255
207 228 255
207 228 255
207 227 255
207 227 255
207 227 255
207 227 255
206 227 255
206 227 255
206 227 255
206 227 255
206 227 255
206 227 255
206 227 255
206 227 255
206 227 255
206 227 255
206 227 255
206 227 255
206 227 255
206 227 255
206 227 255
206 227 255
206 227 255
205 227 255
205 227 255
205 227 255
205 227 255
205 227 255
205 227 255
205 227 255
205 227 255
205 227 255
205 226 255
205 226 255
205 226 255
205 226 255
205 226 255
205 226 255
204 226 255
204 226 255
204 226 255
204 226 255
204 226 255
204 226 255
204 226 255
204 226 255
204 226 255
204 226 255
204 226 255
204 226 255
204 226 255
204 226 255
204 226 255
203 226 255
203 226 255
203 226 255
203 226 255
203 226 255
203 226 255
203 226 255
203 225 255
203 225 255
203 225 255
203 225 255
203 225 255
203 225 255
203 225 255
203 225 255
203 225 255
202 225 255
202 225 255
202 225 255
202 225 255
202 225 255
202 225 255
202 225 255
202 225 255
202 225 255
202 225 255
202 225 255
202 225 255
202 225 255
202 225 255
202 225 255
202 225 255
202 225 255
201 225 255
201 225 255
201 225 255
201 225 255
201 225 255
201 225 255
201 224 255
201 224 255
201 224 255
201 224 255
201 224 255
201 224 255
201 224 255
201 224 255
201 224 255
201 224 255
201 224 255
201 224 255
201 224 255
201 224 255
201 224 255
201 224 255
201 224 255
200 224 255
200 224 255
200 224 255
200 224 255
200 224 255
200 224 255
200 224 255
200 224 255
200 224 255
200 224 255
200 224 255
200 224 255
200 224 255
200 224 255
200 224 255
200 224 255
200 224 255
200 224 255
200 224 255
200 224 255
200 224 255
200 224 255
200 224 255
200 224 255
200 224 255
200 224 255
200 224 255
200 224 255
200 224 255
200 224 255
200 224 255
200 224 255
200 224 255
200 224 255
200 224 255
200 224 255
200 224 255
200 224 255
200 224 255
200 224 255
200 224 255
200 224 255
200 224 255
200 224 255
200 224 255
200 224 255
200 224 255
200 224 255
200 224 255
200 224 255
200 224 255
200 224 255
200 224 255
201 224 255
201 224 255
201 224 255
201 224 255
201 224 255
201 224 255
201 224 255
201 224 255
201 224 255
201 224 255
201 224 255
201 224 255
201 224 255
201 224 255
201 224 255
201 224 255
201 224 255
201 225 255
201 225 255
201 225 255
201 225 255
201 225 255
201 225 255
202 225 255
202 225 255
202 225 255
202 225 255
202 225 255
202 225 255
202 225 255
202 225 255
202 225 255
202 225 255
202 225 255
202 225 255
202 225 255
202 225 255
202 225 255
202 225 255
202 225 255
203 225 255
203 225 255
203 225 255
203 225 255
203 225 255
203 225 255
203 225 255
203 225 255
203 225 255
203 226 255
203 226 255
203 226 255
203 226 255
203 226 255
203 226 255
203 226 255
204 226 255
204 226 255
204 226 255
204 226 255
204 226 255
204 226 255
204 226 255
204 226 255
204 226 255
204 226 255
204 226 255
204 226 255
204 226 255
204 226 255
204 226 255
205 226 255
205 226 255
205 226 255
205 226 255
205 226 255
205 226 255
205 227 255
205 227 255
205 227 255
205 227 255
205 227 255
205 227 255
205 227 255
205 227 255
205 227 255
206 227 255
206 227 255
206 227 255
206 227 255
206 227 255
206 227 255
206 227 255
206 227 255
206 227 255
206 227 255
206 227 255
206 227 255
206 227 255
206 227 255
206 227 255
206 227 255
206 227 255
207 227 255
207 227 255
207 227 255
207 227 255
207 228 255
207 228 255
207 228 255
207 228 255
207 228 255
207 228 255
207 228 255
207 228 255
207 228 255
207 228 255
207 228 255
207 228 255
207 228 255
208 228 255
208 228 255
208 228 255
208 228 255
208 228 255
208 228 255
208 228 255
208 228 255
208 228 255
208 228 255
208 228 255
208 228 255
208 228 255
208 228 255
208 228 255
208 228 255
208 228 255
208 228 255
208 228 255
209 228 255
209 228 255
209 229 255
209 229 255
209 229 255
209 229 255
209 229 255
209 229 255
209 229 255
209 229 255
209 229 255
209 229 255
209 229 255
209 229 255
209 229 255
209 229 255
209 229 255
209 229 255
209 229 255
209 229 255
209 229 255
209 229 255
210 229 255
210 229 255
210 229 255
210 229 255
210 229 255
210 229 255
210 229 255
210 229 255
210 229 255
210 229 255
210 229 255
210 229 255
209 229 255
209 229 255
209 229 255
209 229 255
209 229 255
209 229 255
209 229 255
209 229 255
209 229 255
209 229 255
209 229 255
209 229 255
209 229 255
209 229 255
209 229 255
209 229 255
209 229 255
209 229 255
209 229 255
209 229 255
209 228 255
209 228 255
208 228 255
208 228 255
208 228 255
208 228 255
208 228 255
208 228 255
208 228 255
208 228 255
208 228 255
208 228 255
208 228 255
208 228 255
208 228 255
208 228 255
208 228 255
208 228 255
208 228 255
208 228 255
208 228 255
207 228 255
207 228 255
207 228 255
207 228 255
207 228 255
207 228 255
207 228 255
207 228 255
207 228 255
207 228 255
207 228 255
207 228 255
207 228 255
207 227 255
207 227 255
207 227 255
207 227 255
206 227 255
206 227 255
206 227 255
206 227 255
206 227 255
206 227 255
206 227 255
206 227 255
206 227 255
206 227 255
206 227 255
206 227 255
206 227 255
206 227 255
206 227 255
206 227 255
206 227 255
205 227 255
205 227 255
205 227 255
205 227 255
205 227 255
205 227 255
205 227 255
205 227 255
205 227 255
205 226 255
205 226 255
205 226 255
205 226 255
205 226 255
205 226 255
204 226 255
204 226 255
204 226 255
204 226 255
204 226 255
204 226 255
204 226 255
204 226 255
204 226 255
204 226 255
204 226 255
204 226 255
204 226 255
204 226 255
204 226 255
204 226 255
203 226 255
203 226 255
203 226 255
203 226 255
203 226 255
203 226 255
203 226 255
203 225 255
203 225 255
203 225 255
203 225 255
203 225 255
203 225 255
203 225 255
203 225 255
203 225 255
202 225 255
202 225 255
202 225 255
202 225 255
202 225 255
202 225 255
202 225 255
202 225 255
202 225 255
202 225 255
202 225 255
202 225 255
202 225 255
202 225 255
202 225 255
202 225 255
202 225 255
201 225 255
201 225 255
201 225 255
201 225 255
201 225 255
201 225 255
201 225 255
201 224 255
201 224 255
201 224 255
201 224 255
201 224 255
201 224 255
201 224 255
201 224 255
201 224 255
201 224 255
201 224 255
201 224 255
201 224 255
201 224 255
201 224 255
201 224 255
201 224 255
201 224 255
201 224 255
200 224 255
200 224 255
200 224 255
200 224 255
200 224 255
200 224 255
200 224 255
200 224 255
200 224 255
200 224 255
200 224 255
200 224 255
200 224 255
200 224 255
200 224 255
200 224 255
200 224 255
200 224 255
200 224 255
200 224 255
200 224 255
200 224 255
200 224 255
200 224 255
200 224 255
200 224 255
200 224 255
200 224 255
200 224 255
200 224 255
200 224 255
200 224 255
200 224 255
200 224 255
200 224 255
200 224 255
200 224 255
200 224 255
200 224 255
201 224 255
201 224 255
201 224 255
201 224 255
201 224 255
201 224 255
201 224 255
201 224 255
201 224 255
201 224 255
201 224 255
201 224 255
201 224 255
201 224 255
201 224 255
201 224 255
201 224 255
201 224 255
201 224 255
201 225 255
201 225 255
201 225 255
201 225 255
201 225 255
201 225 255
202 225 255
202 225 255
202 225 255
202 225 255
202 225 255
202 225 255
202 225 255
202 225 255
202 225 255
202 225 255
202 225 255
202 225 255
202 225 255
202 225 255
202 225 255
202 225 255
202 225 255
202 225 255
203 225 255
203 225 255
203 225 255
203 225 255
203 225 255
203 225 255
203 225 255
203 225 255
203 225 255
203 226 255
203 226 255
203 226 255
203 226 255
203 226 255
203 226 255
203 226 255
204 226 255
204 226 255
204 226 255
204 226 255
204 226 255
204 226 255
204 226 255
204 226 255
204 226 255
204 226 255
204 226 255
204 226 255
204 226 255
204 226 255
204 226 255
204 226 255
205 226 255
205 226 255
205 226 255
205 226 255
205 226 255
205 226 255
205 227 255
205 227 255
205 227 255
205 227 255
205 227 255
205 227 255
205 227 255
205 227 255
205 227 255
206 227 255
206 227 255
206 227 255
206 227 255
206 227 255
206 227 255
206 227 255
206 227 255
206 227 255
206 227 255
206 227 255
206 227 255
206 227 255
206 227 255
206 227 255
206 227 255
206 227 255
207 227 255
207 227 255
207 227 255
207 227 255
207 228 255
207 228 255
207 228 255
207 228 255
207 228 255
207 228 255
207 228 255
207 228 255
207 228 255
207 228 255
207 228 255
207 228 255
207 228 255
208 228 255
208 228 255
208 228 255
208 228 255
208 228 255
208 228 255
208 228 255
208 228 255
208 228 255
208 228 255
208 228 255
208 228 255
208 228 255
208 228 255
208 228 255
208 228 255
208 228 255
208 228 255
208 228 255
209 228 255
209 228 255
209 229 255
209 229 255
209 229 255
209 229 255
209 229 255
209 229 255
209 229 255
209 229 255
209 229 255
209 229 255
209 229 255
209 229 255
209 229 255
209 229 255
209 229 255
209 229 255
209 229 255
209 229 255
209 229 255
210 229 255
210 229 255
210 229 255
210 229 255
210 229 255
210 229 255
210 229 255
210 229 255
210 229 255
210 229 255
210 229 255
210 229 255
210 229 255
210 229 255
210 229 255
210 229 255
210 229 255
210 229 255
210 229 255
210 229 255
209 229 255
209 229 255
209 229 255
209 229 255
209 229 255
209 229 255
209 229 255
209 229 255
209 229 255
209 229 255
209 229 255
209 229 255
209 229 255
209 229 255
209 229 255
209 229 255
209 229 255
209 229 255
209 229 255
209 229 255
209 228 255
208 228 255
208 228 255
208 228 255
208 228 255
208 228 255
208 228 255
208 228 255
208 228 255
208 228 255
208 228 255
208 228 255
208 228 255
208 228 255
208 228 255
208 228 255
208 228 255
208 228 255
208 228 255
208 228 255
207 228 255
207 228 255
207 228 255
207 228 255
207 228 255
207 228 255
207 228 255
207 228 255
207 228 255
207 228 255
207 228 255
207 228 255
207 228 255
207 227 255
207 227 255
207 227 255
207 227 255
206 227 255
206 227 255
206 227 255
206 227 255
206 227 255
206 227 255
206 227 255
206 227 255
206 227 255
206 227 255
206 227 255
206 227 255
206 227 255
206 227 255
206 227 255
206 227 255
206 227 255
205 227 255
205 227 255
205 227 255
205 227 255
205 227 255
205 227 255
205 227 255
205 227 255
205 227 255
205 226 255
205 226 255
205 226 255
205 226 255
205 226 255
205 226 255
204 226 255
204 226 255
204 226 255
204 226 255
204 226 255
204 226 255
204 226 255
204 226 255
204 226 255
204 226 255
204 226 255
204 226 255
204 226 255
204 226 255
204 226 255
204 226 255
203 226 255
203 226 255
203 226 255
203 226 255
203 226 255
203 226 255
203 226 255
203 225 255
203 225 255
203 225 255
203 225 255
203 225 255
203 225 255
203 225 255
203 225 255
203 225 255
202 225 255
202 225 255
202 225 255
202 225 255
202 225 255
202 225 255
202 225 255
202 225 255
202 225 255
202 225 255
202 225 255
202 225 255
202 225 255
202 225 255
202 225 255
202 225 255
202 225 255
202 225 255
202 225 255
201 225 255
201 225 255
201 225 255
201 225 255
201 225 255
201 225 255
201 225 255
201 224 255
201 224 255
201 224 255
201 224 255
201 224 255
201 224 255
201 224 255
201 224 255
201 224 255
201 224 255
201 224 255
201 224 255
201 224 255
201 224 255
201 224 255
201 224 255
201 224 255
201 224 255
201 224 255
201 224 255
201 224 255
201 224 255
201 224 255
201 224 255
201 224 255
201 224 255
201 224 255
201 224 255
200 224 255
200 224 255
200 224 255
200 224 255
200 224 255
200 224 255
200 224 255
201 224 255
200 224 255
201 224 255
200 224 255
200 224 255
201 224 255
201 224 255
201 224 255
201 224 255
201 224 255
201 224 255
201 224 255
201 224 255
201 224 255
201 224 255
201 224 255
201 224 255
201 224 255
201 224 255
201 224 255
201 224 255
201 224 255
201 224 255
201 224 255
201 224 255
201 224 255
201 224 255
201 224 255
201 224 255
201 224 255
201 224 255
201 224 255
201 225 255
201 225 255
201 225 255
201 225 255
201 225 255
201 225 255
201 225 255
202 225 255
202 225 255
202 225 255
202 225 255
202 225 255
202 225 255
202 225 255
202 225 255
202 225 255
202 225 255
202 225 255
202 225 255
202 225 255
202 225 255
202 225 255
202 225 255
202 225 255
202 225 255
202 225 255
203 225 255
203 225 255
203 225 255
203 225 255
203 225 255
203 225 255
203 225 255
203 225 255
203 225 255
203 226 255
203 226 255
203 226 255
203 226 255
203 226 255
203 226 255
203 226 255
204 226 255
204 226 255
204 226 255
204 226 255
204 226 255
204 226 255
204 226 255
204 226 255
204 226 255
204 226 255
204 226 255
204 226 255
204 226 255
204 226 255
204 226 255
204 226 255
205 226 255
205 226 255
205 226 255
205 226 255
205 226 255
205 226 255
205 227 255
205 227 255
205 227 255
205 227 255
205 227 255
205 227 255
205 227 255
205 227 255
205 227 255
206 227 255
206 227 255
206 227 255
206 227 255
206 227 255
206 227 255
206 227 255
206 227 255
206 227 255
206 227 255
206 227 255
206 227 255
206 227 255
206 227 255
206 227 255
206 227 255
206 227 255
207 227 255
207 227 255
207 227 255
207 228 255
207 228 255
207 228 255
207 228 255
207 228 255
207 228 255
207 228 255
207 228 255
207 228 255
207 228 255
207 228 255
207 228 255
207 228 255
207 228 255
208 228 255
208 228 255
208 228 255
208 228 255
208 228 255
208 228 255
208 228 255
208 228 255
208 228 255
208 228 255
208 228 255
208 228 255
208 228 255
208 228 255
208 228 255
208 228 255
208 228 255
208 228 255
208 228 255
209 228 255
209 229 255
209 229 255
209 229 255
209 229 255
209 229 255
209 229 255
209 229 255
209 229 255
209 229 255
209 229 255
209 229 255
209 229 255
209 229 255
209 229 255
209 229 255
209 229 255
209 229 255
209 229 255
209 229 255
209 229 255
210 229 255
210 229 255
210 229 255
210 229 255
210 229 255
210 229 255
210 229 255
210 229 255
210 229 255
210 229 255
210 229 255
210 229 255
210 229 255
210 229 255
210 229 255
210 229 255
210 229 255
210 229 255
210 229 255
210 229 255
210 229 255
210 229 255
210 229 255
210 229 255
210 229 255
210 229 255
210 229 255
209 229 255
209 229 255
209 229 255
209 229 255
209 229 255
209 229 255
209 229 255
209 229 255
209 229 255
209 229 255
209 229 255
209 229 255
209 229 255
209 229 255
209 229 255
209 229 255
209 229 255
209 229 255
209 229 255
209 228 255
209 228 255
208 228 255
208 228 255
208 228 255
208 228 255
208 228 255
208 228 255
208 228 255
208 228 255
208 228 255
208 228 255
208 228 255
208 228 255
208 228 255
208 228 255
208 228 255
208 228 255
208 228 255
208 228 255
207 228 255
207 228 255
207 228 255
207 228 255
207 228 255
207 228 255
207 228 255
207 228 255
207 228 255
207 228 255
207 228 255
207 228 255
207 228 255
207 228 255
207 227 255
207 227 255
207 227 255
207 227 255
206 227 255
206 227 255
206 227 255
206 227 255
206 227 255
206 227 255
206 227 255
206 227 255
206 227 255
206 227 255
206 227 255
206 227 255
206 227 255
206 227 255
206 227 255
206 227 255
205 227 255
205 227 255
205 227 255
205 227 255
205 227 255
205 227 255
205 227 255
205 227 255
205 227 255
205 226 255
205 226 255
205 226 255
205 226 255
205 226 255
205 226 255
205 226 255
204 226 255
204 226 255
204 226 255
204 226 255
204 226 255
204 226 255
204 226 255
204 226 255
204 226 255
204 226 255
204 226 255
204 226 255
204 226 255
204 226 255
204 226 255
203 226 255
203 226 255
203 226 255
203 226 255
203 226 255
203 226 255
203 226 255
203 226 255
203 225 255
203 225 255
203 225 255
203 225 255
203 225 255
203 225 255
203 225 255
203 225 255
203 225 255
202 225 255
202 225 255
202 225 255
202 225 255
202 225 255
202 225 255
202 225 255
202 225 255
202 225 255
202 225 255
202 225 255
202 225 255
202 225 255
202 225 255
202 225 255
202 225 255
202 225 255
202 225 255
202 225 255
202 225 255
201 225 255
201 225 255
201 225 255
201 225 255
201 225 255
201 225 255
201 225 255
201 225 255
201 224 255
201 224 255
201 224 255
201 224 255
201 224 255
201 224 255
201 224 255
201 224 255
201 224 255
201 224 255
201 224 255
201 224 255
201 224 255
201 224 255
201 224 255
201 224 255
201 224 255
201 224 255
201 224 255
201 224 255
201 224 255
201 224 255
201 224 255
201 224 255
201 224 255
201 224 255
201 224 255
201 224 255
201 224 255
201 224 255
201 224 255
201 224 255
201 224 255
201 224 255
201 224 255
201 224 255
201 224 255
201 224 255
201 224 255
201 224 255
201 224 255
201 224 255
201 224 255
201 224 255
201 224 255
201 224 255
201 224 255
201 224 255
201 224 255
201 224 255
201 224 255
201 224 255
201 224 255
201 224 255
201 224 255
201 224 255
201 225 255
201 225 255
201 225 255
201 225 255
201 225 255
201 225 255
201 225 255
202 225 255
202 225 255
202 225 255
202 225 255
202 225 255
202 225 255
202 225 255
202 225 255
202 225 255
202 225 255
202 225 255
202 225 255
202 225 255
202 225 255
202 225 255
202 225 255
202 225 255
202 225 255
202 225 255
202 225 255
203 225 255
203 225 255
203 225 255
203 225 255
203 225 255
203 225 255
203 225 255
203 225 255
203 225 255
203 226 255
203 226 255
203 226 255
203 226 255
203 226 255
203 226 255
203 226 255
203 226 255
204 226 255
204 226 255
204 226 255
204 226 255
204 226 255
204 226 255
204 226 255
204 226 255
204 226 255
204 226 255
204 226 255
204 226 255
204 226 255
204 226 255
204 226 255
205 226 255
205 226 255
205 226 255
205 226 255
205 226 255
205 226 255
205 226 255
205 227 255
205 227 255
205 227 255
205 227 255
205 227 255
205 227 255
205 227 255
205 227 255
205 227 255
206 227 255
206 227 255
206 227 255
206 227 255
206 227 255
206 227 255
206 227 255
206 227 255
206 227 255
206 227 255
206 227 255
206 227 255
206 227 255
206 227 255
206 227 255
206 227 255
207 227 255
207 227 255
207 227 255
207 227 255
207 228 255
207 228 255
207 228 255
207 228 255
207 228 255
207 228 255
207 228 255
207 228 255
207 228 255
207 228 255
207 228 255
207 228 255
207 228 255
207 228 255
208 228 255
208 228 255
208 228 255
208 228 255
208 228 255
208 228 255
208 228 255
208 228 255
208 228 255
208 228 255
208 228 255
208 228 255
208 228 255
208 228 255
208 228 255
208 228 255
208 228 255
208 228 255
209 228 255
209 228 255
209 229 255
209 229 255
209 229 255
209 229 255
209 229 255
209 229 255
209 229 255
209 229 255
209 229 255
209 229 255
209 229 255
209 229 255
209 229 255
209 229 255
209 229 255
209 229 255
209 229 255
209 229 255
209 229 255
210 229 255
210 229 255
210 229 255
210 229 255
210 229 255
210 229 255
210 229 255
210 229 255
210 229 255
210 229 255
210 229 255
210 229 255
210 229 255
210 229 255
210 229 255
210 229 255
210 229 255
210 229 255
210 229 255
210 229 255
210 229 255
210 229 255
210 229 255
210 229 255
210 229 255
210 229 255
210 229 255
210 229 255
210 229 255
210 229 255
210 229 255
210 229 255
210 229 255
210 229 255
209 229 255
209 229 255
209 229 255
209 229 255
209 229 255
209 229 255
209 229 255
209 229 255
209 229 255
209 229 255
209 229 255
209 229 255
209 229 255
209 229 255
209 229 255
209 229 255
209 229 255
209 229 255
209 229 255
209 229 255
209 228 255
208 228 255
208 228 255
208 228 255
208 228 255
208 228 255
208 228 255
208 228 255
208 228 255
208 228 255
208 228 255
208 228 255
208 228 255
208 228 255
208 228 255
208 228 255
208 228 255
208 228 255
208 228 255
208 228 255
207 228 255
207 228 255
207 228 255
207 228 255
207 228 255
207 228 255
207 228 255
207 228 255
207 228 255
207 228 255
207 228 255
207 228 255
207 228 255
207 227 255
207 227 255
207 227 255
207 227 255
206 227 255
206 227 255
206 227 255
206 227 255
206 227 255
206 227 255
206 227 255
206 227 255
206 227 255
206 227 255
206 227 255
206 227 255
206 227 255
206 227 255
206 227 255
206 227 255
205 227 255
205 227 255
205 227 255
205 227 255
205 227 255
205 227 255
205 227 255
205 227 255
205 227 255
205 227 255
205 226 255
205 226 255
205 226 255
205 226 255
205 226 255
205 226 255
204 226 255
204 226 255
204 226 255
204 226 255
204 226 255
204 226 255
204 226 255
204 226 255
204 226 255
204 226 255
204 226 255
204 226 255
204 226 255
204 226 255
204 226 255
204 226 255
203 226 255
203 226 255
203 226 255
203 226 255
203 226 255
203 226 255
203 226 255
203 225 255
203 225 255
203 225 255
203 225 255
203 225 255
203 225 255
203 225 255
203 225 255
203 225 255
203 225 255
202 225 255
202 225 255
202 225 255
202 225 255
202 225 255
202 225 255
202 225 255
202 225 255
202 225 255
202 225 255
202 225 255
202 225 255
202 225 255
202 225 255
202 225 255
202 225 255
202 225 255
202 225 255
202 225 255
202 225 255
202 225 255
202 225 255
201 225 255
201 225 255
201 225 255
201 225 255
201 225 255
201 225 255
201 225 255
201 225 255
201 225 255
201 225 255
201 224 255
201 224 255
201 224 255
201 224 255
201 224 255
201 224 255
201 224 255
201 224 255
201 224 255
201 224 255
201 224 255
201 224 255
201 224 255
201 224 255
201 224 255
201 224 255
201 224 255
201 224 255
201 224 255
201 224 255
201 224 255
201 224 255
201 224 255
201 224 255
201 224 255
201 224 255
201 224 255
201 224 255
201 224 255
201 224 255
201 224 255
201 224 255
201 224 255
201 224 255
201 224 255
201 224 255
201 224 255
201 224 255
201 224 255
201 224 255
201 225 255
201 225 255
201 225 255
201 225 255
201 225 255
201 225 255
201 225 255
201 225 255
201 225 255
202 225 255
202 225 255
202 225 255
202 225 255
202 225 255
202 225 255
202 225 255
202 225 255
202 225 255
202 225 255
202 225 255
202 225 255
202 225 255
202 225 255
202 225 255
202 225 255
202 225 255
202 225 255
202 225 255
202 225 255
202 225 255
202 225 255
203 225 255
203 225 255
203 225 255
203 225 255
203 225 255
203 225 255
203 225 255
203 225 255
203 225 255
203 225 255
203 226 255
203 226 255
203 226 255
203 226 255
203 226 255
203 226 255
203 226 255
204 226 255
204 226 255
204 226 255
204 226 255
204 226 255
204 226 255
204 226 255
204 226 255
204 226 255
204 226 255
204 226 255
204 226 255
204 226 255
204 226 255
204 226 255
204 226 255
205 226 255
205 226 255
205 226 255
205 226 255
205 226 255
205 226 255
205 227 255
205 227 255
205 227 255
205 227 255
205 227 255
205 227 255
205 227 255
205 227 255
205 227 255
205 227 255
206 227 255
206 227 255
206 227 255
206 227 255
206 227 255
206 227 255
206 227 255
206 227 255
206 227 255
206 227 255
206 227 255
206 227 255
206 227 255
206 227 255
206 227 255
206 227 255
207 227 255
207 227 255
207 227 255
207 227 255
207 228 255
207 228 255
207 228 255
207 228 255
207 228 255
207 228 255
207 228 255
207 228 255
207 228 255
207 228 255
207 228 255
207 228 255
207 228 255
208 228 255
208 228 255
208 228 255
208 228 255
208 228 255
208 228 255
208 228 255
208 228 255
208 228 255
208 228 255
208 228 255
208 228 255
208 228 255
208 228 255
208 228 255
208 228 255
208 228 255
208 228 255
208 228 255
209 228 255
209 229 255
209 229 255
209 229 255
209 229 255
209 229 255
209 229 255
209 229 255
209 229 255
209 229 255
209 229 255
209 229 255
209 229 255
209 229 255
209 229 255
209 229 255
209 229 255
209 229 255
209 229 255
209 229 255
209 229 255
210 229 255
210 229 255
210 229 255
210 229 255
210 229 255
210 229 255
210 229 255
210 229 255
210 229 255
210 229 255
210 229 255
210 229 255
210 229 255
210 229 255
210 229 255
210 229 255
210 229 255
210 229 255
210 229 255
210 230 255
210 229 255
210 229 255
210 229 255
210 229 255
210 229 255
210 229 255
210 229 255
210 229 255
210 229 255
210 229 255
210 229 255
210 229 255
210 229 255
210 229 255
210 229 255
210 229 255
210 229 255
210 229 255
210 229 255
210 229 255
210 229 255
209 229 255
209 229 255
209 229 255
209 229 255
209 229 255
209 229 255
209 229 255
209 229 255
209 229 255
209 229 255
209 229 255
209 229 255
209 229 255
209 229 255
209 229 255
209 229 255
209 229 255
209 229 255
209 229 255
209 228 255
208 228 255
208 228 255
208 228 255
208 228 255
208 228 255
208 228 255
208 228 255
208 228 255
208 228 255
208 228 255
208 228 255
208 228 255
208 228 255
208 228 255
208 228 255
208 228 255
208 228 255
208 228 255
208 228 255
207 228 255
207 228 255
207 228 255
207 228 255
207 228 255
207 228 255
207 228 255
207 228 255
207 228 255
207 228 255
207 228 255
207 228 255
207 228 255
207 227 255
207 227 255
207 227 255
207 227 255
206 227 255
206 227 255
206 227 255
206 227 255
206 227 255
206 227 255
206 227 255
206 227 255
206 227 255
206 227 255
206 227 255
206 227 255
206 227 255
206 227 255
206 227 255
206 227 255
206 227 255
205 227 255
205 227 255
205 227 255
205 227 255
205 227 255
205 227 255
205 227 255
205 227 255
205 227 255
205 226 255
205 226 255
205 226 255
205 226 255
205 226 255
205 226 255
204 226 255
204 226 255
204 226 255
204 226 255
204 226 255
204 226 255
204 226 255
204 226 255
204 226 255
204 226 255
204 226 255
204 226 255
204 226 255
204 226 255
204 226 255
204 226 255
204 226 255
203 226 255
203 226 255
203 226 255
203 226 255
203 226 255
203 226 255
203 226 255
203 225 255
203 225 255
203 225 255
203 225 255
203 225 255
203 225 255
203 225 255
203 225 255
203 225 255
203 225 255
202 225 255
202 225 255
202 225 255
202 225 255
202 225 255
202 225 255
202 225 255
202 225 255
202 225 255
202 225 255
202 225 255
202 225 255
202 225 255
202 225 255
202 225 255
202 225 255
202 225 255
202 225 255
202 225 255
202 225 255
202 225 255
202 225 255
202 225 255
202 225 255
202 225 255
201 225 255
201 225 255
201 225 255
201 225 255
201 225 255
201 225 255
201 225 255
201 225 255
201 225 255
201 225 255
201 225 255
201 225 255
201 225 255
201 225 255
201 225 255
201 225 255
201 225 255
201 224 255
201 224 255
201 224 255
201 224 255
201 224 255
201 224 255
201 224 255
201 224 255
201 224 255
201 224 255
201 224 255
201 225 255
201 225 255
201 225 255
201 225 255
201 225 255
201 225 255
201 225 255
201 225 255
201 225 255
201 225 255
201 225 255
201 225 255
201 225 255
201 225 255
201 225 255
201 225 255
202 225 255
202 225 255
202 225 255
202 225 255
202 225 255
202 225 255
202 225 255
202 225 255
202 225 255
202 225 255
202 225 255
202 225 255
202 225 255
202 225 255
202 225 255
202 225 255
202 225 255
202 225 255
202 225 255
202 225 255
202 225 255
202 225 255
202 225 255
202 225 255
202 225 255
203 225 255
203 225 255
203 225 255
203 225 255
203 225 255
203 225 255
203 225 255
203 225 255
203 225 255
203 225 255
203 225 255
203 226 255
203 226 255
203 226 255
203 226 255
203 226 255
203 226 255
203 226 255
204 226 255
204 226 255
204 226 255
204 226 255
204 226 255
204 226 255
204 226 255
204 226 255
204 226 255
204 226 255
204 226 255
204 226 255
204 226 255
204 226 255
204 226 255
204 226 255
204 226 255
205 226 255
205 226 255
205 226 255
205 226 255
205 226 255
205 226 255
205 227 255
205 227 255
205 227 255
205 227 255
205 227 255
205 227 255
205 227 255
205 227 255
205 227 255
206 227 255
206 227 255
206 227 255
206 227 255
206 227 255
206 227 255
206 227 255
206 227 255
206 227 255
206 227 255
206 227 255
206 227 255
206 227 255
206 227 255
206 227 255
206 227 255
206 227 255
207 227 255
207 227 255
207 227 255
207 227 255
207 228 255
207 228 255
207 228 255
207 228 255
207 228 255
207 228 255
207 228 255
207 228 255
207 228 255
207 228 255
207 228 255
207 228 255
207 228 255
208 228 255
208 228 255
208 228 255
208 228 255
208 228 255
208 228 255
208 228 255
208 228 255
208 228 255
208 228 255
208 228 255
208 228 255
208 228 255
208 228 255
208 228 255
208 228 255
208 228 255
208 228 255
208 228 255
209 228 255
209 229 255
209 229 255
209 229 255
209 229 255
209 229 255
209 229 255
209 229 255
209 229 255
209 229 255
209 229 255
209 229 255
209 229 255
209 229 255
209 229 255
209 229 255
209 229 255
209 229 255
209 229 255
209 229 255
210 229 255
210 229 255
210 229 255
210 229 255
210 229 255
210 229 255
210 229 255
210 229 255
210 229 255
210 229 255
210 229 255
210 229 255
210 229 255
210 229 255
210 229 255
210 229 255
210 229 255
210 229 255
210 229 255
210 229 255
210 229 255
210 230 255
210 230 255
211 230 255
211 230 255
210 230 255
210 230 255
210 230 255
210 229 255
210 229 255
210 229 255
210 229 255
210 229 255
210 229 255
210 229 255
210 229 255
210 229 255
210 229 255
210 229 255
210 229 255
210 229 255
210 229 255
210 229 255
210 229 255
210 229 255
210 229 255
210 229 255
210 229 255
210 229 255
209 229 255
209 229 255
209 229 255
209 229 255
209 229 255
209 229 255
209 229 255
209 229 255
209 229 255
209 229 255
209 229 255
209 229 255
209 229 255
209 229 255
209 229 255
209 229 255
209 229 255
209 229 255
209 228 255
209 228 255
208 228 255
208 228 255
208 228 255
208 228 255
208 228 255
208 228 255
208 228 255
208 228 255
208 228 255
208 228 255
208 228 255
208 228 255
208 228 255
208 228 255
208 228 255
208 228 255
208 228 255
208 228 255
207 228 255
207 228 255
207 228 255
207 228 255
207 228 255
207 228 255
207 228 255
207 228 255
207 228 255
207 228 255
207 228 255
207 228 255
207 228 255
207 227 255
207 227 255
207 227 255
207 227 255
207 227 255
206 227 255
206 227 255
206 227 255
206 227 255
206 227 255
206 227 255
206 227 255
206 227 255
206 227 255
206 227 255
206 227 255
206 227 255
206 227 255
206 227 255
206 227 255
206 227 255
205 227 255
205 227 255
205 227 255
205 227 255
205 227 255
205 227 255
205 227 255
205 227 255
205 227 255
205 226 255
205 226 255
205 226 255
205 226 255
205 226 255
205 226 255
205 226 255
204 226 255
204 226 255
204 226 255
204 226 255
204 226 255
204 226 255
204 226 255
204 226 255
204 226 255
204 226 255
204 226 255
204 226 255
204 226 255
204 226 255
204 226 255
204 226 255
203 226 255
203 226 255
203 226 255
203 226 255
203 226 255
203 226 255
203 226 255
203 226 255
203 225 255
203 225 255
203 225 255
203 225 255
203 225 255
203 225 255
203 225 255
203 225 255
203 225 255
203 225 255
203 225 255
202 225 255
202 225 255
202 225 255
202 225 255
202 225 255
202 225 255
202 225 255
202 225 255
202 225 255
202 225 255
202 225 255
202 225 255
202 225 255
202 225 255
202 225 255
202 225 255
202 225 255
202 225 255
202 225 255
202 225 255
202 225 255
202 225 255
202 225 255
202 225 255
202 225 255
202 225 255
202 225 255
202 225 255
202 225 255
202 225 255
202 225 255
201 225 255
201 225 255
201 225 255
201 225 255
201 225 255
201 225 255
201 225 255
201 225 255
201 225 255
201 225 255
201 225 255
201 225 255
201 225 255
201 225 255
201 225 255
201 225 255
201 225 255
201 225 255
201 225 255
201 225 255
201 225 255
201 225 255
201 225 255
202 225 255
202 225 255
202 225 255
202 225 255
202 225 255
202 225 255
202 225 255
202 225 255
202 225 255
202 225 255
202 225 255
202 225 255
202 225 255
202 225 255
202 225 255
202 225 255
202 225 255
202 225 255
202 225 255
202 225 255
202 225 255
202 225 255
202 225 255
202 225 255
202 225 255
202 225 255
202 225 255
202 225 255
202 225 255
202 225 255
202 225 255
203 225 255
203 225 255
203 225 255
203 225 255
203 225 255
203 225 255
203 225 255
203 225 255
203 225 255
203 225 255
203 225 255
203 226 255
203 226 255
203 226 255
203 226 255
203 226 255
203 226 255
203 226 255
203 226 255
204 226 255
204 226 255
204 226 255
204 226 255
204 226 255
204 226 255
204 226 255
204 226 255
204 226 255
204 226 255
204 226 255
204 226 255
204 226 255
204 226 255
204 226 255
204 226 255
205 226 255
205 226 255
205 226 255
205 226 255
205 226 255
205 226 255
205 227 255
205 227 255
205 227 255
205 227 255
205 227 255
205 227 255
205 227 255
205 227 255
205 227 255
205 227 255
206 227 255
206 227 255
206 227 255
206 227 255
206 227 255
206 227 255
206 227 255
206 227 255
206 227 255
206 227 255
206 227 255
206 227 255
206 227 255
206 227 255
206 227 255
206 227 255
207 227 255
207 227 255
207 227 255
207 227 255
207 227 255
207 228 255
207 228 255
207 228 255
207 228 255
207 228 255
207 228 255
207 228 255
207 228 255
207 228 255
207 228 255
207 228 255
207 228 255
208 228 255
208 228 255
208 228 255
208 228 255
208 228 255
208 228 255
208 228 255
208 228 255
208 228 255
208 228 255
208 228 255
208 228 255
208 228 255
208 228 255
208 228 255
208 228 255
208 228 255
208 228 255
208 228 255
209 228 255
209 229 255
209 229 255
209 229 255
209 229 255
209 229 255
209 229 255
209 229 255
209 229 255
209 229 255
209 229 255
209 229 255
209 229 255
209 229 255
209 229 255
209 229 255
209 229 255
209 229 255
209 229 255
209 229 255
210 229 255
210 229 255
210 229 255
210 229 255
210 229 255
210 229 255
210 229 255
210 229 255
210 229 255
210 229 255
210 229 255
210 229 255
210 229 255
210 229 255
210 229 255
210 229 255
210 229 255
210 229 255
210 229 255
210 229 255
210 229 255
210 230 255
210 230 255
210 230 255
211 230 255
211 230 255
211 230 255
211 230 255
211 230 255
211 230 255
211 230 255
211 230 255
211 230 255
211 230 255
210 230 255
210 230 255
210 229 255
210 229 255
210 229 255
210 229 255
210 229 255
210 229 255
210 229 255
210 229 255
210 229 255
210 229 255
210 229 255
210 229 255
210 229 255
210 229 255
210 229 255
210 229 255
210 229 255
210 229 255
210 229 255
210 229 255
209 229 255
209 229 255
209 229 255
209 229 255
209 229 255
209 229 255
209 229 255
209 229 255
209 229 255
209 229 255
209 229 255
209 229 255
209 229 255
209 229 255
209 229 255
209 229 255
209 229 255
209 229 255
209 229 255
209 228 255
209 228 255
208 228 255
208 228 255
208 228 255
208 228 255
208 228 255
208 228 255
208 228 255
208 228 255
208 228 255
208 228 255
208 228 255
208 228 255
208 228 255
208 228 255
208 228 255
208 228 255
208 228 255
208 228 255
207 228 255
207 228 255
207 228 255
207 228 255
207 228 255
207 228 255
207 228 255
207 228 255
207 228 255
207 228 255
207 228 255
207 228 255
207 228 255
207 227 255
207 227 255
207 227 255
207 227 255
206 227 255
206 227 255
206 227 255
206 227 255
206 227 255
206 227 255
206 227 255
206 227 255
206 227 255
206 227 255
206 227 255
206 227 255
206 227 255
206 227 255
206 227 255
206 227 255
205 227 255
205 227 255
205 227 255
205 227 255
205 227 255
205 227 255
205 227 255
205 227 255
205 227 255
205 227 255
205 226 255
205 226 255
205 226 255
205 226 255
205 226 255
205 226 255
204 226 255
204 226 255
204 226 255
204 226 255
204 226 255
204 226 255
204 226 255
204 226 255
204 226 255
204 226 255
204 226 255
204 226 255
204 226 255
204 226 255
204 226 255
204 226 255
204 226 255
204 226 255
203 226 255
203 226 255
203 226 255
203 226 255
203 226 255
203 226 255
203 226 255
203 226 255
203 225 255
203 225 255
203 225 255
203 225 255
203 225 255
203 225 255
203 225 255
203 225 255
203 225 255
203 225 255
203 225 255
203 225 255
202 225 255
202 225 255
202 225 255
202 225 255
202 225 255
202 225 255
202 225 255
202 225 255
202 225 255
202 225 255
202 225 255
202 225 255
202 225 255
202 225 255
202 225 255
202 225 255
202 225 255
202 225 255
202 225 255
202 225 255
202 225 255
202 225 255
202 225 255
202 225 255
202 225 255
202 225 255
202 225 255
202 225 255
202 225 255
202 225 255
202 225 255
202 225 255
202 225 255
202 225 255
202 225 255
202 225 255
202 225 255
202 225 255
202 225 255
202 225 255
202 225 255
202 225 255
202 225 255
202 225 255
202 225 255
202 225 255
202 225 255
202 225 255
202 225 255
202 225 255
202 225 255
202 225 255
202 225 255
202 225 255
202 225 255
202 225 255
202 225 255
202 225 255
202 225 255
202 225 255
202 225 255
202 225 255
202 225 255
202 225 255
202 225 255
202 225 255
202 225 255
202 225 255
202 225 255
202 225 255
202 225 255
202 225 255
202 225 255
202 225 255
203 225 255
203 225 255
203 225 255
203 225 255
203 225 255
203 225 255
203 225 255
203 225 255
203 225 255
203 225 255
203 225 255
203 226 255
203 226 255
203 226 255
203 226 255
203 226 255
203 226 255
203 226 255
203 226 255
204 226 255
204 226 255
204 226 255
204 226 255
204 226 255
204 226 255
204 226 255
204 226 255
204 226 255
204 226 255
204 226 255
204 226 255
204 226 255
204 226 255
204 226 255
204 226 255
204 226 255
204 226 255
205 226 255
205 226 255
205 226 255
205 226 255
205 226 255
205 226 255
205 227 255
205 227 255
205 227 255
205 227 255
205 227 255
205 227 255
205 227 255
205 227 255
205 227 255
206 227 255
206 227 255
206 227 255
206 227 255
206 227 255
206 227 255
206 227 255
206 227 255
206 227 255
206 227 255
206 227 255
206 227 255
206 227 255
206 227 255
206 227 255
206 227 255
206 227 255
207 227 255
207 227 255
207 227 255
207 227 255
207 228 255
207 228 255
207 228 255
207 228 255
207 228 255
207 228 255
207 228 255
207 228 255
207 228 255
207 228 255
207 228 255
207 228 255
207 228 255
208 228 255
208 228 255
208 228 255
208 228 255
208 228 255
208 228 255
208 228 255
208 228 255
208 228 255
208 228 255
208 228 255
208 228 255
208 228 255
208 228 255
208 228 255
208 228 255
208 228 255
208 228 255
209 228 255
209 228 255
209 229 255
209 229 255
209 229 255
209 229 255
209 229 255
209 229 255
209 229 255
209 229 255
209 229 255
209 229 255
209 229 255
209 229 255
209 229 255
209 229 255
209 229 255
209 229 255
209 229 255
209 229 255
209 229 255
210 229 255
210 229 255
210 229 255
210 229 255
210 229 255
210 229 255
210 229 255
210 229 255
210 229 255
210 229 255
210 229 255
210 229 255
210 229 255
210 229 255
210 229 255
210 229 255
210 229 255
210 229 255
210 229 255
210 229 255
210 230 255
210 230 255
210 230 255
211 230 255
211 230 255
211 230 255
211 230 255
211 230 255
211 230 255
211 230 255
211 230 255
211 230 255
211 230 255
211 230 255
211 230 255
211 230 255
211 230 255
211 230 255
211 230 255
211 230 255
210 230 255
210 230 255
210 230 255
210 229 255
210 229 255
210 229 255
210 229 255
210 229 255
210 229 255
210 229 255
210 229 255
210 229 255
210 229 255
210 229 255
210 229 255
210 229 255
210 229 255
210 229 255
210 229 255
210 229 255
210 229 255
210 229 255
210 229 255
209 229 255
209 229 255
208 227 254
203 222 248
199 219 245
194 213 239
189 207 232
180 198 222
179 198 223
181 199 224
181 200 224
180 198 223
171 190 215
172 190 215
174 192 216
169 186 210
176 194 218
173 191 216
172 190 215
179 198 224
177 195 220
179 197 222
181 199 224
192 212 238
190 209 236
198 217 244
203 223 250
208 228 255
208 228 255
208 228 255
208 228 255
208 228 255
208 228 255
208 228 255
208 228 255
208 228 255
208 228 255
208 228 255
207 228 255
207 228 255
207 228 255
207 228 255
207 228 255
207 228 255
207 228 255
207 228 255
207 228 255
207 228 255
207 228 255
207 228 255
207 228 255
207 228 255
207 227 255
207 227 255
207 227 255
207 227 255
206 227 255
206 227 255
206 227 255
206 227 255
206 227 255
206 227 255
206 227 255
206 227 255
206 227 255
206 227 255
206 227 255
206 227 255
206 227 255
206 227 255
206 227 255
206 227 255
205 227 255
205 227 255
205 227 255
205 227 255
205 227 255
205 227 255
205 227 255
205 227 255
205 227 255
205 227 255
205 226 255
205 226 255
205 226 255
205 226 255
205 226 255
205 226 255
204 226 255
204 226 255
204 226 255
204 226 255
204 226 255
204 226 255
204 226 255
204 226 255
204 226 255
204 226 255
204 226 255
204 226 255
204 226 255
204 226 255
204 226 255
204 226 255
204 226 255
204 226 255
203 226 255
203 226 255
203 226 255
203 226 255
203 226 255
203 226 255
203 226 255
203 226 255
203 225 255
203 225 255
203 225 255
203 225 255
203 225 255
203 225 255
203 225 255
203 225 255
203 225 255
203 225 255
203 225 255
203 225 255
203 225 255
203 225 255
202 225 255
202 225 255
202 225 255
202 225 255
202 225 255
202 225 255
202 225 255
202 225 255
202 225 255
202 225 255
202 225 255
202 225 255
202 225 255
202 225 255
202 225 255
202 225 255
202 225 255
202 225 255
202 225 255
202 225 255
202 225 255
202 225 255
200 221 251
197 212 241
193 203 230
192 200 227
188 191 216
182 175 200
185 183 208
183 178 201
183 174 197
181 172 196
183 179 204
186 181 206
189 192 218
188 191 217
189 194 220
198 214 244
200 220 250
202 225 255
202 225 255
202 225 255
202 225 255
202 225 255
202 225 255
202 225 255
202 225 255
202 225 255
202 225 255
202 225 255
202 225 255
202 225 255
202 225 255
202 225 255
202 225 255
202 225 255
202 225 255
202 225 255
202 225 255
202 225 255
202 225 255
203 225 255
203 225 255
203 225 255
203 225 255
203 225 255
203 225 255
203 225 255
203 225 255
203 225 255
203 225 255
203 225 255
203 225 255
203 225 255
203 226 255
203 226 255
203 226 255
203 226 255
203 226 255
203 226 255
203 226 255
203 226 255
203 226 255
204 226 255
204 226 255
204 226 255
204 226 255
204 226 255
204 226 255
204 226 255
204 226 255
204 226 255
204 226 255
204 226 255
204 226 255
204 226 255
204 226 255
204 226 255
204 226 255
204 226 255
204 226 255
205 226 255
205 226 255
205 226 255
205 226 255
205 226 255
205 226 255
205 227 255
205 227 255
205 227 255
205 227 255
205 227 255
205 227 255
205 227 255
205 227 255
205 227 255
205 227 255
206 227 255
206 227 255
206 227 255
206 227 255
206 227 255
206 227 255
206 227 255
206 227 255
206 227 255
206 227 255
206 227 255
206 227 255
206 227 255
206 227 255
206 227 255
206 227 255
206 227 255
207 227 255
207 227 255
207 227 255
207 228 255
207 228 255
207 228 255
207 228 255
207 228 255
207 228 255
207 228 255
207 228 255
207 228 255
207 228 255
207 228 255
207 228 255
207 228 255
207 228 255
208 228 255
208 228 255
208 228 255
208 228 255
208 228 255
208 228 255
208 228 255
208 228 255
208 228 255
208 228 255
205 224 251
202 220 242
201 217 234
193 206 219
193 209 226
191 206 219
191 202 207
179 188 188
176 184 183
183 190 183
169 176 172
182 189 183
175 183 182
170 177 174
185 193 190
178 187 190
173 180 176
183 193 197
189 201 208
176 188 198
182 194 202
192 205 218
196 210 222
198 215 235
203 221 244
209 228 254
209 229 255
209 229 255
210 229 255
210 229 255
210 229 255
210 229 255
210 229 255
210 229 255
210 229 255
210 229 255
210 229 255
210 229 255
210 229 255
210 229 255
210 229 255
210 229 255
210 229 255
210 229 255
210 229 255
210 229 255
210 229 255
210 229 255
210 230 255
210 230 255
210 230 255
211 230 255
211 230 255
211 230 255
211 230 255
211 230 255
211 230 255
211 230 255
211 230 255
211 230 255
211 230 255
211 230 255
211 230 255
211 230 255
211 230 255
211 230 255
211 230 255
211 230 255
211 230 255
211 230 255
211 230 255
211 230 255
211 230 255
211 230 255
211 230 255
211 230 255
210 230 255
210 230 255
210 230 255
210 229 255
210 229 255
210 229 255
210 229 255
210 229 255
210 229 255
210 229 255
210 229 255
210 229 255
210 229 255
205 224 250
188 206 230
183 201 226
169 185 208
162 178 201
168 186 211
147 165 188
139 156 178
134 151 174
128 145 166
126 142 161
140 158 180
120 137 158
135 152 175
137 155 178
141 159 183
138 156 180
132 149 171
147 166 191
137 155 178
133 151 174
140 160 186
137 155 180
131 149 172
139 157 181
141 159 184
139 157 181
137 155 180
134 153 177
144 164 190
129 147 171
130 148 172
131 148 171
133 150 173
135 153 177
155 174 198
162 180 205
168 185 209
177 196 222
186 206 231
192 212 238
204 224 252
208 228 255
208 228 255
208 228 255
208 228 255
208 228 255
208 228 255
207 228 255
207 228 255
207 228 255
207 228 255
207 228 255
207 228 255
207 228 255
207 228 255
207 228 255
207 228 255
207 228 255
207 228 255
207 228 255
207 227 255
207 227 255
207 227 255
207 227 255
206 227 255
206 227 255
206 227 255
206 227 255
206 227 255
206 227 255
206 227 255
206 227 255
206 227 255
206 227 255
206 227 255
206 227 255
206 227 255
206 227 255
206 227 255
206 227 255
205 227 255
205 227 255
205 227 255
205 227 255
205 227 255
205 227 255
205 227 255
205 227 255
205 227 255
205 227 255
205 226 255
205 226 255
205 226 255
205 226 255
205 226 255
205 226 255
205 226 255
204 226 255
204 226 255
204 226 255
204 226 255
204 226 255
204 226 255
204 226 255
204 226 255
204 226 255
204 226 255
204 226 255
204 226 255
204 226 255
204 226 255
204 226 255
204 226 255
204 226 255
204 226 255
203 226 255
203 226 255
203 226 255
203 226 255
203 226 255
203 226 255
203 226 255
203 226 255
203 226 255
203 226 255
203 225 255
203 225 255
203 225 255
203 225 255
203 225 255
203 225 255
203 225 255
203 225 255
203 225 255
203 225 255
203 225 255
203 225 255
203 225 255
203 225 255
203 225 255
202 225 255
202 225 255
202 225 255
202 225 255
202 225 255
202 225 255
202 225 255
202 225 255
202 225 255
202 224 255
194 206 234
187 188 215
183 174 197
170 141 159
169 132 148
167 122 135
166 121 134
166 122 135
163 120 134
164 121 136
166 122 137
169 123 138
165 121 136
163 120 134
167 122 137
164 120 132
162 119 132
164 121 134
166 121 135
166 121 135
165 121 136
163 121 136
167 130 145
173 149 168
180 164 185
186 185 209
198 213 241
202 223 254
202 225 255
202 225 255
202 225 255
202 225 255
202 225 255
202 225 255
202 225 255
202 225 255
202 225 255
203 225 255
203 225 255
203 225 255
203 225 255
203 225 255
203 225 255
203 225 255
203 225 255
203 225 255
203 225 255
203 225 255
203 225 255
203 225 255
203 225 255
203 225 255
203 226 255
203 226 255
203 226 255
203 226 255
203 226 255
203 226 255
203 226 255
203 226 255
203 226 255
203 226 255
204 226 255
204 226 255
204 226 255
204 226 255
204 226 255
204 226 255
204 226 255
204 226 255
204 226 255
204 226 255
204 226 255
204 226 255
204 226 255
204 226 255
204 226 255
204 226 255
204 226 255
204 226 255
205 226 255
205 226 255
205 226 255
205 226 255
205 226 255
205 226 255
205 226 255
205 227 255
205 227 255
205 227 255
205 227 255
205 227 255
205 227 255
205 227 255
205 227 255
205 227 255
206 227 255
206 227 255
206 227 255
206 227 255
206 227 255
206 227 255
206 227 255
206 227 255
206 227 255
206 227 255
206 227 255
206 227 255
206 227 255
206 227 255
206 227 255
206 227 255
206 227 255
207 227 255
207 227 255
207 227 255
207 227 255
207 228 255
207 228 255
207 228 255
207 228 255
207 228 255
207 228 255
207 228 255
207 228 255
207 228 255
207 228 255
207 228 255
207 228 255
207 228 255
208 228 255
208 228 255
208 228 255
208 228 255
208 228 255
208 228 255
205 224 249
198 214 231
181 192 200
176 184 179
178 186 181
167 171 156
159 159 132
162 162 130
158 154 101
155 151 100
162 158 104
158 154 102
167 162 108
154 150 99
157 153 101
162 158 104
162 158 104
166 161 107
159 155 103
165 161 106
165 161 107
155 151 100
162 158 104
166 162 107
158 154 102
160 156 103
163 159 105
158 153 101
159 154 101
161 156 103
159 154 101
160 155 102
165 160 105
158 153 103
153 152 121
169 171 149
163 165 147
176 183 178
179 188 189
187 199 208
191 205 217
204 222 244
210 229 254
210 229 255
210 229 255
210 229 255
210 229 255
210 229 255
210 229 255
210 229 255
210 229 255
210 229 255
210 230 255
210 230 255
210 230 255
211 230 255
211 230 255
211 230 255
211 230 255
211 230 255
211 230 255
211 230 255
211 230 255
211 230 255
211 230 255
211 230 255
211 230 255
211 230 255
211 230 255
211 230 255
211 230 255
211 230 255
211 230 255
211 230 255
211 230 255
211 230 255
211 230 255
211 230 255
211 230 255
211 230 255
211 230 255
211 230 255
211 230 255
211 230 255
211 230 255
211 230 255
211 230 255
211 230 255
210 230 255
210 230 255
210 230 255
206 225 250
178 195 218
178 196 219
159 176 198
155 172 195
133 149 168
133 150 172
145 163 186
141 158 181
135 152 172
138 156 178
149 168 194
139 156 180
132 150 172
144 162 186
145 164 188
142 161 186
139 158 183
142 161 186
141 160 186
140 158 180
144 164 190
137 155 178
135 153 177
134 152 175
138 158 184
139 158 183
135 153 177
136 154 178
134 153 178
138 157 181
145 166 192
143 162 188
139 159 184
145 165 192
141 161 187
149 169 196
132 151 175
148 169 195
138 158 184
138 157 181
144 165 191
128 146 169
131 149 172
137 156 181
131 150 174
129 147 171
133 150 174
132 150 173
146 164 187
161 180 205
179 198 224
195 215 242
203 223 250
208 228 255
208 228 255
208 228 255
208 228 255
207 228 255
207 228 255
207 228 255
207 228 255
207 228 255
207 228 255
207 228 255
207 228 255
207 228 255
207 228 255
207 228 255
207 228 255
207 228 255
207 227 255
207 227 255
207 227 255
207 227 255
206 227 255
206 227 255
206 227 255
206 227 255
206 227 255
206 227 255
206 227 255
206 227 255
206 227 255
206 227 255
206 227 255
206 227 255
206 227 255
206 227 255
206 227 255
206 227 255
205 227 255
205 227 255
205 227 255
205 227 255
205 227 255
205 227 255
205 227 255
205 227 255
205 227 255
205 227 255
205 226 255
205 226 255
205 226 255
205 226 255
205 226 255
205 226 255
205 226 255
204 226 255
204 226 255
204 226 255
204 226 255
204 226 255
204 226 255
204 226 255
204 226 255
204 226 255
204 226 255
204 226 255
204 226 255
204 226 255
204 226 255
204 226 255
204 226 255
204 226 255
204 226 255
204 226 255
203 226 255
203 226 255
203 226 255
203 226 255
203 226 255
203 226 255
203 226 255
203 226 255
203 226 255
203 226 255
203 226 255
203 225 255
203 225 255
203 225 255
203 225 255
203 225 255
203 225 255
203 225 255
203 225 255
203 225 255
203 225 255
203 225 255
203 225 255
203 225 255
203 225 255
203 225 255
196 208 236
185 183 208
171 151 169
168 130 148
166 122 136
167 122 137
165 121 134
166 122 135
166 122 136
166 121 134
168 122 136
166 121 136
164 121 136
165 121 133
164 121 133
165 121 135
165 121 137
168 122 135
164 120 132
165 121 130
164 121 135
164 121 135
165 121 133
163 121 134
166 121 135
166 122 135
166 121 132
164 120 130
165 121 133
165 121 133
163 120 131
168 127 143
176 155 174
184 182 205
197 213 242
203 225 255
203 225 255
203 225 255
203 225 255
203 225 255
203 225 255
203 225 255
203 225 255
203 225 255
203 225 255
203 225 255
203 225 255
203 225 255
203 225 255
203 225 255
203 226 255
203 226 255
203 226 255
203 226 255
203 226 255
203 226 255
203 226 255
203 226 255
203 226 255
203 226 255
203 226 255
204 226 255
204 226 255
204 226 255
204 226 255
204 226 255
204 226 255
204 226 255
204 226 255
204 226 255
204 226 255
204 226 255
204 226 255
204 226 255
204 226 255
204 226 255
204 226 255
204 226 255
204 226 255
204 226 255
205 226 255
205 226 255
205 226 255
205 226 255
205 226 255
205 226 255
205 226 255
205 227 255
205 227 255
205 227 255
205 227 255
205 227 255
205 227 255
205 227 255
205 227 255
205 227 255
205 227 255
206 227 255
206 227 255
206 227 255
206 227 255
206 227 255
206 227 255
206 227 255
206 227 255
206 227 255
206 227 255
206 227 255
206 227 255
206 227 255
206 227 255
206 227 255
206 227 255
206 227 255
207 227 255
207 227 255
207 227 255
207 228 255
207 228 255
207 228 255
207 228 255
207 228 255
207 228 255
207 228 255
207 228 255
207 228 255
207 228 255
207 228 255
207 228 255
207 228 255
207 228 255
208 228 255
208 228 255
208 228 255
202 221 246
198 214 232
179 189 188
170 175 161
163 167 151
163 162 123
159 155 103
162 159 105
166 162 108
168 164 109
169 165 110
168 165 110
168 165 110
170 167 111
166 163 109
170 167 111
171 168 112
169 166 110
170 167 112
170 167 111
166 163 109
169 166 110
169 167 111
172 169 113
172 169 112
172 169 112
170 166 110
175 171 113
171 167 111
172 168 112
173 169 112
170 167 110
165 161 107
172 168 111
173 169 112
169 165 109
172 168 111
164 160 106
171 166 110
165 160 106
169 164 108
165 160 106
164 159 104
163 158 104
165 160 105
158 153 101
157 152 99
155 149 97
159 155 115
162 163 141
177 184 180
187 197 199
191 205 219
204 221 244
210 230 255
210 230 255
210 230 255
211 230 255
211 230 255
211 230 255
211 230 255
211 230 255
211 230 255
211 230 255
211 230 255
211 230 255
211 230 255
211 230 255
211 230 255
211 230 255
211 230 255
211 230 255
211 230 255
211 230 255
211 230 255
211 230 255
211 230 255
211 230 255
211 230 255
211 230 255
211 230 255
211 230 255
211 230 255
211 230 255
211 230 255
211 230 255
211 230 255
211 230 255
211 230 255
211 230 255
211 230 255
211 230 255
205 224 250
187 205 229
176 193 217
156 172 193
136 152 171
135 152 171
127 143 161
126 141 160
123 139 160
142 161 186
133 150 171
150 168 192
140 158 181
134 151 171
139 157 178
146 164 188
151 170 194
138 156 180
142 161 186
143 161 186
144 162 187
145 164 190
148 167 192
140 159 184
149 169 195
152 174 202
143 163 188
144 165 191
139 159 184
153 174 199
149 170 198
142 161 184
135 155 181
137 156 181
142 162 188
149 169 196
146 167 194
140 160 186
152 174 203
150 171 199
143 162 188
144 164 191
140 160 186
144 166 194
146 167 195
147 168 196
146 167 195
148 170 198
136 157 183
131 149 174
132 151 177
141 161 187
136 155 180
147 168 195
131 150 174
131 150 174
145 166 192
134 152 175
135 154 178
146 165 191
153 171 194
173 192 217
189 208 235
205 225 253
208 228 255
208 228 255
207 228 255
207 228 255
207 228 255
207 228 255
207 228 255
207 228 255
207 228 255
207 228 255
207 228 255
207 228 255
207 228 255
207 228 255
207 228 255
207 227 255
207 227 255
207 227 255
207 227 255
206 227 255
206 227 255
206 227 255
206 227 255
206 227 255
206 227 255
206 227 255
206 227 255
206 227 255
206 227 255
206 227 255
206 227 255
206 227 255
206 227 255
206 227 255
206 227 255
206 227 255
205 227 255
205 227 255
205 227 255
205 227 255
205 227 255
205 227 255
205 227 255
205 227 255
205 227 255
205 227 255
205 226 255
205 226 255
205 226 255
205 226 255
205 226 255
205 226 255
205 226 255
204 226 255
204 226 255
204 226 255
204 226 255
204 226 255
204 226 255
204 226 255
204 226 255
204 226 255
204 226 255
204 226 255
204 226 255
204 226 255
204 226 255
204 226 255
204 226 255
204 226 255
204 226 255
204 226 255
204 226 255
204 226 255
203 226 255
203 226 255
203 226 255
203 226 255
203 226 255
203 226 255
203 226 255
203 226 255
203 226 255
203 226 255
203 226 255
203 226 255
203 225 255
203 225 255
203 225 255
203 225 255
202 225 255
196 210 239
180 169 190
170 140 157
165 121 135
164 121 135
163 120 133
166 121 136
165 121 135
164 121 133
165 121 134
166 122 136
165 121 136
164 120 127
163 120 134
165 121 136
163 120 133
166 121 134
164 120 130
166 121 135
166 121 133
165 121 135
164 120 127
166 122 135
164 121 132
166 121 133
165 121 131
167 122 135
165 121 135
166 121 133
163 120 135
166 121 130
166 121 130
165 121 134
165 121 136
164 121 132
164 121 134
165 121 135
164 121 133
168 134 149
181 169 191
194 205 232
203 225 255
203 225 255
203 225 255
203 225 255
203 225 255
203 226 255
203 226 255
203 226 255
203 226 255
203 226 255
203 226 255
203 226 255
203 226 255
203 226 255
203 226 255
203 226 255
203 226 255
204 226 255
204 226 255
204 226 255
204 226 255
204 226 255
204 226 255
204 226 255
204 226 255
204 226 255
204 226 255
204 226 255
204 226 255
204 226 255
204 226 255
204 226 255
204 226 255
204 226 255
204 226 255
204 226 255
204 226 255
204 226 255
205 226 255
205 226 255
205 226 255
205 226 255
205 226 255
205 226 255
205 226 255
205 227 255
205 227 255
205 227 255
205 227 255
205 227 255
205 227 255
205 227 255
205 227 255
205 227 255
205 227 255
206 227 255
206 227 255
206 227 255
206 227 255
206 227 255
206 227 255
206 227 255
206 227 255
206 227 255
206 227 255
206 227 255
206 227 255
206 227 255
206 227 255
206 227 255
206 227 255
206 227 255
207 227 255
207 227 255
207 227 255
207 227 255
207 228 255
207 228 255
207 228 255
207 228 255
207 228 255
207 228 255
207 228 255
207 228 255
207 228 255
207 228 255
207 228 255
207 228 255
207 228 255
208 228 255
208 228 255
206 226 252
192 205 216
177 188 192
174 181 173
165 165 130
155 151 100
166 162 108
160 156 104
165 162 108
165 162 108
170 167 111
166 164 109
169 166 111
169 166 111
168 166 111
169 167 112
170 168 112
170 168 112
172 170 114
171 169 113
172 170 114
173 170 114
172 170 114
171 169 113
172 170 113
172 170 113
173 170 114
172 170 114
171 169 113
170 169 113
173 170 114
173 171 114
172 170 113
173 171 114
172 169 113
172 169 113
173 170 113
173 170 113
174 171 114
173 170 113
172 169 112
175 171 113
173 170 113
172 168 112
172 169 112
170 166 110
173 169 112
172 168 111
174 170 112
172 167 110
170 165 109
175 170 112
170 165 109
161 156 103
167 162 106
166 160 105
167 161 106
165 158 103
154 148 97
162 157 112
176 179 165
185 193 189
187 201 214
209 228 252
211 230 255
211 230 255
211 230 255
211 230 255
211 230 255
211 230 255
211 230 255
211 230 255
211 230 255
211 230 255
211 230 255
211 230 255
211 230 255
211 230 255
211 230 255
211 230 255
211 230 255
212 230 255
211 230 255
211 230 255
211 230 255
211 230 255
211 230 255
211 230 255
211 230 255
211 230 255
211 230 255
211 230 255
211 230 255
208 227 252
181 198 221
170 188 210
139 154 173
139 156 176
134 150 171
139 156 177
147 165 188
137 153 174
141 158 181
140 159 180
138 155 175
133 150 172
143 163 187
144 163 187
141 159 183
145 163 186
147 166 190
144 162 187
129 146 169
142 161 186
148 168 194
146 166 192
150 171 199
149 169 195
150 171 198
148 168 194
149 170 196
140 158 183
140 159 184
144 164 191
143 162 188
150 170 198
140 159 184
146 166 192
153 175 203
146 166 192
139 159 184
147 168 196
147 168 196
138 157 183
151 173 202
146 167 195
145 166 194
147 169 198
145 166 194
145 166 194
149 172 200
154 176 206
153 175 203
142 163 191
140 161 188
147 169 198
143 164 191
137 158 184
146 168 196
142 163 190
143 165 194
144 165 192
143 165 192
136 155 180
143 163 190
152 174 203
143 163 190
141 161 187
144 164 190
141 160 186
127 146 170
148 167 191
176 195 221
191 211 237
203 223 251
208 228 255
208 228 255
207 228 255
207 228 255
207 228 255
207 228 255
207 228 255
207 228 255
207 228 255
207 228 255
207 228 255
207 228 255
207 228 255
207 228 255
207 228 255
207 227 255
207 227 255
207 227 255
207 227 255
206 227 255
206 227 255
206 227 255
206 227 255
206 227 255
206 227 255
206 227 255
206 227 255
206 227 255
206 227 255
206 227 255
206 227 255
206 227 255
206 227 255
206 227 255
206 227 255
206 227 255
205 227 255
205 227 255
205 227 255
205 227 255
205 227 255
205 227 255
205 227 255
205 227 255
205 227 255
205 227 255
205 227 255
205 226 255
205 226 255
205 226 255
205 226 255
205 226 255
205 226 255
205 226 255
204 226 255
204 226 255
204 226 255
204 226 255
204 226 255
204 226 255
204 226 255
204 226 255
204 226 255
204 226 255
204 226 255
204 226 255
204 226 255
204 226 255
204 226 255
204 226 255
204 226 255
204 226 255
204 226 255
204 226 255
204 226 255
204 226 255
203 226 255
203 226 255
203 226 255
203 226 255
203 226 255
203 226 255
203 226 255
203 226 255
197 209 237
185 179 203
169 133 148
166 122 135
164 120 132
162 120 127
163 120 135
165 121 133
165 121 134
166 122 136
166 121 134
164 120 130
165 121 133
165 121 134
163 120 127
165 121 133
165 121 130
164 121 133
166 121 135
165 121 133
163 120 131
164 121 133
163 120 132
164 120 126
164 120 129
165 121 133
165 121 133
164 120 133
165 120 130
165 121 133
166 122 137
163 120 133
167 122 135
165 120 129
166 121 135
164 120 130
165 121 131
164 120 130
165 121 135
165 121 134
166 122 135
165 121 130
164 120 132
166 121 135
168 130 145
184 178 201
197 210 237
203 226 255
203 226 255
203 226 255
203 226 255
203 226 255
203 226 255
203 226 255
203 226 255
204 226 255
204 226 255
204 226 255
204 226 255
204 226 255
204 226 255
204 226 255
204 226 255
204 226 255
204 226 255
204 226 255
204 226 255
204 226 255
204 226 255
204 226 255
204 226 255
204 226 255
204 226 255
204 226 255
204 226 255
204 226 255
204 226 255
205 226 255
205 226 255
205 226 255
205 226 255
205 226 255
205 226 255
205 226 255
205 226 255
205 227 255
205 227 255
205 227 255
205 227 255
205 227 255
205 227 255
205 227 255
205 227 255
205 227 255
205 227 255
206 227 255
206 227 255
206 227 255
206 227 255
206 227 255
206 227 255
206 227 255
206 227 255
206 227 255
206 227 255
206 227 255
206 227 255
206 227 255
206 227 255
206 227 255
206 227 255
206 227 255
207 227 255
207 227 255
207 227 255
207 227 255
207 228 255
207 228 255
207 228 255
207 228 255
207 228 255
207 228 255
207 228 255
207 228 255
207 228 255
207 228 255
207 228 255
207 228 255
207 228 255
208 228 255
208 228 255
204 223 248
188 201 211
180 190 190
167 170 150
154 150 101
158 154 102
168 165 110
165 162 108
165 162 108
165 163 109
168 166 111
171 169 113
170 168 112
170 169 113
169 167 112
170 169 113
171 170 114
169 168 113
171 170 114
171 170 114
170 169 113
171 170 114
170 169 114
170 169 114
170 169 114
170 169 114
170 169 114
171 170 114
170 169 114
171 170 114
171 170 114
171 170 114
171 170 114
172 170 114
171 170 114
171 170 114
172 170 114
171 170 114
172 170 114
172 170 114
173 170 114
172 170 114
171 169 113
173 171 114
172 170 113
174 171 114
173 170 113
174 170 113
174 171 114
175 171 114
173 170 113
173 170 113
173 169 112
176 172 114
175 170 113
174 170 112
172 168 111
173 168 110
170 166 109
172 167 110
170 165 108
174 169 111
167 161 106
164 158 104
162 157 103
170 163 107
162 156 102
156 150 100
164 163 134
178 184 176
191 202 211
210 228 251
211 230 255
211 230 255
211 230 255
211 230 255
211 230 255
211 230 255
211 230 255
211 230 255
211 230 255
211 230 255
211 230 255
212 230 255
212 230 255
212 230 255
212 230 255
212 230 255
212 230 255
212 230 255
212 230 255
211 230 255
211 230 255
211 230 255
188 205 227
170 187 209
144 160 181
141 158 178
145 161 180
139 155 175
145 163 186
152 170 192
144 163 184
144 162 184
144 161 184
135 152 172
138 156 180
142 160 183
135 152 172
145 163 187
144 163 187
144 163 187
151 170 194
146 165 188
143 161 184
148 168 194
151 171 196
147 168 195
144 164 190
150 171 194
146 166 192
148 168 194
148 168 194
149 170 195
140 160 186
140 160 187
147 167 192
148 169 195
144 165 192
153 174 203
151 172 200
145 166 194
142 162 188
139 159 186
151 173 202
147 169 198
142 163 190
154 176 204
152 174 203
148 169 198
150 172 200
144 166 194
144 165 192
150 172 200
150 172 200
140 160 186
145 168 196
144 167 195
150 172 200
143 165 192
140 161 188
154 177 207
155 178 208
147 169 196
140 161 188
141 161 188
147 169 198
146 167 195
146 168 196
142 163 191
144 166 194
151 174 203
131 151 177
142 163 190
142 162 188
128 147 171
138 158 184
136 156 181
139 157 181
165 185 211
164 182 206
192 211 237
208 228 255
208 228 255
208 228 255
207 228 255
207 228 255
207 228 255
207 228 255
207 228 255
207 228 255
207 228 255
207 228 255
207 228 255
207 228 255
207 228 255
207 228 255
207 228 255
207 227 255
207 227 255
207 227 255
207 227 255
206 227 255
206 227 255
206 227 255
206 227 255
206 227 255
206 227 255
206 227 255
206 227 255
206 227 255
206 227 255
206 227 255
206 227 255
206 227 255
206 227 255
206 227 255
206 227 255
206 227 255
205 227 255
205 227 255
205 227 255
205 227 255
205 227 255
205 227 255
205 227 255
205 227 255
205 227 255
205 227 255
205 227 255
205 226 255
205 226 255
205 226 255
205 226 255
205 226 255
205 226 255
205 226 255
205 226 255
204 226 255
204 226 255
204 226 255
204 226 255
204 226 255
204 226 255
204 226 255
204 226 255
204 226 255
204 226 255
204 226 255
204 226 255
204 226 255
204 226 255
204 226 255
204 226 255
204 226 255
204 226 255
204 226 255
204 226 255
204 226 255
204 226 255
203 225 255
194 201 227
175 153 172
165 121 133
166 121 135
164 120 131
164 121 133
165 121 136
166 121 134
164 121 133
165 121 135
163 120 131
163 120 132
166 121 135
165 121 133
168 122 134
166 121 133
165 121 132
166 121 133
168 122 134
165 121 133
164 120 125
165 120 126
163 120 125
164 120 130
163 120 131
166 121 132
165 121 133
165 121 133
165 121 132
164 121 134
166 121 133
164 121 131
164 121 131
166 121 133
165 121 132
164 120 130
164 120 130
164 121 131
167 122 134
164 120 128
164 120 130
167 122 133
164 120 129
165 120 129
167 121 133
165 121 134
166 121 132
164 121 133
165 121 135
174 150 169
191 194 218
203 225 255
204 226 255
204 226 255
204 226 255
204 226 255
204 226 255
204 226 255
204 226 255
204 226 255
204 226 255
204 226 255
204 226 255
204 226 255
204 226 255
204 226 255
204 226 255
204 226 255
204 226 255
204 226 255
204 226 255
204 226 255
204 226 255
204 226 255
205 226 255
205 226 255
205 226 255
205 226 255
205 226 255
205 226 255
205 226 255
205 226 255
205 227 255
205 227 255
205 227 255
205 227 255
205 227 255
205 227 255
205 227 255
205 227 255
205 227 255
205 227 255
205 227 255
206 227 255
206 227 255
206 227 255
206 227 255
206 227 255
206 227 255
206 227 255
206 227 255
206 227 255
206 227 255
206 227 255
206 227 255
206 227 255
206 227 255
206 227 255
206 227 255
206 227 255
207 227 255
207 227 255
207 227 255
207 227 255
207 228 255
207 228 255
207 228 255
207 228 255
207 228 255
207 228 255
207 228 255
207 228 255
207 228 255
207 228 255
207 228 255
207 228 255
207 228 255
208 228 255
208 228 255
208 228 255
191 207 227
176 186 188
177 184 172
162 159 111
157 154 102
166 163 108
163 161 108
170 168 112
168 166 111
168 166 111
171 169 113
170 169 113
170 169 113
170 169 114
171 170 114
170 169 114
170 169 114
169 169 114
169 169 114
169 169 114
169 169 114
169 169 114
169 169 114
169 169 114
169 169 114
169 169 114
168 169 114
168 169 114
169 169 114
169 169 114
169 169 114
169 169 114
169 169 114
169 169 114
170 169 114
170 169 114
170 169 114
170 169 114
171 170 114
170 169 114
170 169 114
170 169 114
171 170 114
171 170 114
172 170 114
172 170 114
172 170 114
172 170 114
172 170 114
173 171 114
173 171 114
173 171 114
174 171 114
173 171 114
174 171 114
175 171 114
174 171 113
175 172 114
174 170 113
174 170 113
175 171 113
175 170 113
176 172 113
176 172 113
174 169 112
175 170 112
176 171 112
175 169 111
172 167 109
169 164 108
170 164 108
170 164 108
164 158 103
166 159 104
156 150 97
168 167 140
181 190 191
197 210 223
205 223 248
211 230 255
211 230 255
212 230 255
212 230 255
212 230 255
212 230 255
212 230 255
212 230 255
212 230 255
212 230 255
212 230 255
212 230 255
212 230 255
212 230 255
208 226 251
191 209 232
161 177 198
126 139 155
127 142 156
141 158 180
128 144 160
142 159 181
142 158 174
133 149 171
130 146 168
141 158 180
149 167 190
144 161 184
151 169 194
148 167 190
144 162 186
145 164 188
151 170 196
151 170 194
145 164 190
153 171 195
134 152 172
143 162 186
152 172 198
141 160 186
152 172 196
151 171 196
150 171 198
152 173 200
144 163 188
147 168 194
150 170 196
156 177 206
151 173 200
145 166 194
139 158 184
157 180 209
149 171 199
143 163 190
153 175 203
143 163 190
152 174 203
152 173 202
146 167 195
155 177 206
151 173 202
155 177 206
157 180 211
155 178 208
148 169 198
155 177 207
158 182 212
149 172 202
150 172 202
150 173 202
148 170 199
141 163 191
141 162 188
141 163 191
146 168 196
148 171 200
153 176 207
143 164 192
142 163 191
148 170 199
141 162 190
151 174 203
148 171 199
141 163 191
148 171 200
147 168 196
153 176 206
140 161 188
143 164 191
140 160 187
137 158 184
145 166 194
143 164 191
137 157 183
142 163 190
127 145 168
143 161 185
166 185 210
190 209 236
207 227 255
208 228 255
208 228 255
207 228 255
207 228 255
207 228 255
207 228 255
207 228 255
207 228 255
207 228 255
207 228 255
207 228 255
207 228 255
207 228 255
207 228 255
207 228 255
207 228 255
207 227 255
207 227 255
207 227 255
207 227 255
206 227 255
206 227 255
206 227 255
206 227 255
206 227 255
206 227 255
206 227 255
206 227 255
206 227 255
206 227 255
206 227 255
206 227 255
206 227 255
206 227 255
206 227 255
206 227 255
206 227 255
205 227 255
205 227 255
205 227 255
205 227 255
205 227 255
205 227 255
205 227 255
205 227 255
205 227 255
205 227 255
205 227 255
205 227 255
205 226 255
205 226 255
205 226 255
205 226 255
205 226 255
205 226 255
205 226 255
205 226 255
204 226 255
204 226 255
204 226 255
204 226 255
204 226 255
204 226 255
204 226 255
204 226 255
204 226 255
204 226 255
204 226 255
204 226 255
204 226 255
204 226 255
204 226 255
203 224 253
191 196 220
167 132 148
163 119 126
167 122 137
164 120 129
165 120 130
166 121 131
166 122 136
167 122 135
167 121 133
164 120 132
168 122 133
165 121 133
165 121 130
167 122 134
164 121 133
166 121 134
164 121 132
164 120 129
164 121 134
164 120 126
164 121 133
165 121 135
166 121 132
165 121 131
162 120 130
164 120 129
166 121 132
167 122 133
163 120 128
166 121 134
167 122 137
165 120 132
166 121 130
165 121 132
166 121 130
166 121 129
165 121 133
166 121 132
164 120 130
166 121 133
165 121 133
165 120 131
165 121 130
163 120 130
165 121 133
164 120 130
166 122 137
167 122 133
166 121 133
165 121 133
164 120 128
167 122 135
170 134 151
188 185 208
203 223 252
204 226 255
204 226 255
204 226 255
204 226 255
204 226 255
204 226 255
204 226 255
204 226 255
204 226 255
204 226 255
204 226 255
204 226 255
204 226 255
204 226 255
204 226 255
205 226 255
205 226 255
205 226 255
205 226 255
205 226 255
205 226 255
205 226 255
205 226 255
205 227 255
205 227 255
205 227 255
205 227 255
205 227 255
205 227 255
205 227 255
205 227 255
205 227 255
205 227 255
205 227 255
206 227 255
206 227 255
206 227 255
206 227 255
206 227 255
206 227 255
206 227 255
206 227 255
206 227 255
206 227 255
206 227 255
206 227 255
206 227 255
206 227 255
206 227 255
206 227 255
206 227 255
206 227 255
207 227 255
207 227 255
207 227 255
207 227 255
207 227 255
207 228 255
207 228 255
207 228 255
207 228 255
207 228 255
207 228 255
207 228 255
207 228 255
207 228 255
207 228 255
207 228 255
207 228 255
207 228 255
208 228 255
208 228 255
207 227 252
194 209 226
180 189 186
148 148 116
163 159 106
168 165 109
167 165 110
166 163 109
171 169 113
166 165 110
170 169 113
170 169 113
170 169 114
170 169 114
170 169 114
169 169 114
168 169 114
168 168 114
169 169 114
168 168 114
168 168 114
168 168 114
167 168 114
168 168 114
168 168 114
168 168 114
167 168 114
168 168 114
167 168 114
168 168 114
167 168 114
168 168 114
168 168 114
168 168 114
168 168 114
168 168 114
168 168 114
168 168 114
168 168 114
169 169 114
168 169 114
169 169 114
170 169 114
169 169 114
170 169 114
170 169 114
170 169 114
170 169 114
171 170 114
171 170 114
171 170 114
171 170 114
171 170 114
171 170 114
172 170 114
173 170 114
172 170 114
173 171 114
173 171 114
173 171 114
174 171 114
175 171 114
174 171 114
175 172 114
175 172 114
176 172 114
176 172 114
175 171 113
177 172 114
176 171 113
174 169 112
176 171 113
176 171 112
172 167 110
173 167 110
174 168 110
172 166 109
166 160 105
173 166 109
167 160 104
160 153 100
162 155 101
156 151 110
174 177 163
183 194 203
205 222 245
212 230 255
212 230 255
212 230 255
212 230 255
212 230 255
212 230 255
212 230 255
212 230 255
208 227 252
182 199 221
161 177 197
138 154 169
133 149 166
135 151 171
143 161 184
143 160 183
142 160 181
148 166 186
139 157 178
142 159 174
151 170 195
150 169 190
139 156 178
149 168 190
147 165 188
146 164 186
141 160 184
151 169 192
141 159 181
150 170 195
150 170 195
153 174 200
148 167 188
149 169 195
150 170 195
146 167 192
150 171 198
151 172 199
156 177 202
144 165 192
154 175 203
150 170 198
151 171 198
148 169 196
151 172 199
150 171 198
152 174 203
153 174 202
156 177 206
158 181 211
152 174 202
155 176 204
153 176 206
154 176 204
144 167 195
153 176 206
151 174 203
151 173 202
155 179 209
149 170 198
150 172 200
149 170 198
151 174 203
148 170 199
150 172 199
148 170 199
156 180 211
153 176 206
153 177 207
154 177 207
141 162 190
156 179 209
149 172 202
152 174 203
155 179 209
142 164 192
150 174 204
149 173 203
148 170 199
144 166 194
146 169 198
150 173 203
147 169 198
142 163 191
140 161 188
150 172 202
138 160 187
151 173 203
140 161 188
147 169 198
142 163 191
149 170 198
129 148 172
148 170 198
135 155 181
139 159 184
141 160 185
161 179 203
192 211 237
205 225 253
208 228 255
208 228 255
208 228 255
207 228 255
207 228 255
207 228 255
207 228 255
207 228 255
207 228 255
207 228 255
207 228 255
207 228 255
207 228 255
207 228 255
207 228 255
207 228 255
207 228 255
207 227 255
207 227 255
207 227 255
207 227 255
206 227 255
206 227 255
206 227 255
206 227 255
206 227 255
206 227 255
206 227 255
206 227 255
206 227 255
206 227 255
206 227 255
206 227 255
206 227 255
206 227 255
206 227 255
206 227 255
206 227 255
206 227 255
205 227 255
205 227 255
205 227 255
205 227 255
205 227 255
205 227 255
205 227 255
205 227 255
205 227 255
205 227 255
205 227 255
205 227 255
205 226 255
205 226 255
205 226 255
205 226 255
205 226 255
205 226 255
205 226 255
205 226 255
205 226 255
204 226 255
204 226 255
204 226 255
204 226 255
204 226 255
204 226 255
204 226 255
203 224 253
184 181 204
170 138 152
165 121 133
163 120 132
166 121 133
163 120 131
163 120 129
164 121 135
164 120 131
164 120 133
165 121 131
165 121 132
164 120 130
165 121 130
163 120 131
165 121 130
164 120 125
164 120 131
165 121 132
166 121 134
168 122 135
166 121 130
163 120 133
165 121 130
165 121 133
166 121 133
165 120 126
166 121 133
164 121 130
166 121 133
167 122 133
166 121 133
164 120 127
166 121 133
165 120 127
166 121 130
164 120 126
164 120 130
164 120 130
165 121 133
167 122 133
162 119 127
165 121 132
167 121 130
164 120 130
165 121 133
165 121 129
164 120 131
168 122 134
165 121 131
163 120 130
164 120 126
164 121 132
167 121 134
165 121 132
164 120 131
164 121 134
172 142 159
187 186 210
203 224 253
204 226 255
204 226 255
204 226 255
204 226 255
204 226 255
204 226 255
204 226 255
205 226 255
205 226 255
205 226 255
205 226 255
205 226 255
205 226 255
205 226 255
205 226 255
205 226 255
205 227 255
205 227 255
205 227 255
205 227 255
205 227 255
205 227 255
205 227 255
205 227 255
205 227 255
205 227 255
205 227 255
205 227 255
206 227 255
206 227 255
206 227 255
206 227 255
206 227 255
206 227 255
206 227 255
206 227 255
206 227 255
206 227 255
206 227 255
206 227 255
206 227 255
206 227 255
206 227 255
206 227 255
206 227 255
206 227 255
207 227 255
207 227 255
207 227 255
207 227 255
207 228 255
207 228 255
207 228 255
207 228 255
207 228 255
207 228 255
207 228 255
207 228 255
207 228 255
207 228 255
207 228 255
207 228 255
207 228 255
207 228 255
208 228 255
208 228 255
208 228 255
206 226 253
190 206 221
168 173 163
153 150 103
157 154 102
165 162 108
170 167 112
169 167 112
167 166 111
171 170 114
170 169 114
169 168 113
169 169 114
168 168 113
169 169 114
168 168 114
168 168 114
168 168 114
167 168 114
167 168 114
167 168 114
167 168 114
167 168 114
166 168 114
167 168 114
166 167 114
166 168 114
167 168 114
166 168 114
166 168 114
167 168 114
166 168 114
167 168 114
166 168 114
167 168 114
167 168 114
167 168 114
167 168 114
168 168 114
168 168 114
168 168 114
168 168 114
168 168 114
168 168 114
169 169 114
168 168 114
169 169 114
169 169 114
169 169 114
169 169 114
169 169 114
170 169 114
170 169 114
171 170 114
171 169 114
170 169 114
171 170 114
172 170 114
172 170 114
172 170 114
172 170 114
172 170 114
172 170 114
173 171 114
173 171 114
174 171 114
174 171 114
175 171 114
175 171 114
174 171 114
176 172 114
175 171 113
176 172 114
176 172 114
177 172 114
175 171 113
178 173 114
176 170 112
178 172 113
174 168 110
177 171 112
178 171 112
173 167 109
175 169 110
172 165 108
168 161 105
167 160 104
167 159 103
152 146 97
171 175 164
191 199 201
210 228 251
212 230 255
212 230 255
212 230 255
191 209 232
161 176 193
137 153 167
127 142 158
144 161 180
142 158 178
137 153 172
143 160 183
141 157 178
146 164 188
148 167 186
144 163 186
140 158 181
153 172 195
143 160 183
143 161 180
152 171 194
154 173 196
141 158 181
151 170 194
150 170 194
149 169 195
152 171 195
141 160 183
142 161 184
156 177 203
157 177 202
146 166 192
153 173 199
146 166 192
145 164 190
158 178 204
155 176 204
157 178 206
156 177 204
154 175 202
152 173 202
155 176 204
156 178 207
153 174 202
151 172 199
155 177 207
150 171 198
153 176 204
151 172 200
161 185 216
146 167 195
153 174 200
149 171 199
149 170 198
161 185 216
156 178 208
152 174 203
155 178 208
154 177 207
149 171 199
155 178 208
154 178 208
157 180 211
151 173 202
150 173 203
155 178 208
152 174 203
155 179 209
149 173 203
147 170 199
141 163 191
150 173 203
156 180 211
147 169 198
150 174 204
151 173 203
152 175 204
146 169 199
152 176 207
150 173 203
142 164 192
147 169 198
138 160 187
147 169 198
142 163 191
142 164 192
144 166 194
152 175 206
148 170 199
147 169 198
148 169 198
135 155 181
138 158 184
149 170 198
149 171 199
136 156 181
136 155 180
148 167 191
165 183 208
198 218 245
208 228 255
208 228 255
208 228 255
208 228 255
208 228 255
207 228 255
207 228 255
207 228 255
207 228 255
207 228 255
207 228 255
207 228 255
207 228 255
207 228 255
207 228 255
207 228 255
207 228 255
207 228 255
207 228 255
207 227 255
207 227 255
207 227 255
207 227 255
206 227 255
206 227 255
206 227 255
206 227 255
206 227 255
206 227 255
206 227 255
206 227 255
206 227 255
206 227 255
206 227 255
206 227 255
206 227 255
206 227 255
206 227 255
206 227 255
206 227 255
206 227 255
206 227 255
205 227 255
205 227 255
205 227 255
205 227 255
205 227 255
205 227 255
205 227 255
205 227 255
205 227 255
205 227 255
205 227 255
205 227 255
205 226 255
205 226 255
205 226 255
205 226 255
205 226 255
205 226 255
205 226 255
205 226 255
205 226 255
205 226 255
193 202 228
172 144 159
166 121 135
165 121 133
167 122 134
167 121 133
163 120 132
164 121 132
165 121 133
165 121 129
164 120 128
165 120 126
166 121 133
165 121 130
163 120 127
164 120 129
167 122 136
166 121 132
166 121 130
166 121 129
167 121 132
164 120 130
166 121 133
167 122 132
165 121 130
163 120 129
164 120 130
165 120 126
168 122 130
165 121 128
165 121 130
166 121 133
165 121 130
166 121 132
167 121 133
164 120 130
165 121 132
167 122 132
165 120 129
166 121 130
163 120 129
164 121 131
163 120 126
166 121 130
163 120 129
166 121 133
165 121 133
166 121 130
163 120 128
163 120 128
166 121 130
167 121 134
166 121 131
167 121 133
165 121 131
168 122 134
164 120 132
164 121 133
165 120 130
165 121 132
165 120 129
170 137 153
195 205 231
205 226 255
205 226 255
205 226 255
205 226 255
205 226 255
205 226 255
205 226 255
205 226 255
205 226 255
205 226 255
205 227 255
205 227 255
205 227 255
205 227 255
205 227 255
205 227 255
205 227 255
205 227 255
205 227 255
205 227 255
205 227 255
205 227 255
206 227 255
206 227 255
206 227 255
206 227 255
206 227 255
206 227 255
206 227 255
206 227 255
206 227 255
206 227 255
206 227 255
206 227 255
206 227 255
206 227 255
206 227 255
206 227 255
206 227 255
206 227 255
206 227 255
207 227 255
207 227 255
207 227 255
207 227 255
207 227 255
207 228 255
207 228 255
207 228 255
207 228 255
207 228 255
207 228 255
207 228 255
207 228 255
207 228 255
207 228 255
207 228 255
207 228 255
207 228 255
208 228 255
208 228 255
208 228 255
208 228 255
208 228 255
197 214 233
168 177 176
164 163 122
163 159 106
162 159 106
171 168 112
168 167 112
171 169 113
171 169 114
170 169 114
169 169 114
168 168 114
169 169 114
168 168 114
168 168 114
167 168 114
167 168 114
167 168 114
166 168 114
166 168 114
166 168 114
166 167 114
166 167 114
166 167 114
166 167 114
166 167 114
166 167 114
165 167 114
165 167 114
166 167 114
166 167 114
166 167 114
166 167 114
166 167 114
166 168 114
166 167 114
166 167 114
166 168 114
166 168 114
167 168 114
167 168 114
166 168 114
167 168 114
167 168 114
167 168 114
167 168 114
168 168 114
167 168 114
168 168 114
168 168 114
168 168 114
169 169 114
169 169 114
169 169 114
169 169 114
170 169 114
170 169 114
171 170 114
170 169 114
170 169 114
171 170 114
171 170 114
171 170 114
171 170 114
172 170 114
172 170 114
173 171 114
174 171 114
174 171 114
173 171 114
174 171 114
175 171 114
175 171 114
175 172 114
176 172 114
176 172 114
176 172 114
177 172 114
177 172 114
177 172 114
178 173 114
178 173 114
179 173 114
177 172 113
176 171 112
176 170 112
172 166 109
172 165 108
175 168 110
175 168 109
171 163 106
164 157 102
165 158 103
158 153 109
178 182 170
192 203 213
210 228 251
141 157 177
147 164 180
135 152 169
145 162 183
138 154 175
143 160 181
152 169 190
145 162 186
145 162 184
142 160 181
138 155 178
148 164 187
151 169 191
151 170 191
154 173 198
147 166 191
145 164 188
150 170 194
154 173 198
148 166 191
153 173 199
155 176 199
149 169 194
151 171 198
156 176 202
155 175 200
156 177 203
160 180 206
151 173 200
156 176 200
154 175 203
153 174 202
155 176 203
157 179 207
157 178 206
159 180 208
152 174 203
153 175 203
155 177 206
157 179 208
153 174 200
154 176 204
149 170 198
163 185 214
155 177 206
154 176 206
158 181 209
150 173 202
159 183 213
153 175 204
162 186 217
157 180 209
157 181 212
157 179 208
154 177 207
152 175 204
158 182 213
148 170 198
150 173 202
159 184 216
155 178 208
154 177 207
156 181 213
152 175 206
155 179 209
158 181 212
156 181 212
158 183 214
154 178 209
157 181 212
146 168 198
151 175 206
157 182 213
155 179 211
154 178 208
151 175 206
150 175 206
149 172 202
153 177 208
144 166 195
153 176 207
142 164 192
150 174 204
150 172 202
150 173 203
145 167 195
144 166 195
147 169 198
145 167 196
129 148 174
149 172 200
143 164 191
142 164 191
139 159 186
126 143 166
137 155 180
155 174 198
183 202 228
202 222 249
208 228 255
208 228 255
208 228 255
208 228 255
208 228 255
208 228 255
208 228 255
207 228 255
207 228 255
207 228 255
207 228 255
207 228 255
207 228 255
207 228 255
207 228 255
207 228 255
207 228 255
207 228 255
207 228 255
207 228 255
207 227 255
207 227 255
207 227 255
207 227 255
206 227 255
206 227 255
206 227 255
206 227 255
206 227 255
206 227 255
206 227 255
206 227 255
206 227 255
206 227 255
206 227 255
206 227 255
206 227 255
206 227 255
206 227 255
206 227 255
206 227 255
206 227 255
206 227 255
206 227 255
205 227 255
205 227 255
205 227 255
205 227 255
205 227 255
205 227 255
205 227 255
205 227 255
205 227 255
205 227 255
205 227 255
205 227 255
205 227 255
205 227 255
205 226 255
199 212 239
179 165 185
165 121 136
163 120 130
163 120 129
165 121 132
163 120 131
165 121 131
166 121 133
164 121 132
165 121 132
166 121 130
165 121 130
165 121 130
165 120 126
166 121 130
166 121 133
165 121 129
166 121 135
164 120 128
167 121 128
166 121 132
165 121 131
163 120 131
166 121 128
163 120 127
163 119 122
166 121 130
168 122 133
164 120 130
164 120 126
166 121 132
163 120 128
165 120 128
167 122 131
165 121 128
163 119 126
165 121 127
162 119 123
162 119 126
167 121 130
166 121 130
165 121 130
167 122 133
166 121 130
164 120 130
164 120 129
167 122 133
164 120 129
167 122 133
162 119 125
165 121 133
165 120 129
165 120 130
166 121 130
165 120 127
165 121 131
166 121 132
162 119 125
165 121 131
163 120 130
164 121 133
166 121 132
162 119 125
164 120 130
180 163 183
200 216 243
205 226 255
205 227 255
205 227 255
205 227 255
205 227 255
205 227 255
205 227 255
205 227 255
205 227 255
205 227 255
205 227 255
205 227 255
205 227 255
205 227 255
205 227 255
206 227 255
206 227 255
206 227 255
206 227 255
206 227 255
206 227 255
206 227 255
206 227 255
206 227 255
206 227 255
206 227 255
206 227 255
206 227 255
206 227 255
206 227 255
206 227 255
206 227 255
206 227 255
206 227 255
206 227 255
207 227 255
207 227 255
207 227 255
207 227 255
207 228 255
207 228 255
207 228 255
207 228 255
207 228 255
207 228 255
207 228 255
207 228 255
207 228 255
207 228 255
207 228 255
207 228 255
207 228 255
207 228 255
208 228 255
208 228 255
208 228 255
208 228 255
208 228 255
208 228 255
201 220 245
190 202 207
159 161 139
161 157 104
166 163 109
167 164 109
167 165 110
169 167 112
170 169 113
170 169 114
169 169 114
169 169 114
168 168 114
167 168 114
167 168 114
167 168 114
166 168 114
166 168 114
166 167 114
166 167 114
166 167 114
165 167 114
165 167 114
165 167 114
165 167 114
165 167 114
165 167 114
165 167 114
165 167 114
164 167 114
165 167 114
165 167 114
165 167 114
165 167 114
165 167 114
166 167 114
165 167 114
165 167 114
165 167 114
166 167 114
165 167 114
165 167 114
166 168 114
166 168 114
166 168 114
166 168 114
167 168 114
167 168 114
167 168 114
167 168 114
167 168 114
168 168 114
168 168 114
167 168 114
168 168 114
169 169 114
169 169 114
169 169 114
170 169 114
169 169 114
170 169 114
170 169 114
171 170 114
170 169 114
171 170 114
171 170 114
171 170 114
172 170 114
173 170 114
172 170 114
173 170 114
172 170 114
173 171 114
173 171 114
174 171 114
174 171 114
174 171 114
175 172 114
175 172 114
176 172 114
176 172 114
176 172 114
176 172 114
177 173 114
178 173 114
177 172 113
178 173 114
177 172 113
176 171 112
175 169 111
179 173 113
179 172 113
171 165 108
175 168 110
172 166 108
169 162 106
167 160 104
162 155 101
162 154 100
156 150 108
137 154 174
145 163 184
147 163 181
153 171 191
135 151 169
144 161 178
146 163 184
148 166 186
154 172 192
143 160 181
152 171 195
145 163 184
157 176 200
153 171 194
151 170 192
151 170 194
152 171 195
155 174 199
148 167 192
150 170 194
149 168 194
156 176 202
154 174 200
157 179 204
152 172 196
158 178 204
158 180 206
161 182 209
154 175 203
162 184 212
157 178 206
152 173 200
157 179 208
156 177 204
163 185 213
154 175 202
154 176 204
154 177 204
156 179 208
160 182 211
159 181 209
155 177 206
157 179 208
156 177 206
156 179 209
157 179 208
146 167 195
162 185 214
153 175 203
153 175 204
160 183 213
151 173 202
152 174 203
153 175 204
158 181 212
153 177 208
156 179 208
157 180 209
153 176 206
152 175 204
151 175 204
152 175 204
147 170 199
155 179 209
153 177 208
153 177 207
158 183 214
156 180 211
158 183 214
147 171 200
149 173 203
153 178 209
152 176 207
156 181 212
159 184 217
151 174 204
158 182 213
150 174 206
156 180 212
147 170 199
152 175 206
151 174 204
152 175 206
151 175 206
144 167 196
136 157 184
148 171 200
149 172 202
148 172 202
150 172 202
145 168 196
149 171 200
140 162 190
144 166 194
130 148 172
127 145 169
138 159 186
129 147 171
134 152 175
167 186 210
201 221 248
208 228 255
208 228 255
208 228 255
208 228 255
208 228 255
208 228 255
208 228 255
208 228 255
207 228 255
207 228 255
207 228 255
207 228 255
207 228 255
207 228 255
207 228 255
207 228 255
207 228 255
207 228 255
207 228 255
207 228 255
207 228 255
207 228 255
207 227 255
207 227 255
207 227 255
207 227 255
207 227 255
206 227 255
206 227 255
206 227 255
206 227 255
206 227 255
206 227 255
206 227 255
206 227 255
206 227 255
206 227 255
206 227 255
206 227 255
206 227 255
206 227 255
206 227 255
206 227 255
206 227 255
206 227 255
206 227 255
206 227 255
206 227 255
205 227 255
205 227 255
205 227 255
205 227 255
205 227 255
205 227 255
205 227 255
204 224 253
191 193 217
167 128 142
166 121 134
164 121 133
164 120 127
164 120 128
166 121 133
166 121 129
166 121 129
164 120 128
166 121 127
167 122 134
166 121 133
166 121 128
162 119 126
165 121 130
165 121 133
164 120 130
165 120 131
164 120 127
166 121 128
166 121 130
166 121 132
165 121 128
163 120 126
164 120 125
166 121 135
166 121 128
165 120 128
167 121 130
167 122 131
165 121 134
166 121 130
166 121 128
165 121 129
166 121 133
167 121 130
164 120 124
166 121 131
164 120 126
162 119 125
165 120 127
165 121 129
163 120 125
166 121 125
163 120 129
166 121 131
164 120 128
164 120 128
165 120 128
162 119 128
165 120 127
165 120 130
166 121 129
163 120 129
165 120 129
165 121 133
166 121 128
165 121 130
165 121 130
164 120 130
166 121 130
166 121 132
165 120 131
165 120 131
164 120 132
163 119 128
164 123 131
183 176 197
205 226 255
205 227 255
205 227 255
205 227 255
205 227 255
205 227 255
205 227 255
205 227 255
205 227 255
206 227 255
206 227 255
206 227 255
206 227 255
206 227 255
206 227 255
206 227 255
206 227 255
206 227 255
206 227 255
206 227 255
206 227 255
206 227 255
206 227 255
206 227 255
206 227 255
206 227 255
206 227 255
206 227 255
206 227 255
207 227 255
207 227 255
207 227 255
207 227 255
207 228 255
207 228 255
207 228 255
207 228 255
207 228 255
207 228 255
207 228 255
207 228 255
207 228 255
207 228 255
207 228 255
207 228 255
207 228 255
207 228 255
208 228 255
208 228 255
208 228 255
208 228 255
208 228 255
208 228 255
208 228 255
208 228 255
208 228 255
200 218 240
166 172 163
157 155 110
159 156 104
169 166 110
170 168 112
168 167 112
170 169 113
170 169 114
169 169 114
169 169 114
168 168 114
168 168 114
167 168 114
166 168 114
166 167 114
165 167 114
165 167 114
165 167 114
165 167 114
165 167 114
165 167 114
165 167 114
165 167 114
164 167 114
164 167 114
164 167 114
164 167 114
164 167 114
164 167 114
164 167 114
164 167 114
164 167 114
165 167 114
164 167 114
165 167 114
165 167 114
165 167 114
165 167 114
165 167 114
165 167 114
165 167 114
165 167 114
166 167 114
166 167 114
166 167 114
166 167 114
166 167 114
166 168 114
166 168 114
166 168 114
167 168 114
167 168 114
167 168 114
168 168 114
167 168 114
168 168 114
168 168 114
168 169 114
169 169 114
169 169 114
169 169 114
169 169 114
169 169 114
170 169 114
170 169 114
171 170 114
170 169 114
171 170 114
171 170 114
171 170 114
172 170 114
172 170 114
172 170 114
172 170 114
173 171 114
174 171 114
174 171 114
174 171 114
174 171 114
175 171 114
175 172 114
176 172 114
176 172 114
176 172 114
177 172 114
177 172 114
178 173 114
178 173 114
177 173 114
179 173 114
179 173 114
179 173 114
178 173 113
180 174 114
174 168 110
180 173 113
176 169 110
173 166 108
170 164 107
168 161 104
169 161 104
142 159 178
145 162 184
143 160 178
144 160 181
145 162 181
146 164 183
148 166 188
138 156 177
146 165 186
152 172 194
151 171 195
151 171 194
149 168 191
154 174 198
152 171 194
150 169 190
145 163 187
150 169 191
155 174 200
152 173 196
150 170 196
152 172 196
152 172 199
159 180 207
161 182 209
157 177 204
153 173 198
151 171 196
152 174 200
153 173 200
152 173 200
159 180 208
160 181 208
159 180 208
153 174 199
159 181 209
160 182 211
157 180 209
163 186 216
153 176 204
159 182 212
158 181 209
164 187 217
160 183 213
159 182 212
159 182 212
154 176 206
156 177 206
158 182 212
153 175 203
159 183 213
156 179 209
154 176 204
159 182 212
162 186 217
154 178 208
154 177 207
156 179 209
151 174 203
159 182 212
159 182 212
158 181 212
159 183 214
159 183 213
159 183 214
156 180 211
160 184 216
155 178 209
152 175 206
147 170 199
159 184 216
156 180 212
156 180 212
156 181 212
153 178 209
150 173 203
153 177 207
155 179 211
155 179 211
157 182 214
147 171 200
149 172 202
152 176 207
150 173 203
157 181 213
151 174 204
155 179 209
153 177 208
147 170 199
153 177 207
140 162 190
149 172 202
148 170 199
146 169 198
137 158 184
138 158 184
143 165 192
141 162 188
138 158 184
130 148 172
126 143 165
160 179 205
187 205 231
208 228 255
208 228 255
208 228 255
208 228 255
208 228 255
208 228 255
208 228 255
208 228 255
208 228 255
208 228 255
208 228 255
207 228 255
207 228 255
207 228 255
207 228 255
207 228 255
207 228 255
207 228 255
207 228 255
207 228 255
207 228 255
207 228 255
207 228 255
207 228 255
207 228 255
207 227 255
207 227 255
207 227 255
207 227 255
207 227 255
206 227 255
206 227 255
206 227 255
206 227 255
206 227 255
206 227 255
206 227 255
206 227 255
206 227 255
206 227 255
206 227 255
206 227 255
206 227 255
206 227 255
206 227 255
206 227 255
206 227 255
206 227 255
206 227 255
206 227 255
206 227 255
206 227 255
201 217 244
174 150 165
164 120 129
165 121 135
163 120 129
163 119 126
165 121 131
166 121 132
164 120 131
165 120 129
166 121 130
166 121 132
166 121 131
164 120 126
167 121 132
164 120 130
163 119 129
167 122 134
164 120 128
167 121 132
163 119 126
165 121 131
166 121 133
164 121 131
167 122 133
165 121 131
163 120 125
165 120 125
166 121 131
163 120 126
162 119 128
164 119 123
164 120 123
164 120 129
165 120 125
165 121 130
164 120 127
166 121 129
165 120 126
167 121 130
165 121 130
165 121 133
166 121 129
168 122 132
164 120 126
166 121 129
164 120 128
164 120 127
164 120 126
165 121 129
166 121 130
166 121 127
165 120 124
165 121 130
165 121 130
164 120 126
165 120 128
165 120 127
164 120 130
166 121 129
163 120 125
165 121 130
166 121 133
165 121 131
167 121 131
164 120 129
165 120 130
162 119 126
165 121 133
161 119 126
165 120 131
174 149 163
201 215 242
206 227 255
206 227 255
206 227 255
206 227 255
206 227 255
206 227 255
206 227 255
206 227 255
206 227 255
206 227 255
206 227 255
206 227 255
206 227 255
206 227 255
206 227 255
206 227 255
206 227 255
206 227 255
206 227 255
206 227 255
206 227 255
206 227 255
207 227 255
207 227 255
207 227 255
207 227 255
207 227 255
207 228 255
207 228 255
207 228 255
207 228 255
207 228 255
207 228 255
207 228 255
207 228 255
207 228 255
207 228 255
207 228 255
207 228 255
207 228 255
207 228 255
208 228 255
208 228 255
208 228 255
208 228 255
208 228 255
208 228 255
208 228 255
208 228 255
208 228 255
208 228 255
208 228 255
192 207 221
175 178 158
165 161 106
166 163 108
165 163 109
169 167 112
171 170 114
170 169 114
169 169 114
168 168 114
168 168 114
167 168 114
167 168 114
166 168 114
166 167 114
165 167 114
165 167 114
165 167 114
165 167 114
164 167 114
164 167 114
164 167 114
164 167 114
164 167 114
164 166 114
164 166 114
164 166 114
163 166 114
164 166 114
164 166 114
164 166 114
163 166 114
164 166 114
164 167 114
164 166 114
164 166 114
164 166 114
164 167 114
164 167 114
164 167 114
164 167 114
164 167 114
165 167 114
165 167 114
165 167 114
165 167 114
165 167 114
165 167 114
166 167 114
166 167 114
166 167 114
166 168 114
167 168 114
167 168 114
167 168 114
167 168 114
167 168 114
167 168 114
168 168 114
168 168 114
168 169 114
168 168 114
169 169 114
169 169 114
169 169 114
170 169 114
170 169 114
170 169 114
170 169 114
170 169 114
171 170 114
171 170 114
171 170 114
172 170 114
172 170 114
173 170 114
172 170 114
173 170 114
174 171 114
173 171 114
174 171 114
174 171 114
174 171 114
174 171 114
176 172 114
176 172 114
176 172 114
176 172 114
176 172 114
177 172 114
177 172 114
178 173 114
178 173 114
179 173 114
179 173 114
178 173 113
180 174 114
179 173 113
180 174 114
178 172 113
179 173 113
177 170 111
173 166 108
174 167 109
143 159 178
148 165 187
143 161 180
147 165 184
146 164 183
150 168 187
143 161 181
159 178 202
158 177 202
155 174 196
153 172 191
155 175 198
159 179 203
153 172 198
154 174 199
157 177 202
154 174 199
143 162 184
163 183 208
155 174 200
151 172 198
158 178 204
158 178 203
156 176 199
159 179 204
159 180 208
163 185 213
159 180 207
160 181 209
158 180 208
164 186 214
158 179 207
158 179 206
156 177 203
160 182 211
163 185 214
162 184 213
157 179 206
162 183 212
162 184 214
161 184 213
161 182 209
160 182 211
162 185 216
162 186 216
153 175 203
161 184 214
156 179 209
156 179 208
156 177 206
155 178 207
159 183 213
153 175 204
160 183 214
159 183 213
160 183 213
156 180 211
156 181 212
162 188 220
164 188 220
159 183 214
156 180 211
156 180 211
156 180 211
159 183 214
156 180 212
156 181 212
151 175 206
160 185 217
155 178 209
155 179 211
158 182 213
159 184 216
154 177 208
153 177 208
160 184 216
154 178 209
152 177 208
154 178 209
157 181 213
157 181 212
155 179 209
146 169 199
150 174 204
153 177 208
159 184 216
151 173 203
149 173 204
150 174 204
147 170 199
147 171 200
148 170 199
153 177 207
146 169 198
149 171 200
140 161 188
150 173 202
147 169 196
143 164 191
150 171 199
144 164 191
127 146 169
141 160 186
148 166 189
186 205 230
207 227 254
208 228 255
208 228 255
208 228 255
208 228 255
208 228 255
208 228 255
208 228 255
208 228 255
208 228 255
208 228 255
208 228 255
208 228 255
207 228 255
207 228 255
207 228 255
207 228 255
207 228 255
207 228 255
207 228 255
207 228 255
207 228 255
207 228 255
207 228 255
207 228 255
207 228 255
207 228 255
207 228 255
207 227 255
207 227 255
207 227 255
207 227 255
207 227 255
206 227 255
206 227 255
206 227 255
206 227 255
206 227 255
206 227 255
206 227 255
206 227 255
206 227 255
206 227 255
206 227 255
206 227 255
206 227 255
206 227 255
206 227 255
206 227 255
190 191 214
165 125 137
166 121 132
166 121 133
166 121 133
164 120 129
164 120 126
163 119 126
165 121 129
162 119 121
164 120 126
167 121 131
166 121 129
163 120 129
166 121 133
164 120 124
166 121 126
164 120 132
166 120 124
165 120 127
167 121 132
164 120 126
165 120 124
163 119 120
164 120 130
166 121 130
166 121 130
166 121 133
165 121 130
165 120 126
167 122 132
165 120 130
164 120 130
165 121 132
163 119 124
167 121 130
164 120 126
164 120 128
164 120 126
166 121 130
165 120 123
164 120 124
163 120 125
167 121 131
161 119 123
167 121 128
167 122 132
165 120 128
165 121 128
166 121 132
165 120 126
165 121 127
163 119 123
164 120 124
164 120 125
163 120 124
165 120 126
164 120 126
164 119 128
164 120 130
165 120 129
166 121 130
163 120 128
166 121 134
166 121 132
165 121 130
165 121 129
165 120 131
163 120 129
164 119 126
164 120 131
163 119 125
165 121 131
168 129 142
187 186 208
206 227 255
206 227 255
206 227 255
206 227 255
206 227 255
206 227 255
206 227 255
206 227 255
206 227 255
206 227 255
206 227 255
206 227 255
206 227 255
206 227 255
206 227 255
206 227 255
207 227 255
207 227 255
207 227 255
207 227 255
207 227 255
207 228 255
207 228 255
207 228 255
207 228 255
207 228 255
207 228 255
207 228 255
207 228 255
207 228 255
207 228 255
207 228 255
207 228 255
207 228 255
207 228 255
207 228 255
208 228 255
208 228 255
208 228 255
208 228 255
208 228 255
208 228 255
208 228 255
208 228 255
208 228 255
208 228 255
208 228 255
208 228 255
208 228 255
190 204 218
160 164 148
163 159 105
166 163 109
171 169 113
169 167 112
170 169 113
170 169 114
169 169 114
168 168 114
168 168 114
167 168 114
167 168 114
166 167 114
165 167 114
165 167 114
165 167 114
164 167 114
164 167 114
164 167 114
164 166 114
164 166 114
163 166 114
163 166 114
163 166 114
163 166 114
163 166 114
163 166 114
163 166 114
163 166 114
163 166 114
163 166 114
163 166 114
163 166 114
163 166 114
163 166 114
164 166 114
164 166 114
164 166 114
164 166 114
164 167 114
164 167 114
164 167 114
165 167 114
165 167 114
164 167 114
165 167 114
165 167 114
165 167 114
165 167 114
165 167 114
166 167 114
166 167 114
166 167 114
166 168 114
166 168 114
167 168 114
167 168 114
167 168 114
168 168 114
168 168 114
168 168 114
168 168 114
168 169 114
168 168 114
169 169 114
169 169 114
169 169 114
170 169 114
170 169 114
169 169 114
170 169 114
171 170 114
171 170 114
171 170 114
171 170 114
172 170 114
172 170 114
173 170 114
172 170 114
173 171 114
174 171 114
174 171 114
175 171 114
174 171 114
174 171 114
175 171 114
175 171 114
176 172 114
176 172 114
176 172 114
176 172 114
177 172 114
177 173 114
177 172 114
177 173 114
178 173 114
179 173 114
179 173 114
179 174 114
180 174 114
179 173 113
181 174 114
180 173 113
181 174 113
179 172 112
152 169 187
148 166 186
153 173 195
150 168 188
144 161 180
144 161 178
153 172 194
144 162 181
150 168 188
149 168 191
158 177 200
148 167 187
152 172 198
152 170 195
149 169 192
151 170 194
159 180 206
164 185 212
161 181 206
158 177 202
157 176 202
157 178 204
152 171 196
163 185 213
160 181 204
158 178 206
156 176 203
161 182 211
160 181 208
158 179 207
155 175 202
160 181 208
156 178 206
158 180 208
163 184 213
160 182 211
162 184 212
162 185 214
157 178 206
160 181 209
155 178 207
159 181 211
160 182 211
157 179 208
161 184 214
154 177 207
162 186 217
158 182 212
159 182 212
157 181 211
162 185 216
162 186 217
160 183 214
163 186 217
150 172 200
163 187 218
158 182 213
155 178 208
157 181 212
163 188 220
165 190 223
160 184 214
160 184 216
160 183 214
161 186 218
161 185 217
161 186 218
157 181 212
161 186 218
154 178 208
157 181 213
155 179 211
158 183 214
157 181 212
160 185 217
154 178 209
155 179 209
157 181 212
151 175 206
159 184 216
158 182 214
150 173 203
154 178 209
146 169 198
154 178 208
151 175 206
149 173 203
159 183 214
151 175 206
154 178 208
154 178 209
150 173 203
154 177 208
152 176 207
150 173 203
143 164 192
146 168 196
146 168 196
139 160 187
141 162 188
149 171 199
140 160 186
135 155 180
143 163 190
137 155 180
148 166 191
187 206 232
208 228 255
208 228 255
208 228 255
208 228 255
208 228 255
208 228 255
208 228 255
208 228 255
208 228 255
208 228 255
208 228 255
208 228 255
208 228 255
208 228 255
208 228 255
208 228 255
207 228 255
207 228 255
207 228 255
207 228 255
207 228 255
207 228 255
207 228 255
207 228 255
207 228 255
207 228 255
207 228 255
207 228 255
207 228 255
207 228 255
207 228 255
207 228 255
207 227 255
207 227 255
207 227 255
207 227 255
207 227 255
206 227 255
206 227 255
206 227 255
206 227 255
206 227 255
206 227 255
206 227 255
206 227 255
205 225 253
181 168 188
165 120 132
162 118 128
162 118 127
162 118 128
166 120 127
165 121 129
165 121 129
167 121 132
164 120 127
163 119 125
166 121 132
166 121 128
163 119 129
161 118 121
165 120 124
164 120 126
168 122 128
165 120 128
164 120 130
168 122 132
166 121 130
163 119 123
167 121 128
165 121 129
167 121 132
163 119 123
166 121 128
165 120 125
168 122 133
164 120 126
164 120 129
163 120 124
166 121 132
165 120 125
164 120 126
165 120 127
165 120 124
164 120 125
166 121 126
165 121 131
167 122 132
165 120 126
167 121 130
166 121 127
165 120 128
165 120 126
164 120 122
166 120 129
166 121 130
165 120 126
165 120 120
165 121 127
165 120 126
161 118 123
165 121 130
165 120 123
164 120 124
167 121 129
165 121 133
163 119 127
166 121 130
166 121 127
166 121 131
165 120 126
166 121 131
165 120 127
166 120 129
165 120 129
164 120 130
164 120 129
163 119 124
165 120 130
165 120 131
164 120 128
168 122 135
178 162 180
205 224 252
206 227 255
206 227 255
206 227 255
206 227 255
206 227 255
206 227 255
206 227 255
206 227 255
207 227 255
207 227 255
207 227 255
207 227 255
207 227 255
207 227 255
207 228 255
207 228 255
207 228 255
207 228 255
207 228 255
207 228 255
207 228 255
207 228 255
207 228 255
207 228 255
207 228 255
207 228 255
207 228 255
207 228 255
207 228 255
208 228 255
208 228 255
208 228 255
208 228 255
208 228 255
208 228 255
208 228 255
208 228 255
208 228 255
208 228 255
208 228 255
208 228 255
208 228 255
208 228 255
208 228 255
208 228 255
189 202 215
166 164 126
165 161 107
172 169 112
170 168 112
172 170 114
170 169 113
170 169 114
169 169 114
168 168 114
168 168 114
167 168 114
166 167 114
166 167 114
165 167 114
165 167 114
165 167 114
164 167 114
164 167 114
163 166 114
163 166 114
163 166 114
163 166 114
163 166 114
163 166 114
163 166 114
163 166 114
163 166 114
163 166 114
163 166 114
163 166 114
163 166 114
163 166 114
163 166 114
163 166 114
163 166 114
163 166 114
163 166 114
163 166 114
163 166 114
163 166 114
163 166 114
164 166 114
164 167 114
164 167 114
164 167 114
164 167 114
165 167 114
165 167 114
165 167 114
165 167 114
165 167 114
165 167 114
166 167 114
165 167 114
166 167 114
166 168 114
166 168 114
167 168 114
167 168 114
167 168 114
167 168 114
167 168 114
168 168 114
168 168 114
168 168 114
168 168 114
169 169 114
169 169 114
169 169 114
169 169 114
169 169 114
170 169 114
170 169 114
171 169 114
171 170 114
171 170 114
172 170 114
171 170 114
172 170 114
172 170 114
172 170 114
173 171 114
173 171 114
173 171 114
173 171 114
174 171 114
174 171 114
174 171 114
174 171 114
175 171 114
176 172 114
176 172 114
176 172 114
176 172 114
176 172 114
177 173 114
177 173 114
178 173 114
178 173 114
179 173 114
179 174 114
179 174 114
179 174 114
179 173 113
180 173 113
180 173 113
181 174 113
155 172 192
158 176 194
146 164 184
154 172 191
155 174 195
148 166 188
154 173 195
156 174 196
158 177 200
156 175 199
152 171 191
154 173 198
153 172 195
154 173 196
156 176 202
155 175 199
155 175 198
157 176 202
157 177 202
156 176 200
158 179 203
159 180 207
166 189 217
150 170 195
157 177 202
156 177 202
162 184 211
161 182 208
158 180 208
159 180 208
162 183 211
150 170 196
158 180 209
161 184 212
160 182 212
158 180 208
159 182 211
162 184 213
161 184 213
166 189 217
165 187 216
161 184 212
162 185 212
166 189 219
163 185 214
164 188 218
158 181 209
168 192 223
165 189 219
164 188 218
161 185 216
155 177 206
161 185 216
159 183 213
164 187 218
154 176 206
158 181 211
163 187 218
166 190 221
157 181 212
156 180 211
165 189 221
160 183 214
153 176 207
153 176 206
163 187 219
159 183 214
157 181 212
152 175 206
156 180 211
159 184 216
156 179 209
158 182 213
154 178 208
159 184 217
151 174 204
160 185 217
158 182 213
153 178 209
159 184 217
159 184 217
157 181 213
155 179 211
155 179 211
156 181 212
162 187 220
158 183 216
159 184 216
157 182 213
157 182 213
152 175 206
149 173 203
151 174 204
146 169 198
155 179 209
156 179 209
152 175 206
148 170 199
151 174 203
145 167 195
149 172 202
153 176 206
144 166 194
129 148 172
133 151 175
138 158 183
131 149 172
151 169 194
194 214 240
208 228 255
208 228 255
208 228 255
208 228 255
208 228 255
208 228 255
208 228 255
208 228 255
208 228 255
208 228 255
208 228 255
208 228 255
208 228 255
208 228 255
208 228 255
208 228 255
208 228 255
208 228 255
208 228 255
207 228 255
207 228 255
207 228 255
207 228 255
207 228 255
207 228 255
207 228 255
207 228 255
207 228 255
207 228 255
207 228 255
207 228 255
207 228 255
207 228 255
207 228 255
207 228 255
207 227 255
207 227 255
207 227 255
207 227 255
207 227 255
207 227 255
206 227 255
201 216 243
173 144 158
164 120 129
165 121 132
159 117 125
164 119 128
163 120 131
163 120 126
163 119 126
165 121 126
167 121 131
167 122 132
162 119 122
167 121 130
164 120 126
164 120 127
164 119 126
160 117 117
166 121 129
166 121 131
167 121 127
164 120 124
166 121 131
164 120 126
166 121 130
164 120 127
163 120 126
166 121 127
164 120 130
163 120 125
169 122 130
164 120 128
163 120 123
164 119 123
165 120 126
166 121 130
164 120 125
164 120 124
163 119 123
166 121 130
165 120 129
167 122 130
164 120 123
165 120 124
167 122 132
165 120 127
164 120 123
164 120 124
165 120 127
164 120 124
165 120 123
163 119 124
165 120 124
163 120 126
169 122 130
165 120 126
165 120 120
164 120 125
163 119 123
165 120 124
165 120 125
164 120 123
165 119 123
166 120 128
164 120 123
165 121 129
166 120 128
165 121 133
166 121 128
162 119 128
165 120 126
165 120 124
163 119 128
164 119 125
165 120 126
163 120 126
166 121 130
164 120 129
165 120 132
173 148 163
203 220 247
206 227 255
207 227 255
207 227 255
207 227 255
207 227 255
207 227 255
207 227 255
207 228 255
207 228 255
207 228 255
207 228 255
207 228 255
207 228 255
207 228 255
207 228 255
207 228 255
207 228 255
207 228 255
207 228 255
207 228 255
207 228 255
207 228 255
208 228 255
208 228 255
208 228 255
208 228 255
208 228 255
208 228 255
208 228 255
208 228 255
208 228 255
208 228 255
208 228 255
208 228 255
208 228 255
208 228 255
208 228 255
208 228 255
208 228 255
208 228 255
208 228 255
208 228 255
189 203 215
168 171 147
165 161 107
168 164 109
170 167 112
171 169 113
171 170 114
170 169 114
169 169 114
167 168 114
167 168 114
166 168 114
166 167 114
166 167 114
165 167 114
165 167 114
164 167 114
164 166 114
164 166 114
163 166 114
163 166 114
163 166 114
163 166 114
163 166 114
163 166 114
162 166 114
163 166 114
162 166 114
163 166 114
162 166 114
163 166 114
162 166 114
163 166 114
163 166 114
163 166 114
163 166 114
163 166 114
163 166 114
163 166 114
163 166 114
163 166 114
163 166 114
163 166 114
163 166 114
164 166 114
164 166 114
164 167 114
164 167 114
164 167 114
164 167 114
165 167 114
165 167 114
165 167 114
165 167 114
165 167 114
166 167 114
166 167 114
166 167 114
166 167 114
167 168 114
167 168 114
167 168 114
167 168 114
167 168 114
167 168 114
167 168 114
168 168 114
168 168 114
168 168 114
168 168 114
168 169 114
169 169 114
169 169 114
170 169 114
170 169 114
170 169 114
170 169 114
171 170 114
171 170 114
171 170 114
171 170 114
171 170 114
172 170 114
172 170 114
173 170 114
173 171 114
173 171 114
174 171 114
174 171 114
175 171 114
175 171 114
175 171 114
175 171 114
175 172 114
176 172 114
176 172 114
176 172 114
177 172 114
177 172 114
177 173 114
178 173 114
178 173 114
178 173 114
179 173 114
179 173 114
180 174 114
179 174 114
180 174 114
181 174 114
180 173 113
160 178 198
158 177 198
151 170 195
155 173 190
143 160 180
153 171 192
152 171 195
152 170 190
156 175 198
163 183 206
158 177 199
154 174 198
157 177 199
157 176 199
157 176 202
154 174 198
157 177 203
156 176 202
162 183 211
162 183 211
159 180 207
158 179 204
162 182 207
156 176 202
157 178 203
154 174 200
160 181 207
160 181 208
160 182 209
157 178 204
162 184 212
162 184 212
165 186 214
160 182 211
166 189 218
162 185 214
163 185 214
165 188 216
166 189 219
163 186 216
162 184 212
158 180 208
162 185 214
158 180 208
161 185 216
165 188 219
160 182 212
163 187 218
164 187 218
160 183 213
167 192 224
162 185 216
165 189 219
161 185 217
164 187 217
159 182 212
159 183 213
153 175 204
153 177 207
162 186 217
162 187 218
160 184 216
166 190 221
161 185 216
161 185 217
161 186 218
159 184 216
161 185 217
161 186 218
157 181 212
162 187 219
160 185 217
158 183 214
159 183 214
155 180 211
163 188 220
162 188 220
158 183 214
162 187 219
158 183 216
151 175 206
158 182 214
156 180 212
158 183 214
156 180 211
153 176 207
150 174 204
152 176 207
161 186 218
156 181 213
154 177 208
161 186 218
159 184 216
153 177 208
151 174 204
149 171 200
162 187 219
148 170 198
149 171 200
148 170 199
154 176 206
144 165 194
146 167 195
143 165 194
140 161 187
146 167 194
134 153 178
132 150 174
128 146 169
149 166 189
198 218 244
209 229 255
209 228 255
208 228 255
208 228 255
208 228 255
208 228 255
208 228 255
208 228 255
208 228 255
208 228 255
208 228 255
208 228 255
208 228 255
208 228 255
208 228 255
208 228 255
208 228 255
208 228 255
208 228 255
208 228 255
208 228 255
208 228 255
208 228 255
207 228 255
207 228 255
207 228 255
207 228 255
207 228 255
207 228 255
207 228 255
207 228 255
207 228 255
207 228 255
207 228 255
207 228 255
207 228 255
207 228 255
207 228 255
207 228 255
199 212 238
173 141 157
161 118 130
164 121 133
165 120 129
162 119 127
166 120 128
165 120 130
164 120 129
163 120 127
164 120 126
163 119 123
165 120 129
163 119 126
166 121 128
167 121 130
163 119 126
165 120 127
161 119 123
165 120 128
162 119 119
165 120 126
166 121 130
165 120 127
165 120 124
163 119 127
164 120 125
167 121 129
166 121 127
166 121 126
165 120 124
165 120 126
164 120 124
163 120 126
164 120 126
164 120 126
166 120 126
167 121 128
163 119 123
163 120 126
164 120 130
166 121 128
164 119 123
168 122 130
166 121 129
167 121 128
165 120 126
164 120 123
166 121 126
165 120 127
168 121 129
166 121 130
165 121 128
165 120 124
167 121 126
163 119 123
165 120 126
165 120 124
163 119 123
163 119 121
166 121 129
167 121 130
166 121 126
164 119 122
164 119 121
165 120 127
166 121 129
166 120 130
165 120 124
165 120 127
163 119 126
165 120 128
163 119 124
163 119 124
165 120 129
163 119 126
166 120 129
165 120 127
166 121 131
163 119 123
164 120 131
167 134 145
200 212 237
207 228 255
207 228 255
207 228 255
207 228 255
207 228 255
207 228 255
207 228 255
207 228 255
207 228 255
207 228 255
207 228 255
207 228 255
207 228 255
207 228 255
207 228 255
207 228 255
208 228 255
208 228 255
208 228 255
208 228 255
208 228 255
208 228 255
208 228 255
208 228 255
208 228 255
208 228 255
208 228 255
208 228 255
208 228 255
208 228 255
208 228 255
208 228 255
208 228 255
208 228 255
208 228 255
208 228 255
208 228 255
209 228 255
209 229 255
198 215 235
163 166 147
164 160 106
170 166 110
169 167 112
172 170 114
170 169 114
170 169 114
169 169 114
168 168 114
167 168 114
166 168 114
166 168 114
165 167 114
165 167 114
164 167 114
164 167 114
164 167 114
163 166 114
163 166 114
163 166 114
163 166 114
163 166 114
163 166 114
163 166 114
163 166 114
162 166 114
162 166 114
162 166 114
162 166 114
162 166 114
162 166 114
162 166 114
162 166 114
162 166 114
163 166 114
162 166 114
163 166 114
163 166 114
163 166 114
163 166 114
163 166 114
163 166 114
163 166 114
164 166 114
164 166 114
164 167 114
164 166 114
164 167 114
164 167 114
165 167 114
165 167 114
165 167 114
165 167 114
165 167 114
165 167 114
166 167 114
166 167 114
166 167 114
166 168 114
166 168 114
167 168 114
166 168 114
167 168 114
167 168 114
168 168 114
168 168 114
168 168 114
168 168 114
168 168 114
169 169 114
168 168 114
169 169 114
170 169 114
169 169 114
170 169 114
170 169 114
170 169 114
170 169 114
171 170 114
171 170 114
171 170 114
172 170 114
172 170 114
172 170 114
172 170 114
172 170 114
173 171 114
173 171 114
173 171 114
174 171 114
174 171 114
175 171 114
175 171 114
175 171 114
175 172 114
176 172 114
176 172 114
176 172 114
177 172 114
177 172 114
177 173 114
177 172 114
179 173 114
178 173 114
179 173 114
178 173 114
179 173 114
180 174 114
179 173 114
180 174 114
181 174 114
152 170 188
157 176 195
155 175 199
152 172 194
153 170 191
161 182 208
163 182 204
162 182 207
155 175 198
151 170 191
160 180 200
162 181 203
166 186 209
163 183 208
160 180 202
161 180 202
158 179 203
161 180 203
164 184 209
165 186 213
161 182 209
159 180 207
164 185 213
163 185 212
164 185 212
161 183 209
160 182 208
163 183 211
163 184 211
164 186 214
165 187 216
162 185 216
164 188 218
163 186 216
166 188 217
165 186 212
162 184 213
165 187 216
164 187 218
163 186 216
166 190 220
162 185 214
165 189 218
163 186 217
164 187 217
167 190 221
163 188 219
165 188 219
165 188 219
164 187 218
164 186 216
163 186 217
165 190 221
162 185 216
157 180 211
164 188 219
161 185 214
165 188 219
162 186 217
164 188 220
159 184 216
162 186 217
162 185 216
166 190 221
162 187 218
161 186 217
163 187 219
160 184 216
164 190 223
163 188 220
158 183 214
165 190 223
155 179 211
160 185 217
162 188 220
163 189 221
154 178 209
162 187 219
153 176 207
161 186 218
163 189 222
158 183 216
156 180 212
161 186 219
160 185 218
150 174 204
157 182 214
155 180 212
155 179 211
154 178 209
159 184 217
153 177 208
156 180 211
159 184 216
154 177 208
150 173 202
151 174 203
155 180 211
156 180 211
142 164 192
147 170 199
147 170 199
148 171 200
149 172 202
146 168 196
152 173 200
148 170 199
135 155 180
138 157 183
129 147 171
135 153 176
170 189 213
204 223 250
209 229 255
209 229 255
209 229 255
209 229 255
209 228 255
209 228 255
208 228 255
208 228 255
208 228 255
208 228 255
208 228 255
208 228 255
208 228 255
208 228 255
208 228 255
208 228 255
208 228 255
208 228 255
208 228 255
208 228 255
208 228 255
208 228 255
208 228 255
208 228 255
208 228 255
208 228 255
208 228 255
207 228 255
207 228 255
207 228 255
207 228 255
207 228 255
207 228 255
207 228 255
207 228 255
207 228 255
193 197 220
166 127 138
163 120 129
163 119 128
162 119 126
165 121 132
165 120 129
162 119 125
163 119 127
164 120 125
165 120 128
166 121 130
163 120 123
163 120 127
165 120 129
163 120 127
165 121 131
165 120 126
167 121 130
165 120 125
165 120 125
164 120 126
168 121 126
166 121 126
165 121 129
163 120 125
166 120 123
162 119 121
166 121 129
163 119 116
166 121 128
164 120 126
167 121 127
163 119 124
161 118 123
165 120 125
165 120 125
167 121 128
164 120 126
166 121 131
166 121 126
166 120 126
163 119 123
165 120 125
166 121 126
162 119 123
167 121 126
165 120 122
165 120 126
166 121 127
161 118 119
167 121 128
165 121 126
167 121 127
165 120 121
165 120 126
165 120 126
164 120 128
164 120 126
163 119 120
163 119 117
166 121 129
163 120 123
163 119 124
164 120 123
165 120 127
163 119 126
165 120 124
161 119 121
165 120 126
161 118 122
164 120 124
165 120 119
165 120 128
165 120 126
169 122 127
166 120 128
165 119 128
165 120 129
167 121 133
165 120 127
163 119 126
164 119 128
163 120 127
197 208 233
207 228 255
207 228 255
207 228 255
207 228 255
207 228 255
207 228 255
207 228 255
207 228 255
207 228 255
208 228 255
208 228 255
208 228 255
208 228 255
208 228 255
208 228 255
208 228 255
208 228 255
208 228 255
208 228 255
208 228 255
208 228 255
208 228 255
208 228 255
208 228 255
208 228 255
208 228 255
208 228 255
208 228 255
208 228 255
208 228 255
209 228 255
209 228 255
209 229 255
209 229 255
209 229 255
209 229 255
205 222 245
172 177 163
163 159 109
168 164 109
172 169 112
170 168 112
171 170 114
170 169 114
169 169 114
168 168 114
167 168 114
167 168 114
166 167 114
165 167 114
165 167 114
165 167 114
164 167 114
164 166 114
164 166 114
163 166 114
163 166 114
163 166 114
163 166 114
163 166 114
162 166 114
162 166 114
162 166 114
162 166 114
162 166 114
162 166 114
162 166 114
162 166 114
162 166 114
162 166 114
162 166 114
162 166 114
162 166 114
162 166 114
162 166 114
163 166 114
163 166 114
163 166 114
163 166 114
163 166 114
163 166 114
163 166 114
164 166 114
164 167 114
164 166 114
164 166 114
164 167 114
164 167 114
164 167 114
165 167 114
165 167 114
165 167 114
165 167 114
166 167 114
166 167 114
166 167 114
166 167 114
166 167 114
166 168 114
167 168 114
167 168 114
167 168 114
167 168 114
167 168 114
168 168 114
168 168 114
168 168 114
168 168 114
169 169 114
169 169 114
169 169 114
170 169 114
170 169 114
170 169 114
170 169 114
171 170 114
171 170 114
171 170 114
171 170 114
172 170 114
172 170 114
171 170 114
173 170 114
173 171 114
173 170 114
173 171 114
174 171 114
174 171 114
174 171 114
174 171 114
174 171 114
175 171 114
175 171 114
175 172 114
175 172 114
176 172 114
177 172 114
176 172 114
177 172 114
177 173 114
177 173 114
177 173 114
178 173 114
178 173 114
178 173 114
179 173 114
179 173 114
179 173 114
181 174 114
180 174 114
153 170 191
158 177 198
162 182 207
152 171 190
158 177 198
156 174 192
155 174 198
151 168 190
159 179 204
161 180 204
154 172 194
161 180 203
163 183 206
161 181 206
161 181 206
158 177 199
154 174 196
162 184 211
161 181 202
160 180 204
159 179 202
164 185 211
162 183 206
162 183 208
161 181 207
161 182 209
170 192 220
158 179 204
167 189 216
159 179 206
161 183 211
162 184 211
159 180 204
160 182 209
165 187 213
165 187 216
168 191 220
168 190 219
161 183 212
166 187 216
165 189 219
165 187 216
166 189 218
159 181 211
167 190 219
165 188 218
168 190 220
166 190 220
160 183 213
165 189 219
160 184 214
164 188 219
161 185 216
162 186 217
164 188 218
168 192 223
169 193 224
162 185 216
157 180 209
165 189 221
164 188 219
164 189 220
159 184 216
162 186 218
160 184 216
162 187 219
160 185 217
162 186 218
163 188 220
164 189 221
164 189 220
161 185 217
163 188 220
157 181 212
159 183 214
162 187 219
162 186 217
156 181 212
165 191 225
159 184 216
162 188 220
161 186 218
160 185 217
156 180 211
159 183 214
158 183 216
159 185 217
151 175 206
155 180 211
159 184 216
159 184 216
157 182 213
160 184 216
147 170 199
159 183 214
160 185 217
159 183 214
148 172 202
156 180 211
154 178 208
148 171 200
149 172 202
152 175 206
147 169 198
146 167 195
144 165 193
149 171 199
145 166 192
140 160 187
149 170 198
130 149 172
144 163 188
142 159 182
189 207 232
209 229 255
209 229 255
209 229 255
209 229 255
209 229 255
209 229 255
209 229 255
209 229 255
209 228 255
208 228 255
208 228 255
208 228 255
208 228 255
208 228 255
208 228 255
208 228 255
208 228 255
208 228 255
208 228 255
208 228 255
208 228 255
208 228 255
208 228 255
208 228 255
208 228 255
208 228 255
208 228 255
208 228 255
208 228 255
208 228 255
208 228 255
208 228 255
207 228 255
207 228 255
197 205 230
166 126 137
163 120 128
165 120 127
165 120 125
162 119 125
166 121 132
165 120 126
164 120 131
164 120 129
165 120 127
163 119 123
162 118 120
166 120 128
163 119 123
168 122 132
165 120 126
167 121 126
165 120 124
162 119 121
165 120 128
167 121 130
165 120 124
163 119 119
165 120 126
164 119 125
165 119 123
165 120 127
163 119 122
165 120 123
164 120 125
163 120 125
165 120 126
165 120 123
166 121 129
164 119 119
165 120 128
167 121 127
163 119 118
164 120 125
166 121 131
166 121 124
164 120 125
165 120 126
165 120 124
166 121 128
165 120 123
167 121 129
165 121 126
162 119 123
164 120 124
163 120 129
166 121 124
164 119 119
165 120 127
166 121 127
166 121 129
165 121 128
165 120 123
165 120 125
164 119 121
164 120 124
169 122 131
167 121 127
161 118 118
168 121 128
165 119 121
165 120 126
165 120 128
163 119 126
164 119 124
165 120 125
164 120 126
166 120 128
163 119 120
165 120 123
162 118 120
166 121 132
165 120 124
164 119 124
166 120 130
164 119 123
164 120 130
165 120 126
166 120 130
165 123 131
194 200 224
207 228 255
207 228 255
208 228 255
208 228 255
208 228 255
208 228 255
208 228 255
208 228 255
208 228 255
208 228 255
208 228 255
208 228 255
208 228 255
208 228 255
208 228 255
208 228 255
208 228 255
208 228 255
208 228 255
208 228 255
208 228 255
208 228 255
208 228 255
208 228 255
208 228 255
209 228 255
209 229 255
209 229 255
209 229 255
209 229 255
209 229 255
209 229 255
209 229 255
209 229 255
181 192 196
161 159 120
167 163 108
174 171 113
172 170 113
172 170 114
170 169 114
169 169 114
169 169 114
168 168 114
167 168 114
166 168 114
165 167 114
165 167 114
165 167 114
164 167 114
164 167 114
164 166 114
163 166 114
163 166 114
163 166 114
163 166 114
162 166 114
163 166 114
162 166 114
162 166 114
162 166 114
162 166 114
162 166 114
162 166 114
162 166 114
162 166 114
162 166 114
162 166 114
162 166 114
162 166 114
162 166 114
162 166 114
163 166 114
163 166 114
163 166 114
163 166 114
163 166 114
163 166 114
163 166 114
164 166 114
164 166 114
163 166 114
164 166 114
164 166 114
164 167 114
165 167 114
164 167 114
164 167 114
165 167 114
165 167 114
165 167 114
165 167 114
166 167 114
166 167 114
166 168 114
166 168 114
167 168 114
166 168 114
167 168 114
167 168 114
167 168 114
168 168 114
167 168 114
168 168 114
168 169 114
168 168 114
169 169 114
169 169 114
169 169 114
170 169 114
170 169 114
170 169 114
170 169 114
170 169 114
171 170 114
171 170 114
172 170 114
171 170 114
172 170 114
171 170 114
172 170 114
172 170 114
172 170 114
173 170 114
173 171 114
173 171 114
174 171 114
174 171 114
175 171 114
174 171 114
174 171 114
175 171 114
175 172 114
176 172 114
176 172 114
177 172 114
176 172 114
177 172 114
177 172 114
178 173 114
177 172 114
178 173 114
178 173 114
178 173 114
178 173 114
179 173 114
180 174 114
180 174 114
180 174 114
160 180 200
158 176 192
159 177 199
162 182 203
161 180 204
162 181 204
158 177 198
159 179 198
158 177 198
164 184 211
161 180 198
161 181 206
163 183 206
164 183 207
163 183 206
166 186 212
159 179 203
165 186 211
162 182 206
163 184 207
162 182 207
162 181 207
156 176 203
161 182 206
167 189 217
167 188 212
165 187 216
165 186 214
161 182 209
163 184 212
165 186 213
164 184 209
165 187 213
162 184 213
162 184 212
162 184 211
165 188 217
168 191 218
165 188 218
165 189 219
165 187 216
161 183 212
161 183 212
163 186 216
169 192 221
169 192 223
163 186 216
166 189 219
171 193 221
163 187 217
163 186 217
163 187 217
165 189 220
168 191 221
167 189 219
167 190 221
165 189 219
163 187 217
163 187 218
166 190 221
161 185 216
162 186 217
162 186 217
162 186 217
163 187 218
163 188 219
157 181 212
165 190 223
165 190 221
159 183 214
168 193 226
160 184 216
156 180 211
163 187 219
160 184 216
159 183 214
162 186 217
163 189 221
161 187 219
165 190 223
161 186 218
165 191 224
162 187 219
159 185 217
160 185 217
155 180 212
159 184 216
159 184 216
160 184 216
156 181 213
159 184 217
155 179 211
161 187 219
153 176 207
159 184 217
156 180 211
155 180 212
158 183 215
159 183 214
149 172 202
153 177 208
154 178 208
150 173 203
146 169 198
150 172 202
163 187 218
147 169 198
152 175 204
145 166 194
144 164 191
149 169 195
145 164 190
151 171 198
145 163 187
161 179 203
199 218 243
209 229 255
209 229 255
209 229 255
209 229 255
209 229 255
209 229 255
209 229 255
209 229 255
209 229 255
209 229 255
209 229 255
209 229 255
209 228 255
208 228 255
208 228 255
208 228 255
208 228 255
208 228 255
208 228 255
208 228 255
208 228 255
208 228 255
208 228 255
208 228 255
208 228 255
208 228 255
208 228 255
208 228 255
208 228 255
208 228 255
208 228 255
191 194 217
164 119 129
162 119 126
163 119 127
166 121 128
164 120 130
165 120 122
166 121 129
165 120 125
165 120 125
165 120 127
164 120 128
165 121 129
165 120 126
165 120 127
162 118 122
164 120 121
163 119 126
164 120 124
164 120 126
163 119 125
162 119 118
163 119 119
164 119 125
165 121 126
164 120 125
164 119 118
166 120 123
166 121 127
164 119 120
165 120 123
166 121 125
166 121 126
163 119 119
167 121 125
167 121 127
163 119 125
164 120 124
166 121 125
164 120 126
161 118 119
167 121 129
164 119 124
162 118 120
166 121 127
166 121 125
165 120 125
167 121 130
163 120 123
164 120 122
164 120 124
164 120 127
165 120 124
165 120 123
166 121 133
164 120 122
161 118 119
163 119 123
162 119 123
163 120 125
165 120 121
162 119 123
166 121 126
162 118 122
165 120 126
165 120 125
165 120 128
167 121 125
166 121 126
163 120 125
168 121 125
162 119 125
166 120 123
165 120 124
164 119 122
161 118 122
165 120 123
164 120 127
165 120 127
165 120 127
164 119 124
166 121 129
166 121 131
165 120 130
163 118 122
165 119 125
164 119 125
164 119 128
195 201 224
208 228 255
208 228 255
208 228 255
208 228 255
208 228 255
208 228 255
208 228 255
208 228 255
208 228 255
208 228 255
208 228 255
208 228 255
208 228 255
208 228 255
208 228 255
208 228 255
208 228 255
208 228 255
209 228 255
209 229 255
209 229 255
209 229 255
209 229 255
209 229 255
209 229 255
209 229 255
209 229 255
209 229 255
209 229 255
209 229 255
209 229 255
199 216 237
163 163 138
157 152 101
173 169 112
174 171 114
173 171 114
171 170 114
170 169 114
169 169 114
168 168 114
167 168 114
167 168 114
166 167 114
166 167 114
165 167 114
165 167 114
164 167 114
164 167 114
164 166 114
163 166 114
163 166 114
163 166 114
163 166 114
163 166 114
163 166 114
162 166 114
162 166 114
162 166 114
162 166 114
162 166 114
162 166 114
162 166 114
162 166 114
162 166 114
162 166 114
162 166 114
162 166 114
162 166 114
162 166 114
163 166 114
163 166 114
163 166 114
163 166 114
163 166 114
163 166 114
164 166 114
163 166 114
164 166 114
164 166 114
164 166 114
164 167 114
164 167 114
165 167 114
165 167 114
165 167 114
165 167 114
165 167 114
165 167 114
166 167 114
165 167 114
166 167 114
166 168 114
166 168 114
166 168 114
167 168 114
167 168 114
168 168 114
167 168 114
168 168 114
168 168 114
168 168 114
168 168 114
168 168 114
169 169 114
169 169 114
169 169 114
170 169 114
170 169 114
170 169 114
170 169 114
170 169 114
170 169 114
170 169 114
171 170 114
171 170 114
171 170 114
172 170 114
172 170 114
172 170 114
173 171 114
172 170 114
173 171 114
173 171 114
173 171 114
174 171 114
174 171 114
174 171 114
174 171 114
174 171 114
175 172 114
175 172 114
175 171 114
176 172 114
176 172 114
177 172 114
177 172 114
178 173 114
177 173 114
178 173 114
178 173 114
178 173 114
178 173 114
179 173 114
179 173 114
179 174 114
180 174 114
181 174 114
154 173 192
153 171 192
154 171 192
156 174 195
154 173 195
160 179 199
156 175 196
162 182 204
163 182 204
158 178 202
157 176 196
165 185 208
168 188 213
168 188 214
153 173 191
161 181 206
161 182 207
164 184 212
165 185 209
157 176 202
168 190 216
166 187 213
167 189 216
166 186 212
165 186 211
162 184 212
167 188 213
166 187 214
166 189 216
167 188 216
171 193 219
167 188 212
165 185 209
164 184 212
159 181 208
165 188 217
167 189 218
167 190 219
170 194 224
166 189 219
162 184 212
162 183 212
167 190 220
162 185 214
163 186 216
170 193 224
168 190 220
162 184 214
165 189 219
166 189 219
167 191 220
163 186 214
165 187 217
168 191 220
162 185 216
162 184 214
158 181 211
167 191 223
166 189 220
164 188 219
164 188 218
162 186 217
166 190 221
162 186 217
167 193 226
162 186 218
165 190 221
165 188 219
162 186 218
167 192 224
163 187 218
163 188 220
163 188 220
163 187 219
162 187 218
161 186 218
163 189 221
158 183 214
158 183 214
162 187 219
163 187 219
159 184 216
161 185 217
163 188 220
159 184 216
163 189 221
162 187 219
165 190 223
162 186 218
156 180 211
157 180 211
157 182 213
164 189 221
161 185 217
155 179 211
157 181 212
158 183 214
155 179 209
158 182 213
159 183 214
157 181 212
155 179 209
158 181 212
150 172 202
158 182 213
155 178 208
151 174 203
153 176 206
151 172 199
150 172 199
151 172 200
151 173 200
145 166 191
148 169 195
148 166 191
156 177 203
177 195 220
208 228 254
209 229 255
209 229 255
209 229 255
209 229 255
209 229 255
209 229 255
209 229 255
209 229 255
209 229 255
209 229 255
209 229 255
209 229 255
209 229 255
209 229 255
209 229 255
209 229 255
209 228 255
208 228 255
208 228 255
208 228 255
208 228 255
208 228 255
208 228 255
208 228 255
208 228 255
208 228 255
208 228 255
208 228 255
196 200 224
165 123 132
162 119 128
163 119 130
164 120 122
164 120 131
163 119 124
164 120 126
167 122 131
165 120 127
164 120 125
164 120 125
163 119 128
162 118 123
167 121 129
163 119 123
166 121 126
164 120 123
166 120 127
164 119 125
166 121 128
166 121 126
161 119 121
164 120 129
166 121 125
165 121 132
165 120 129
166 121 125
163 119 119
165 120 123
163 119 123
164 120 124
164 120 123
166 121 126
165 121 129
162 119 126
162 119 120
165 120 123
166 121 131
166 120 126
166 121 128
163 119 124
167 121 130
162 119 121
165 120 123
164 120 128
165 120 120
164 120 126
166 120 126
163 120 123
164 119 119
165 120 125
166 121 126
165 120 124
165 120 120
165 120 124
165 120 123
163 119 120
165 120 125
163 119 119
163 119 125
164 120 126
163 119 118
163 119 122
166 120 126
163 119 125
165 120 123
163 120 127
167 121 128
165 120 126
163 119 123
162 119 122
165 120 127
166 121 128
164 120 125
166 120 126
165 120 124
165 120 125
164 120 123
165 120 128
166 121 128
164 119 128
169 122 133
164 119 127
163 119 128
163 119 124
164 119 126
163 118 126
162 118 124
162 117 124
198 206 230
208 228 255
208 228 255
208 228 255
208 228 255
208 228 255
208 228 255
208 228 255
208 228 255
208 228 255
208 228 255
208 228 255
209 228 255
209 229 255
209 229 255
209 229 255
209 229 255
209 229 255
209 229 255
209 229 255
209 229 255
209 229 255
209 229 255
209 229 255
209 229 255
209 229 255
209 229 255
209 229 255
209 229 255
209 228 253
180 192 203
165 160 109
167 163 108
173 169 112
173 171 114
171 170 114
171 169 114
170 169 114
168 168 114
168 168 114
167 168 114
166 168 114
166 167 114
166 167 114
165 167 114
164 167 114
164 167 114
164 167 114
163 166 114
163 166 114
163 166 114
163 166 114
163 166 114
163 166 114
163 166 114
163 166 114
162 166 114
162 166 114
162 166 114
162 166 114
162 166 114
162 166 114
162 166 114
162 166 114
162 166 114
162 166 114
162 166 114
163 166 114
163 166 114
163 166 114
163 166 114
163 166 114
163 166 114
163 166 114
163 166 114
163 166 114
164 166 114
164 166 114
164 167 114
164 167 114
164 167 114
164 167 114
165 167 114
165 167 114
165 167 114
165 167 114
165 167 114
166 167 114
165 167 114
166 167 114
166 167 114
166 167 114
166 168 114
167 168 114
167 168 114
167 168 114
167 168 114
167 168 114
168 168 114
168 168 114
168 168 114
168 168 114
168 169 114
169 169 114
169 169 114
169 169 114
169 169 114
170 169 114
169 169 114
170 169 114
170 169 114
171 169 114
170 169 114
171 170 114
171 170 114
171 170 114
172 170 114
172 170 114
172 170 114
173 170 114
173 171 114
173 171 114
173 171 114
174 171 114
174 171 114
174 171 114
174 171 114
175 172 114
175 172 114
175 171 114
174 171 114
175 171 114
176 172 114
176 172 114
176 172 114
176 172 114
177 173 114
177 172 114
178 173 114
177 173 114
178 173 114
178 173 114
178 173 114
179 173 114
178 173 114
180 174 114
180 174 114
180 174 114
162 181 203
159 177 194
162 180 198
159 178 198
158 177 196
161 180 203
153 171 192
161 180 202
156 175 198
157 177 198
167 187 212
155 174 196
165 185 207
159 178 198
167 188 214
166 187 209
163 183 208
164 184 208
167 187 213
173 194 220
166 188 213
162 182 206
157 177 202
163 183 206
161 182 204
162 184 211
173 193 218
165 186 214
172 194 223
170 191 219
167 188 216
167 189 216
167 189 218
165 185 213
165 187 213
162 184 211
169 191 219
164 186 212
160 182 209
165 187 214
165 187 217
166 189 218
170 192 221
166 188 216
163 185 214
166 189 218
164 187 217
160 183 211
166 189 218
163 186 216
167 191 221
166 190 220
169 192 221
164 188 218
168 192 223
165 187 217
168 192 223
166 190 221
167 191 223
165 190 221
166 189 220
167 191 223
167 190 221
165 189 220
166 191 223
166 190 221
165 188 219
163 187 218
167 192 224
160 183 214
163 187 218
163 187 218
162 185 216
160 184 216
167 192 225
164 189 220
162 187 218
164 188 220
167 192 225
166 191 223
165 190 223
162 187 219
162 188 220
160 185 217
167 192 225
164 190 223
166 192 225
162 187 219
160 185 217
162 187 219
156 180 212
158 183 215
159 182 213
156 180 211
157 180 211
165 189 222
161 184 215
160 183 213
155 179 209
158 183 215
160 184 216
152 176 206
154 178 208
156 178 208
153 176 206
146 169 198
157 180 211
155 178 208
155 177 207
150 172 200
151 173 201
147 169 196
144 164 190
131 150 174
136 156 181
141 160 186
138 156 180
152 170 192
205 224 250
209 229 255
209 229 255
209 229 255
209 229 255
209 229 255
209 229 255
209 229 255
209 229 255
209 229 255
209 229 255
209 229 255
209 229 255
209 229 255
209 229 255
209 229 255
209 229 255
209 229 255
209 229 255
209 229 255
209 229 255
209 229 255
209 228 255
209 228 255
208 228 255
208 228 255
208 228 255
192 193 214
162 119 126
164 120 131
164 120 129
166 121 130
161 118 122
165 120 129
164 120 125
164 120 126
164 119 122
165 120 126
163 119 126
166 120 125
163 119 121
161 118 118
165 120 128
164 119 116
165 120 122
165 120 125
164 120 123
164 120 125
164 120 125
165 120 123
163 119 124
164 120 126
165 120 124
166 120 124
164 119 121
165 120 127
164 119 123
162 119 118
166 120 121
165 120 125
165 120 123
165 120 122
165 120 121
167 121 129
164 120 125
165 120 125
164 120 124
166 120 126
165 121 127
163 119 120
166 121 126
163 119 123
164 120 126
165 120 124
166 120 121
167 121 128
165 121 126
165 120 126
166 121 125
164 119 122
165 120 119
165 120 123
164 119 122
164 120 123
166 120 124
163 119 120
164 119 119
164 120 128
165 120 123
165 119 120
164 119 125
166 121 129
164 120 123
163 119 120
163 119 126
163 119 123
167 121 127
162 118 119
165 120 126
163 119 117
164 119 123
163 119 120
162 118 121
166 120 127
164 119 125
166 121 130
167 121 130
162 118 121
165 119 120
164 119 120
164 119 122
165 120 128
162 118 125
161 118 121
163 118 121
163 118 122
167 120 127
162 118 125
164 120 126
194 200 222
208 228 255
208 228 255
208 228 255
208 228 255
209 228 255
209 229 255
209 229 255
209 229 255
209 229 255
209 229 255
209 229 255
209 229 255
209 229 255
209 229 255
209 229 255
209 229 255
209 229 255
209 229 255
209 229 255
209 229 255
209 229 255
209 229 255
209 229 255
209 229 255
209 229 255
209 229 255
203 221 244
168 171 152
170 165 109
172 168 111
173 170 113
174 171 114
171 170 114
170 169 114
169 169 114
168 169 114
167 168 114
167 168 114
166 168 114
166 167 114
165 167 114
165 167 114
165 167 114
164 167 114
164 166 114
164 166 114
163 166 114
163 166 114
163 166 114
163 166 114
163 166 114
163 166 114
162 166 114
163 166 114
162 166 114
163 166 114
162 166 114
162 166 114
162 166 114
162 166 114
162 166 114
163 166 114
162 166 114
163 166 114
163 166 114
163 166 114
163 166 114
163 166 114
163 166 114
163 166 114
163 166 114
163 166 114
164 166 114
164 166 114
164 166 114
164 167 114
164 167 114
165 167 114
165 167 114
165 167 114
165 167 114
165 167 114
164 167 114
165 167 114
166 167 114
166 167 114
166 167 114
166 167 114
166 168 114
167 168 114
167 168 114
167 168 114
167 168 114
167 168 114
167 168 114
168 168 114
168 168 114
168 168 114
168 168 114
168 168 114
169 169 114
169 169 114
169 169 114
170 169 114
171 170 114
170 169 114
170 169 114
170 169 114
171 169 114
170 169 114
171 170 114
171 170 114
172 170 114
172 170 114
172 170 114
172 170 114
172 170 114
173 170 114
172 170 114
173 171 114
173 171 114
173 171 114
173 171 114
174 171 114
174 171 114
175 172 114
175 171 114
176 172 114
175 172 114
176 172 114
176 172 114
176 172 114
177 172 114
177 172 114
176 172 114
177 172 114
177 172 114
178 173 114
178 173 114
178 173 114
179 173 114
178 173 114
179 173 114
179 173 114
179 173 114
180 174 114
164 183 203
159 178 199
159 177 198
158 177 199
164 183 207
164 183 202
164 183 207
166 186 211
159 178 198
160 179 200
162 181 206
156 175 196
160 179 200
164 184 208
165 185 209
173 194 220
162 181 207
154 174 198
162 182 204
158 177 200
159 179 196
165 186 212
170 192 216
161 182 208
170 192 217
162 183 208
167 188 213
170 191 219
162 182 208
169 190 218
162 182 206
164 185 209
170 191 219
164 186 213
166 187 212
164 186 214
167 189 217
170 193 220
164 186 214
167 188 217
166 189 218
165 188 217
170 193 220
171 195 226
166 189 217
169 191 220
170 192 221
168 191 219
165 187 216
169 193 224
169 192 223
169 191 220
167 191 223
168 190 218
169 191 220
169 193 224
169 193 224
164 188 219
170 194 224
165 189 219
172 196 228
164 187 218
169 194 226
166 190 219
167 192 224
168 192 223
164 188 219
167 192 224
166 191 223
162 186 217
163 187 219
164 188 219
164 188 220
167 191 223
164 188 219
165 189 220
165 190 221
167 191 223
167 192 225
169 194 226
163 188 219
162 186 217
165 190 222
166 191 224
165 190 223
163 188 220
162 187 219
160 184 216
159 182 213
165 190 223
160 185 217
163 188 220
164 189 221
163 188 221
162 187 218
161 186 217
161 184 215
162 186 219
164 188 219
160 184 216
162 185 216
164 189 221
162 185 216
160 184 216
154 178 208
158 182 213
159 183 213
154 176 206
151 174 203
159 182 213
147 169 197
152 173 202
147 169 198
141 160 184
156 178 207
151 172 199
135 153 177
137 155 178
148 166 190
195 214 239
210 229 255
210 229 255
210 229 255
210 229 255
210 229 255
209 229 255
209 229 255
209 229 255
209 229 255
209 229 255
209 229 255
209 229 255
209 229 255
209 229 255
209 229 255
209 229 255
209 229 255
209 229 255
209 229 255
209 229 255
209 229 255
209 229 255
209 229 255
209 229 255
201 212 237
163 120 130
162 118 126
163 119 127
160 117 122
165 120 125
165 120 126
161 118 121
163 119 126
162 119 122
164 119 124
162 119 123
161 118 120
162 119 117
164 119 122
164 120 128
166 120 123
161 118 119
164 119 124
166 121 129
165 120 127
168 121 131
163 119 121
166 120 127
165 120 122
162 119 123
165 120 122
165 120 125
166 121 123
165 120 123
164 119 118
164 120 125
165 120 123
163 120 124
163 119 120
163 119 121
162 118 118
164 119 122
164 120 123
164 119 121
164 119 123
164 119 122
164 119 117
165 120 125
165 120 123
164 120 123
164 119 117
164 120 126
164 120 123
167 121 126
165 120 123
164 120 124
165 120 122
164 120 126
165 120 121
164 120 123
164 120 125
166 121 124
166 120 122
166 121 126
164 120 124
164 120 122
163 119 119
164 119 123
164 120 123
166 121 126
163 119 119
166 121 127
162 118 116
163 119 118
165 120 127
165 121 130
164 119 123
164 119 123
165 120 123
166 121 130
164 119 124
163 119 122
168 122 132
164 120 122
165 119 123
165 119 124
165 120 124
163 119 119
165 120 126
166 120 123
164 119 123
164 119 126
163 119 124
165 120 124
162 118 119
164 120 129
164 119 127
166 126 133
199 209 232
209 229 255
209 229 255
209 229 255
209 229 255
209 229 255
209 229 255
209 229 255
209 229 255
209 229 255
209 229 255
209 229 255
209 229 255
209 229 255
209 229 255
209 229 255
209 229 255
209 229 255
209 229 255
209 229 255
210 229 255
210 229 255
210 229 255
210 229 255
210 229 255
197 212 227
159 155 110
165 161 107
175 171 114
173 171 114
172 170 114
171 170 114
170 169 114
169 169 114
168 168 114
167 168 114
167 168 114
166 167 114
166 167 114
165 167 114
165 167 114
165 167 114
164 167 114
164 166 114
164 166 114
163 166 114
163 166 114
163 166 114
163 166 114
163 166 114
163 166 114
163 166 114
163 166 114
163 166 114
162 166 114
163 166 114
163 166 114
163 166 114
163 166 114
163 166 114
163 166 114
163 166 114
163 166 114
163 166 114
163 166 114
163 166 114
163 166 114
163 166 114
163 166 114
164 166 114
164 166 114
164 166 114
164 166 114
164 167 114
164 167 114
164 167 114
164 167 114
165 167 114
165 167 114
165 167 114
165 167 114
165 167 114
165 167 114
166 167 114
165 167 114
166 167 114
166 167 114
166 168 114
166 167 114
167 168 114
167 168 114
168 168 114
167 168 114
168 168 114
167 168 114
168 168 114
169 169 114
168 168 114
169 169 114
169 169 114
169 169 114
169 169 114
170 169 114
170 169 114
170 169 114
170 169 114
170 169 114
171 169 114
171 170 114
171 170 114
171 170 114
172 170 114
172 170 114
172 170 114
172 170 114
172 170 114
173 171 114
173 171 114
173 171 114
173 171 114
173 171 114
174 171 114
174 171 114
175 171 114
174 171 114
175 171 114
175 172 114
175 172 114
176 172 114
176 172 114
176 172 114
177 172 114
177 173 114
176 172 114
176 172 114
177 173 114
178 173 114
178 173 114
178 173 114
178 173 114
178 173 114
179 173 114
180 174 114
180 174 114
180 174 114
180 174 114
163 183 204
165 184 208
160 178 195
160 180 198
161 181 202
162 182 199
161 180 196
167 186 207
163 182 204
159 179 200
163 184 203
162 181 204
165 185 209
164 184 207
167 187 211
168 189 214
168 189 217
169 190 209
168 188 211
163 184 204
163 183 207
169 189 217
169 190 218
162 183 204
172 194 218
159 177 200
165 186 209
167 188 214
166 186 211
163 185 211
170 191 218
164 186 211
168 189 214
170 192 217
167 188 216
168 189 217
169 191 219
168 191 219
174 196 224
170 193 221
169 190 216
169 191 217
167 190 219
171 194 224
166 188 217
169 191 220
168 191 221
167 191 220
166 189 219
168 191 221
172 195 224
166 188 218
167 191 221
169 191 220
169 191 219
164 188 219
166 191 223
170 193 224
166 188 218
170 193 223
172 195 226
168 191 221
165 188 217
163 187 217
164 187 218
169 194 226
168 193 225
167 192 224
165 190 221
163 186 217
164 189 220
162 186 217
167 192 224
166 191 224
163 188 219
166 190 221
165 190 221
164 189 220
168 194 226
166 191 223
162 185 216
164 188 220
163 188 219
164 189 221
162 186 218
166 191 223
162 186 217
164 188 221
162 188 220
165 190 223
163 188 220
157 181 213
165 190 223
166 191 224
156 180 211
162 185 217
161 185 217
162 186 217
156 180 211
162 187 219
158 181 211
162 186 217
160 183 213
158 181 212
162 186 217
152 173 203
162 185 216
156 178 208
151 173 202
147 167 195
150 171 200
155 177 207
152 174 202
158 181 211
153 175 203
149 170 196
151 172 199
145 163 187
133 151 174
133 150 172
179 196 220
208 227 253
210 229 255
210 229 255
210 229 255
210 229 255
210 229 255
210 229 255
210 229 255
210 229 255
210 229 255
209 229 255
209 229 255
209 229 255
209 229 255
209 229 255
209 229 255
209 229 255
209 229 255
209 229 255
209 229 255
209 229 255
209 229 255
200 212 237
167 133 145
160 117 123
163 119 128
162 118 123
163 119 122
162 119 124
162 119 123
165 120 128
165 120 126
160 117 117
165 120 128
164 120 122
164 119 126
165 120 124
162 118 122
165 120 119
164 120 128
166 120 123
161 118 120
164 120 125
165 120 123
164 119 123
163 119 122
164 119 120
165 121 128
163 119 121
166 120 124
165 120 128
165 120 123
162 118 123
165 120 126
164 119 121
166 121 128
164 119 120
166 121 126
164 120 122
164 120 124
165 119 118
165 120 126
166 120 124
166 121 125
167 121 125
166 120 126
165 120 121
164 120 125
165 120 123
165 120 123
165 120 123
164 120 126
166 121 129
163 119 120
164 119 122
166 120 127
162 119 118
165 120 123
165 120 125
167 121 123
166 120 123
162 119 122
163 120 123
166 121 124
164 119 119
165 120 123
164 120 124
164 120 123
168 122 130
165 120 123
164 120 122
166 120 124
165 120 131
166 120 123
163 119 123
165 120 124
166 121 130
165 120 121
167 121 129
165 120 124
167 121 126
162 118 116
165 120 123
162 119 125
164 119 121
163 118 119
165 119 122
164 119 121
165 120 127
166 120 124
163 119 125
164 119 123
164 119 125
162 118 120
163 118 121
164 118 123
165 120 127
168 135 144
199 209 233
209 229 255
209 229 255
209 229 255
209 229 255
209 229 255
209 229 255
209 229 255
209 229 255
209 229 255
209 229 255
209 229 255
209 229 255
209 229 255
210 229 255
210 229 255
210 229 255
210 229 255
210 229 255
210 229 255
210 229 255
210 229 255
210 229 255
187 197 200
164 159 104
171 167 110
175 171 114
173 171 114
172 170 114
172 170 114
170 169 114
169 169 114
168 169 114
167 168 114
167 168 114
166 168 114
166 167 114
166 167 114
165 167 114
165 167 114
164 167 114
164 167 114
164 167 114
164 166 114
163 166 114
163 166 114
163 166 114
163 166 114
163 166 114
163 166 114
163 166 114
163 166 114
163 166 114
163 166 114
163 166 114
163 166 114
163 166 114
163 166 114
163 166 114
163 166 114
163 166 114
163 166 114
163 166 114
163 166 114
163 166 114
164 166 114
164 166 114
164 166 114
164 167 114
164 167 114
164 167 114
164 167 114
165 167 114
164 167 114
165 167 114
165 167 114
165 167 114
165 167 114
165 167 114
166 167 114
166 167 114
166 167 114
166 168 114
167 168 114
166 168 114
167 168 114
167 168 114
167 168 114
167 168 114
168 168 114
167 168 114
168 168 114
168 168 114
169 169 114
169 169 114
169 169 114
169 169 114
169 169 114
170 169 114
169 169 114
170 169 114
170 169 114
170 169 114
170 169 114
171 170 114
171 170 114
171 169 114
171 170 114
171 170 114
172 170 114
172 170 114
172 170 114
172 170 114
172 170 114
173 170 114
173 170 114
173 171 114
173 171 114
174 171 114
174 171 114
174 171 114
174 171 114
174 171 114
175 171 114
175 172 114
175 172 114
176 172 114
176 172 114
176 172 114
176 172 114
176 172 114
177 172 114
177 173 114
177 173 114
177 173 114
177 173 114
178 173 114
178 173 114
178 173 114
179 173 114
179 173 114
180 174 114
179 173 114
180 174 114
180 174 114
162 180 202
157 175 194
161 180 196
162 181 199
163 182 202
160 179 195
167 187 208
161 180 202
165 185 208
162 182 203
158 176 195
167 186 206
165 185 208
160 180 202
164 183 208
167 188 214
169 189 209
169 191 217
166 186 212
164 185 207
170 191 213
167 188 211
163 183 206
167 188 212
166 187 213
170 190 216
168 188 212
160 181 207
163 185 211
163 185 211
166 186 211
159 180 206
172 194 221
167 189 219
164 185 209
167 189 216
168 190 218
161 183 211
171 193 220
171 193 219
167 188 217
170 192 220
171 194 224
170 192 219
165 187 214
171 193 223
169 192 221
172 195 225
167 190 220
169 191 219
166 189 219
166 188 217
171 194 223
167 191 223
171 195 225
171 195 226
170 195 225
170 193 224
172 195 226
168 191 220
166 190 220
170 193 221
170 195 226
168 192 223
169 194 226
169 194 226
169 193 224
168 192 223
167 191 221
170 193 224
167 192 224
172 196 227
168 192 224
170 194 226
166 191 224
167 191 223
165 190 223
168 192 223
164 189 221
163 188 220
165 190 221
165 189 220
162 186 217
167 191 223
165 189 220
163 188 219
164 189 221
162 185 216
166 191 223
166 190 221
163 187 219
164 188 220
164 187 219
162 187 219
159 184 216
164 187 218
162 185 217
161 185 217
160 184 216
165 190 223
152 173 203
158 182 213
160 184 215
161 186 217
160 184 216
162 186 218
162 184 214
163 187 218
158 181 211
155 177 206
157 180 210
153 175 203
156 179 208
157 179 207
155 177 206
152 173 200
152 173 200
148 169 196
150 171 196
147 166 190
137 155 177
161 179 201
208 227 253
210 229 255
210 229 255
210 229 255
210 229 255
210 229 255
210 229 255
210 229 255
210 229 255
210 229 255
210 229 255
210 229 255
210 229 255
210 229 255
210 229 255
209 229 255
209 229 255
209 229 255
209 229 255
209 229 255
205 222 248
169 143 154
163 119 127
163 118 124
162 119 127
164 120 127
164 120 125
161 118 123
166 121 130
163 119 126
163 119 124
165 119 122
162 118 124
162 118 121
166 120 126
163 120 126
165 120 126
162 118 121
163 119 126
164 119 123
163 119 118
164 119 123
163 119 123
165 119 118
165 120 124
164 120 122
165 120 125
166 121 126
164 120 126
163 119 119
163 119 115
166 121 126
165 120 126
162 118 120
166 120 122
164 119 120
164 119 122
166 121 126
167 121 124
166 120 126
166 121 126
164 119 119
166 121 128
166 120 125
164 120 126
161 118 119
164 120 119
165 120 121
167 121 126
165 120 126
165 120 123
165 120 121
161 118 118
163 119 121
165 120 125
165 120 126
163 119 119
166 120 123
165 120 126
163 118 118
164 119 121
165 120 123
160 117 118
165 120 123
166 121 129
162 118 116
164 120 121
164 120 127
164 120 124
165 120 122
165 120 121
162 119 119
165 120 124
163 120 124
162 118 116
165 120 126
166 120 125
162 118 119
160 117 114
164 119 123
166 120 124
165 121 130
165 120 125
164 118 115
165 120 123
165 120 126
161 119 121
161 118 119
163 118 120
162 118 115
165 120 122
163 118 119
164 118 121
163 119 124
164 118 125
163 118 119
163 118 128
171 140 152
208 226 252
209 229 255
209 229 255
209 229 255
209 229 255
210 229 255
210 229 255
210 229 255
210 229 255
210 229 255
210 229 255
210 229 255
210 229 255
210 229 255
210 229 255
210 229 255
210 229 255
210 229 255
210 229 255
210 229 255
206 224 248
169 171 149
170 165 109
174 170 112
172 169 112
173 171 114
172 170 114
170 169 114
170 169 114
169 169 114
168 168 114
168 168 114
167 168 114
166 168 114
166 167 114
165 167 114
165 167 114
165 167 114
165 167 114
164 167 114
164 167 114
164 166 114
164 166 114
164 167 114
164 166 114
163 166 114
164 166 114
164 166 114
163 166 114
163 166 114
163 166 114
163 166 114
163 166 114
163 166 114
163 166 114
163 166 114
163 166 114
163 166 114
163 166 114
164 166 114
164 166 114
164 166 114
164 166 114
164 166 114
164 166 114
164 167 114
164 167 114
164 167 114
164 167 114
164 167 114
165 167 114
165 167 114
165 167 114
166 167 114
166 167 114
166 167 114
166 167 114
166 167 114
166 168 114
166 168 114
166 168 114
166 168 114
167 168 114
167 168 114
167 168 114
167 168 114
168 168 114
168 168 114
168 168 114
168 168 114
168 168 114
169 169 114
169 169 114
169 169 114
169 169 114
169 169 114
169 169 114
170 169 114
170 169 114
171 170 114
171 169 114
170 169 114
171 170 114
171 170 114
171 170 114
171 170 114
172 170 114
172 170 114
171 170 114
172 170 114
172 170 114
173 170 114
173 171 114
173 171 114
173 171 114
174 171 114
174 171 114
174 171 114
175 171 114
175 171 114
175 172 114
174 171 114
175 171 114
175 172 114
176 172 114
176 172 114
176 172 114
176 172 114
176 172 114
176 172 114
176 172 114
177 172 114
178 173 114
178 173 114
178 173 114
179 173 114
179 173 114
178 173 114
179 173 114
179 173 114
179 174 114
180 174 114
180 174 114
181 174 114
163 181 200
161 181 206
163 182 203
163 182 202
164 182 204
164 184 204
166 186 208
164 183 204
164 184 206
163 182 200
165 184 207
162 182 200
159 179 200
166 188 211
165 184 207
160 179 202
169 189 207
163 182 203
169 190 216
165 185 208
167 186 211
170 191 214
172 193 221
173 194 220
173 194 219
167 188 214
168 188 213
167 188 216
171 193 218
170 191 218
168 188 214
172 193 218
168 190 214
171 193 220
171 192 218
173 195 224
169 191 219
169 190 218
167 188 214
171 193 220
170 192 219
168 191 221
174 196 225
166 188 217
168 190 219
169 193 221
170 194 224
170 193 223
167 189 217
173 196 225
169 192 220
171 194 221
166 189 218
168 191 220
173 196 226
168 190 219
170 194 224
165 188 218
170 194 225
170 194 225
166 190 220
167 189 219
168 191 221
170 194 224
170 193 224
167 190 220
169 194 225
167 191 221
164 187 217
169 193 223
169 193 224
165 189 221
171 196 227
169 193 225
162 186 217
168 192 224
166 190 221
169 193 224
170 195 226
166 190 222
167 191 223
165 190 221
168 193 225
165 190 221
161 186 218
164 189 221
164 188 219
169 194 226
162 185 215
166 190 221
163 187 219
161 185 217
163 187 219
161 184 215
165 189 221
168 193 226
159 182 213
163 187 219
164 188 219
161 185 217
154 176 207
159 182 213
165 189 220
162 186 218
160 183 213
159 181 212
166 188 219
162 185 216
154 175 205
158 182 212
154 177 206
153 174 202
156 178 206
154 175 203
151 171 199
153 174 202
154 174 202
156 177 204
146 166 191
149 169 196
151 169 192
149 168 194
143 159 180
201 220 245
210 229 255
210 229 255
210 229 255
210 229 255
210 229 255
210 229 255
210 229 255
210 229 255
210 229 255
210 229 255
210 229 255
210 229 255
210 229 255
210 229 255
210 229 255
210 229 255
210 229 255
209 228 255
184 177 196
162 118 128
162 118 126
161 118 117
159 117 117
163 119 126
163 119 126
163 119 125
161 118 122
161 117 119
162 118 122
164 119 127
164 119 126
166 120 128
163 119 124
161 118 119
162 119 124
164 119 122
165 119 123
165 120 124
164 120 123
164 119 124
163 119 119
163 119 121
166 120 124
167 121 126
164 119 124
162 118 120
165 120 121
165 120 123
167 121 126
166 121 129
166 120 123
162 118 115
165 119 117
164 120 122
167 121 127
164 120 124
165 120 121
162 119 120
165 120 121
165 119 123
165 120 125
163 119 122
164 120 123
165 120 126
165 120 123
164 120 120
161 118 116
167 121 128
165 120 124
162 119 120
164 119 115
167 121 125
164 119 123
163 119 115
163 119 122
162 119 119
161 118 121
166 121 123
164 120 124
162 119 123
165 120 122
162 119 118
162 118 119
165 120 124
161 118 118
163 119 118
165 120 121
163 119 121
162 118 112
161 118 117
163 119 121
161 118 115
163 118 118
164 119 122
164 120 127
159 116 110
168 121 127
161 117 119
164 120 121
163 118 115
163 119 121
161 117 111
167 121 126
164 119 124
161 117 115
163 118 120
162 117 118
163 119 118
162 118 122
162 117 115
162 118 121
165 119 123
166 120 126
163 119 125
162 117 114
162 117 122
184 174 191
210 229 255
210 229 255
210 229 255
210 229 255
210 229 255
210 229 255
210 229 255
210 229 255
210 229 255
210 229 255
210 229 255
210 229 255
210 229 255
210 229 255
210 229 255
210 229 255
210 229 255
210 229 255
205 222 245
166 164 127
169 163 108
176 172 113
175 171 114
173 171 114
172 170 114
171 170 114
170 169 114
169 169 114
168 169 114
168 168 114
167 168 114
167 168 114
166 168 114
166 168 114
166 167 114
165 167 114
165 167 114
165 167 114
164 167 114
164 167 114
164 167 114
164 167 114
164 166 114
164 166 114
164 166 114
163 166 114
163 166 114
164 166 114
164 166 114
163 166 114
164 166 114
163 166 114
163 166 114
163 166 114
164 166 114
164 166 114
164 166 114
164 167 114
164 167 114
164 167 114
164 167 114
164 167 114
164 167 114
165 167 114
165 167 114
165 167 114
165 167 114
165 167 114
165 167 114
165 167 114
165 167 114
166 167 114
166 167 114
166 168 114
166 167 114
166 168 114
166 168 114
167 168 114
167 168 114
167 168 114
167 168 114
167 168 114
167 168 114
167 168 114
168 168 114
168 168 114
168 168 114
168 168 114
168 169 114
169 169 114
169 169 114
169 169 114
170 169 114
170 169 114
170 169 114
170 169 114
171 169 114
170 169 114
171 170 114
171 170 114
171 170 114
171 170 114
172 170 114
171 170 114
172 170 114
172 170 114
172 170 114
173 170 114
173 171 114
172 170 114
173 171 114
173 171 114
174 171 114
174 171 114
174 171 114
174 171 114
174 171 114
174 171 114
175 171 114
175 171 114
176 172 114
175 172 114
176 172 114
176 172 114
176 172 114
177 172 114
176 172 114
177 172 114
177 173 114
178 173 114
178 173 114
178 173 114
177 173 114
178 173 114
178 173 114
179 173 114
179 173 114
179 173 114
179 174 114
180 174 114
180 174 114
180 174 114
180 174 114
163 180 195
167 187 207
163 182 199
161 181 196
161 180 200
163 183 207
162 181 203
164 182 206
163 183 202
164 183 206
167 186 200
166 186 206
166 186 203
167 187 211
175 195 218
165 184 206
168 186 209
169 189 214
173 193 218
169 188 212
167 187 211
172 192 211
172 193 220
172 192 213
168 189 211
168 188 209
160 181 207
168 190 216
171 192 218
166 187 211
166 186 208
167 189 217
165 185 212
172 194 221
170 192 220
169 191 217
167 189 216
168 190 214
168 190 217
172 194 221
173 196 224
171 194 224
172 193 219
171 193 223
174 196 223
174 197 224
165 188 217
171 193 220
173 195 223
171 193 223
162 185 212
171 194 224
172 195 224
172 194 224
171 193 223
169 191 220
171 194 223
169 192 223
168 190 218
171 194 225
165 189 219
170 193 223
172 195 226
170 194 225
171 194 225
173 196 226
167 191 223
164 187 217
167 191 223
172 196 226
168 192 224
165 189 219
169 193 224
167 192 224
171 194 224
167 191 222
166 190 221
166 191 223
170 194 225
169 194 226
169 193 225
169 193 225
169 194 226
170 194 225
165 188 218
168 192 224
162 185 216
165 190 223
163 187 218
167 191 221
167 191 223
168 192 223
162 186 217
162 186 217
167 191 223
162 187 219
164 187 219
163 186 218
163 187 218
165 190 223
166 190 221
165 188 219
168 192 224
162 186 217
163 187 218
157 178 207
163 187 218
162 185 216
156 177 207
157 179 208
156 178 207
161 184 215
153 175 203
162 184 214
154 175 204
151 171 199
151 172 201
158 180 209
154 173 200
147 166 190
144 163 187
140 158 183
138 155 177
142 160 183
191 209 234
211 230 255
210 230 255
210 230 255
210 230 255
210 229 255
210 229 255
210 229 255
210 229 255
210 229 255
210 229 255
210 229 255
210 229 255
210 229 255
210 229 255
210 229 255
210 229 255
194 194 216
161 117 122
164 120 131
164 119 123
162 118 125
162 119 126
163 119 126
164 120 123
163 118 121
160 117 117
166 121 126
165 120 126
158 116 119
160 117 124
162 119 125
165 120 124
165 120 124
163 119 122
165 120 123
165 120 122
166 120 121
162 119 118
164 120 123
164 119 124
165 119 116
165 120 124
164 120 123
164 119 122
162 118 113
162 118 115
163 119 121
162 118 118
166 120 122
164 120 125
163 119 121
163 119 118
162 118 116
162 118 118
165 119 119
166 121 124
164 119 123
162 118 117
164 120 123
163 119 121
162 118 113
165 120 123
168 121 126
162 118 121
164 119 119
161 118 117
164 119 119
163 119 117
165 120 125
165 120 126
163 118 115
163 119 117
163 119 117
162 118 119
165 120 125
165 120 124
162 119 118
164 119 122
164 120 126
164 119 115
165 120 124
164 120 123
167 121 126
165 120 120
164 120 121
163 120 123
165 120 124
163 119 117
163 119 118
164 119 122
161 118 117
163 119 123
163 119 118
162 118 116
165 120 123
166 120 127
163 118 115
163 119 116
165 120 123
164 119 119
166 120 125
163 118 120
165 120 123
164 119 124
165 119 123
161 118 118
164 119 122
164 119 125
163 118 121
162 117 119
163 118 123
161 118 118
163 118 122
161 117 116
163 117 123
164 117 122
188 184 202
210 229 255
210 229 255
210 229 255
210 229 255
210 229 255
210 229 255
210 229 255
210 229 255
210 229 255
210 229 255
210 229 255
210 229 255
210 230 255
210 230 255
211 230 255
211 230 255
205 221 241
163 158 112
173 167 110
175 171 113
175 171 114
173 171 114
172 170 114
171 170 114
170 169 114
170 169 114
168 168 114
168 168 114
168 168 114
167 168 114
166 168 114
166 168 114
166 167 114
166 167 114
165 167 114
165 167 114
165 167 114
165 167 114
165 167 114
165 167 114
165 167 114
164 167 114
164 167 114
165 167 114
164 167 114
164 167 114
164 167 114
164 167 114
164 167 114
164 167 114
164 167 114
164 167 114
164 167 114
164 167 114
164 167 114
164 167 114
164 167 114
164 167 114
164 167 114
165 167 114
165 167 114
165 167 114
165 167 114
165 167 114
165 167 114
166 167 114
165 167 114
166 167 114
166 168 114
166 167 114
166 168 114
166 168 114
166 168 114
166 168 114
167 168 114
167 168 114
167 168 114
167 168 114
168 168 114
168 168 114
167 168 114
168 168 114
168 168 114
169 169 114
169 169 114
169 169 114
169 169 114
169 169 114
169 169 114
170 169 114
170 169 114
170 169 114
170 169 114
170 169 114
170 169 114
170 169 114
171 170 114
171 170 114
171 170 114
172 170 114
172 170 114
172 170 114
172 170 114
173 170 114
173 170 114
172 170 114
173 171 114
173 170 114
173 171 114
173 171 114
174 171 114
174 171 114
174 171 114
174 171 114
175 172 114
175 171 114
175 172 114
175 172 114
176 172 114
176 172 114
176 172 114
176 172 114
176 172 114
176 172 114
177 172 114
177 173 114
177 173 114
178 173 114
178 173 114
178 173 114
178 173 114
179 173 114
178 173 114
179 173 114
179 173 114
179 174 114
180 174 114
180 174 114
180 174 114
180 174 114
181 174 114
180 174 114
166 185 208
159 177 187
164 183 199
167 185 203
166 184 203
168 187 209
163 183 202
165 185 202
170 189 209
168 187 206
165 186 208
164 183 204
165 185 206
166 186 208
172 192 213
171 192 217
171 191 216
168 188 211
163 184 208
171 191 212
167 186 208
167 188 208
167 188 209
169 190 214
165 185 209
170 191 213
169 191 218
169 189 213
173 194 220
172 193 219
173 194 220
177 199 226
170 191 217
172 193 219
172 193 220
170 191 218
168 190 216
174 195 221
168 188 213
173 194 218
164 187 213
170 191 217
172 195 224
175 197 224
171 193 223
171 193 221
171 193 223
171 194 220
175 196 225
175 197 225
168 192 221
170 192 220
170 192 220
172 194 223
167 190 220
172 195 226
172 194 221
169 192 221
168 192 221
169 192 223
170 194 225
169 192 223
169 192 220
173 196 225
171 195 224
170 193 224
172 195 223
172 195 225
167 191 221
171 194 225
168 191 221
167 190 220
167 191 223
170 194 225
167 191 221
169 193 225
170 194 226
170 195 225
168 192 223
167 191 223
169 192 222
168 192 224
167 190 222
170 195 227
165 190 221
164 187 217
167 192 224
169 193 225
167 191 223
167 192 224
165 188 219
166 190 222
164 187 217
165 189 220
164 186 217
166 189 221
165 189 221
166 191 223
160 179 210
163 185 216
160 184 215
168 192 224
163 186 217
159 181 211
157 179 208
162 184 215
156 179 209
162 185 216
159 182 212
160 183 213
158 180 208
157 178 208
157 180 210
159 181 211
161 183 211
153 173 201
149 169 198
154 174 203
153 175 203
144 164 190
154 174 201
146 164 189
148 167 192
146 165 190
144 162 185
186 203 226
211 230 255
211 230 255
211 230 255
211 230 255
211 230 255
211 230 255
211 230 255
210 230 255
210 230 255
210 230 255
210 230 255
210 229 255
210 229 255
210 229 255
206 220 245
160 122 128
161 118 124
162 119 127
163 118 123
163 119 121
163 118 123
163 119 125
163 118 122
163 119 120
162 118 121
165 119 122
163 119 123
162 118 120
163 118 119
162 119 123
165 120 124
162 118 113
165 120 126
164 120 120
165 120 124
163 118 121
161 118 111
165 120 123
161 117 117
166 120 122
165 120 126
165 119 118
163 119 118
163 119 122
165 120 123
165 120 127
163 119 118
164 119 119
165 120 119
163 119 118
162 119 117
163 118 119
164 119 117
163 119 122
165 120 119
166 121 126
165 120 125
165 120 124
165 120 123
164 119 115
164 119 118
164 119 123
162 118 113
165 119 120
163 118 116
164 120 121
163 119 113
167 121 124
166 120 121
163 119 121
166 120 123
164 118 116
167 120 126
163 119 121
164 120 119
164 120 123
165 120 123
166 120 124
163 119 118
165 120 121
166 120 126
163 119 123
164 120 123
164 119 121
164 119 118
162 118 119
164 119 122
165 120 124
164 119 124
158 116 104
164 119 120
163 118 121
166 121 126
166 120 124
165 120 126
168 122 130
165 119 119
164 119 123
165 120 127
164 119 121
162 118 119
164 119 120
164 119 124
166 120 128
166 120 124
165 119 121
163 119 124
165 119 123
164 118 117
166 121 126
164 119 121
163 118 119
162 117 119
163 117 121
164 119 125
162 118 122
203 215 239
210 229 255
210 229 255
210 229 255
210 229 255
210 230 255
210 230 255
210 230 255
211 230 255
211 230 255
211 230 255
211 230 255
211 230 255
211 230 255
211 230 255
191 203 212
161 156 108
174 169 111
173 169 112
176 172 114
173 171 114
172 170 114
171 170 114
170 169 114
170 169 114
169 169 114
169 169 114
168 168 114
168 168 114
167 168 114
167 168 114
166 168 114
166 167 114
166 167 114
166 167 114
165 167 114
165 167 114
165 167 114
165 167 114
164 167 114
165 167 114
164 167 114
165 167 114
165 167 114
164 167 114
165 167 114
164 167 114
164 167 114
164 167 114
165 167 114
164 167 114
165 167 114
165 167 114
165 167 114
165 167 114
165 167 114
165 167 114
165 167 114
165 167 114
165 167 114
165 167 114
165 167 114
166 167 114
166 167 114
166 167 114
166 168 114
166 167 114
166 168 114
166 167 114
167 168 114
166 168 114
167 168 114
167 168 114
167 168 114
167 168 114
167 168 114
167 168 114
168 168 114
168 168 114
169 169 114
168 168 114
168 169 114
169 169 114
169 169 114
169 169 114
169 169 114
170 169 114
170 169 114
169 169 114
171 170 114
171 169 114
170 169 114
171 170 114
171 169 114
171 170 114
171 170 114
172 170 114
171 170 114
172 170 114
172 170 114
172 170 114
173 170 114
173 171 114
173 171 114
172 170 114
173 171 114
174 171 114
172 170 114
173 171 114
174 171 114
174 171 114
174 171 114
175 171 114
175 171 114
175 172 114
175 171 114
176 172 114
176 172 114
176 172 114
176 172 114
176 172 114
176 172 114
176 172 114
177 172 114
177 172 114
178 173 114
178 173 114
177 173 114
178 173 114
178 173 114
178 173 114
178 173 114
179 173 114
178 173 114
179 173 114
180 174 114
180 174 114
180 174 114
181 174 114
180 174 114
181 174 114
181 174 114
166 186 204
166 185 200
166 185 209
163 183 198
167 186 199
164 183 208
170 188 211
167 188 207
166 185 204
173 192 212
163 182 202
164 183 207
162 181 199
167 187 207
166 186 208
168 188 212
162 182 202
168 188 213
169 189 211
174 195 220
171 190 212
168 188 209
165 185 207
171 192 216
170 190 213
171 192 217
168 188 214
175 196 225
175 196 220
172 193 218
173 194 218
171 192 218
172 193 214
172 193 219
169 189 212
170 192 217
169 192 218
169 191 218
171 193 219
172 193 219
174 196 224
174 197 223
174 196 225
174 196 224
169 191 219
174 196 221
172 195 223
169 191 220
169 191 217
173 196 225
171 193 218
174 196 224
171 193 220
166 189 216
172 194 224
170 193 221
171 194 221
171 194 223
170 194 221
170 193 221
174 196 225
170 194 224
174 198 227
169 192 221
170 194 224
173 196 226
172 195 225
171 193 222
168 191 219
172 195 225
169 193 224
170 193 224
172 196 227
168 192 223
167 191 223
172 196 225
173 196 228
170 195 227
167 192 224
167 191 223
169 193 224
169 192 222
167 191 222
171 195 227
167 191 223
169 193 224
167 191 222
164 187 218
167 190 222
170 193 225
163 185 217
169 193 225
165 188 219
163 185 215
165 187 218
165 186 217
164 186 217
167 190 220
163 187 217
167 190 221
163 186 217
166 190 221
165 187 218
165 187 217
166 189 221
159 183 214
158 177 207
163 188 219
164 185 215
162 185 215
160 181 211
157 178 207
163 182 211
158 179 209
159 178 206
157 178 207
150 170 198
148 166 193
148 167 193
142 162 188
154 174 201
143 162 187
146 164 188
143 161 184
128 144 165
145 163 184
189 206 230
211 230 255
211 230 255
211 230 255
211 230 255
211 230 255
211 230 255
211 230 255
211 230 255
211 230 255
211 230 255
211 230 255
211 230 255
207 223 248
168 140 151
160 117 124
161 117 123
162 118 121
163 119 122
165 120 125
166 119 122
163 118 114
163 119 120
165 120 123
163 119 124
163 119 122
162 118 117
162 118 124
162 118 119
167 120 125
163 119 124
164 119 118
165 120 124
162 117 118
163 119 120
165 120 124
166 120 124
164 119 118
164 119 119
165 120 124
165 120 120
161 118 117
164 118 115
159 116 111
165 120 125
161 117 115
163 119 120
166 120 123
164 119 122
163 118 121
165 120 124
164 119 121
164 119 116
165 120 125
164 119 120
164 119 115
164 119 122
163 119 116
162 118 114
166 121 123
163 119 118
164 119 122
166 121 127
163 119 116
163 119 119
164 120 120
164 119 123
163 119 120
159 117 108
165 119 119
165 120 126
164 118 117
165 120 123
163 119 117
162 118 120
166 120 124
163 119 118
163 119 115
169 121 125
164 120 124
162 118 123
162 118 117
163 118 118
163 119 125
165 120 121
164 119 119
164 118 118
165 120 120
162 119 115
164 119 119
166 120 122
166 120 125
164 119 123
164 118 119
165 120 121
164 119 121
163 118 114
167 120 121
163 118 117
165 120 122
164 119 122
164 118 118
162 118 120
162 119 119
163 119 120
162 118 117
166 120 123
163 119 124
164 119 122
163 118 119
164 119 119
163 118 120
166 119 120
161 117 120
162 117 118
162 117 119
177 158 169
210 229 254
211 230 255
211 230 255
211 230 255
211 230 255
211 230 255
211 230 255
211 230 255
211 230 255
211 230 255
211 230 255
211 230 255
211 230 255
189 202 213
166 160 107
173 168 110
177 172 114
175 172 114
174 171 114
173 171 114
172 170 114
171 170 114
170 169 114
169 169 114
169 169 114
168 168 114
168 168 114
167 168 114
167 168 114
167 168 114
166 168 114
167 168 114
166 167 114
166 167 114
166 167 114
165 167 114
165 167 114
165 167 114
165 167 114
165 167 114
165 167 114
165 167 114
165 167 114
165 167 114
165 167 114
165 167 114
165 167 114
165 167 114
165 167 114
165 167 114
165 167 114
165 167 114
165 167 114
166 167 114
165 167 114
165 167 114
165 167 114
166 167 114
166 168 114
166 167 114
166 167 114
167 168 114
167 168 114
166 168 114
166 168 114
167 168 114
167 168 114
167 168 114
167 168 114
167 168 114
167 168 114
168 168 114
168 168 114
168 168 114
168 168 114
169 169 114
168 169 114
169 169 114
168 168 114
168 168 114
169 169 114
169 169 114
169 169 114
169 169 114
170 169 114
170 169 114
170 169 114
170 169 114
171 170 114
171 170 114
171 170 114
171 170 114
171 170 114
171 170 114
171 170 114
172 170 114
172 170 114
172 170 114
172 170 114
172 170 114
173 171 114
173 170 114
173 171 114
174 171 114
174 171 114
174 171 114
174 171 114
174 171 114
174 171 114
174 171 114
175 171 114
175 172 114
176 172 114
176 172 114
176 172 114
175 172 114
176 172 114
176 172 114
176 172 114
176 172 114
177 172 114
177 173 114
177 173 114
178 173 114
178 173 114
178 173 114
178 173 114
179 173 114
178 173 114
179 173 114
179 173 114
179 174 114
179 173 114
180 174 114
180 174 114
181 174 114
181 174 114
181 174 114
181 174 114
181 174 114
181 174 114
166 186 202
162 181 199
167 187 206
169 189 203
161 180 195
164 183 200
165 183 203
171 191 211
166 186 206
170 189 206
171 190 208
171 191 209
161 180 198
161 181 206
174 194 214
167 187 211
173 193 209
166 186 209
171 193 220
171 190 212
174 193 212
169 189 212
171 191 212
171 191 217
171 192 216
171 191 212
170 190 211
170 190 213
171 192 217
170 191 212
174 195 219
168 189 214
173 194 221
166 188 209
173 194 218
169 191 217
173 194 219
174 197 224
172 194 216
173 195 221
170 192 219
172 194 223
173 195 221
174 195 220
172 195 221
173 195 221
173 195 218
173 195 220
173 195 223
170 192 219
172 194 220
170 192 216
170 192 218
173 195 224
174 196 223
171 194 223
172 194 223
173 196 224
169 192 218
171 195 224
173 196 224
173 196 224
173 196 226
173 196 227
175 197 225
173 196 226
174 197 227
172 195 225
169 192 221
173 196 225
174 197 227
170 193 223
173 196 226
169 192 223
170 195 227
170 194 225
169 193 223
170 194 225
173 196 227
169 193 225
170 195 226
172 196 228
166 190 219
172 194 224
169 191 221
168 191 222
168 192 223
166 189 219
169 192 221
169 194 227
166 188 219
168 191 221
167 189 220
169 193 224
170 194 226
167 190 221
167 189 220
162 184 214
162 186 217
164 187 219
165 188 221
163 185 216
160 181 212
160 182 212
164 186 216
162 185 217
163 187 219
162 183 214
163 184 214
161 181 211
161 183 213
162 183 214
158 181 211
162 181 211
165 186 216
161 182 211
153 174 203
154 173 201
153 173 200
155 176 203
152 173 200
151 171 199
148 168 194
157 177 202
149 167 191
143 159 182
142 159 178
188 205 227
211 230 255
211 230 255
211 230 255
211 230 255
211 230 255
211 230 255
211 230 255
211 230 255
211 230 255
211 230 255
211 230 255
184 180 196
161 118 126
161 117 125
165 120 130
160 117 121
162 118 120
162 119 119
164 119 121
164 119 123
163 119 123
163 118 120
164 119 129
160 117 116
165 120 124
162 118 118
166 121 128
162 118 113
163 119 124
165 120 121
162 118 117
166 121 127
164 120 125
163 119 115
162 118 113
163 119 122
161 118 117
164 119 118
166 120 122
161 118 116
163 119 122
165 119 120
164 119 118
163 119 118
163 119 118
164 119 122
164 119 120
162 118 118
161 118 121
164 119 119
165 120 126
163 118 119
164 119 120
163 119 121
165 120 120
163 119 120
164 120 123
165 120 121
166 120 123
163 119 123
167 121 122
161 118 116
164 119 124
164 119 123
161 118 114
166 120 123
163 119 118
165 120 121
162 118 112
163 118 115
163 119 113
162 118 118
167 121 121
163 119 119
164 119 116
163 119 118
164 118 119
166 120 122
165 120 125
165 120 123
166 120 120
164 119 122
165 120 124
163 119 114
165 120 122
164 119 116
164 119 123
166 120 126
164 119 118
164 119 121
163 118 114
163 119 118
160 117 111
163 117 115
164 118 118
162 118 114
162 117 111
162 119 119
167 120 119
165 119 125
164 119 119
163 119 119
163 119 123
162 118 116
163 118 116
163 119 118
164 119 123
165 119 123
162 117 114
164 119 121
161 117 118
164 119 123
164 118 119
164 118 124
159 114 115
187 184 201
211 230 255
211 230 255
211 230 255
211 230 255
211 230 255
211 230 255
211 230 255
211 230 255
211 230 255
211 230 255
211 230 255
192 204 214
155 150 102
175 170 112
177 172 114
175 172 114
174 171 114
174 171 114
172 170 114
171 170 114
171 170 114
170 169 114
170 169 114
169 169 114
169 169 114
168 168 114
168 168 114
167 168 114
167 168 114
167 168 114
166 167 114
166 168 114
167 168 114
166 168 114
166 167 114
166 167 114
165 167 114
165 167 114
166 167 114
165 167 114
165 167 114
165 167 114
166 167 114
166 167 114
166 167 114
165 167 114
166 167 114
166 167 114
166 167 114
166 167 114
166 167 114
166 167 114
165 167 114
166 168 114
166 167 114
166 168 114
166 168 114
166 168 114
166 168 114
167 168 114
167 168 114
167 168 114
167 168 114
167 168 114
168 168 114
168 168 114
168 168 114
168 168 114
168 168 114
168 168 114
168 168 114
169 169 114
169 169 114
169 169 114
169 169 114
169 169 114
169 169 114
169 169 114
169 169 114
170 169 114
170 169 114
170 169 114
170 169 114
170 169 114
171 170 114
170 169 114
171 170 114
171 170 114
172 170 114
171 170 114
172 170 114
172 170 114
172 170 114
172 170 114
173 170 114
173 171 114
173 170 114
173 171 114
173 171 114
173 171 114
173 171 114
174 171 114
174 171 114
174 171 114
174 171 114
174 171 114
174 171 114
174 171 114
175 172 114
175 172 114
176 172 114
176 172 114
175 172 114
175 172 114
176 172 114
176 172 114
177 172 114
177 173 114
177 173 114
177 172 114
178 173 114
178 173 114
178 173 114
178 173 114
178 173 114
179 173 114
179 173 114
179 173 114
180 174 114
179 173 114
180 174 114
180 174 114
180 174 114
180 174 114
180 174 114
181 174 114
180 174 114
182 175 114
182 175 114
182 175 114
171 189 207
163 182 198
167 185 196
165 183 200
162 181 199
162 180 198
160 179 195
167 185 204
167 187 200
166 185 202
168 186 204
169 189 211
157 176 191
169 189 213
172 191 211
164 184 207
174 195 217
170 190 211
171 192 216
174 194 214
170 188 208
169 190 214
173 193 218
172 192 214
171 191 212
173 194 219
171 192 217
173 192 214
175 196 219
175 195 217
172 192 216
168 188 211
169 191 216
175 196 219
174 195 220
174 197 224
169 189 214
172 193 217
172 193 217
170 190 216
170 191 211
172 193 218
174 196 221
174 195 216
171 194 221
172 194 220
174 196 225
172 194 219
175 197 221
172 195 225
170 192 218
175 198 227
169 192 221
175 197 223
174 197 224
172 195 221
174 196 225
170 194 224
175 198 226
175 198 227
169 192 219
172 195 225
174 197 226
171 192 220
174 198 227
171 194 224
171 192 220
171 194 224
175 198 226
170 193 224
168 192 220
170 193 224
171 194 221
173 196 226
173 196 226
168 191 221
169 192 223
170 193 224
169 192 221
171 194 224
170 193 223
170 193 223
170 194 225
171 194 224
172 196 227
169 192 224
168 190 221
172 195 227
168 191 221
169 193 224
169 192 223
165 187 218
166 189 219
169 192 223
168 191 222
168 190 222
166 189 221
163 184 214
164 186 215
166 188 219
164 188 220
168 191 223
168 191 223
159 178 206
162 183 213
166 186 216
158 179 209
165 188 219
158 178 207
156 176 204
167 188 219
160 180 209
157 175 203
155 174 202
156 174 202
156 176 205
157 176 205
148 166 193
159 178 207
158 176 202
147 166 192
147 164 188
157 177 203
150 169 195
154 172 195
146 164 185
146 163 184
136 152 172
187 204 227
211 230 255
211 230 255
211 230 255
211 230 255
211 230 255
211 230 255
211 230 255
211 230 255
211 230 255
203 215 238
162 122 131
161 118 121
160 116 124
162 119 126
159 116 120
163 119 123
162 118 115
164 119 119
162 118 119
162 118 118
163 119 122
162 118 118
162 118 119
162 119 121
166 121 126
167 121 128
165 120 121
164 120 124
163 119 119
165 120 116
164 119 116
165 120 120
164 120 123
164 120 124
163 119 119
164 119 118
163 119 123
164 119 121
165 119 123
163 119 120
165 120 121
167 121 123
162 117 114
164 119 117
164 118 116
163 119 118
162 117 111
163 119 118
164 119 122
163 119 114
165 120 124
162 118 114
164 119 123
163 119 123
165 120 123
163 118 111
161 118 121
163 119 117
159 116 113
165 120 123
165 120 123
167 121 123
163 119 118
163 119 114
166 121 126
164 119 118
165 120 123
164 119 118
164 120 119
164 119 119
164 119 120
162 119 114
161 118 113
163 119 119
163 119 117
166 120 123
164 119 118
163 118 115
163 119 115
164 119 119
162 118 118
164 119 117
165 120 127
163 118 116
161 117 116
165 119 122
163 119 123
164 120 120
163 119 122
162 118 111
161 117 114
161 117 115
167 120 122
166 120 124
163 118 118
165 120 125
165 119 119
163 118 116
163 119 119
164 119 120
165 119 118
161 118 116
162 118 115
162 118 121
162 118 116
163 118 119
161 118 117
163 119 119
163 118 117
160 116 113
165 119 122
161 117 117
163 118 118
161 117 119
162 119 122
206 220 244
211 230 255
211 230 255
211 230 255
211 230 255
211 230 255
211 230 255
211 230 255
211 230 255
211 230 255
189 199 206
166 160 106
176 171 112
177 172 113
176 172 114
175 171 114
173 171 114
173 170 114
172 170 114
171 170 114
170 169 114
170 169 114
170 169 114
169 169 114
168 169 114
168 168 114
168 168 114
168 168 114
167 168 114
167 168 114
166 168 114
167 168 114
167 168 114
166 168 114
166 168 114
166 168 114
166 167 114
166 168 114
167 168 114
166 167 114
166 168 114
166 168 114
166 167 114
166 168 114
167 168 114
167 168 114
166 167 114
167 168 114
167 168 114
166 167 114
166 167 114
166 168 114
167 168 114
167 168 114
167 168 114
167 168 114
167 168 114
167 168 114
167 168 114
168 168 114
167 168 114
167 168 114
168 168 114
168 168 114
168 168 114
169 169 114
168 168 114
169 169 114
169 169 114
169 169 114
170 169 114
169 169 114
169 169 114
169 169 114
169 169 114
170 169 114
170 169 114
170 169 114
170 169 114
170 169 114
171 170 114
171 170 114
171 170 114
171 170 114
171 170 114
171 170 114
172 170 114
171 170 114
172 170 114
172 170 114
172 170 114
173 170 114
173 171 114
173 170 114
173 170 114
173 171 114
173 171 114
174 171 114
174 171 114
174 171 114
175 171 114
174 171 114
174 171 114
175 171 114
174 171 114
176 172 114
175 171 114
176 172 114
176 172 114
176 172 114
176 172 114
176 172 114
176 172 114
175 172 114
176 172 114
177 172 114
177 173 114
178 173 114
177 172 114
177 173 114
178 173 114
179 173 114
178 173 114
178 173 114
179 173 114
179 173 114
179 173 114
179 173 114
180 174 114
180 174 114
180 174 114
180 174 114
180 174 114
181 174 114
180 174 114
180 174 114
182 175 114
181 174 114
181 174 114
182 175 114
162 181 195
168 187 204
167 186 209
163 181 195
168 188 203
166 185 208
167 187 206
167 186 202
169 189 207
165 184 204
172 192 212
166 186 206
165 185 207
170 190 209
164 183 203
169 189 204
169 190 211
174 194 217
172 193 213
174 194 218
170 190 212
170 190 212
171 190 207
173 194 219
171 190 208
173 192 216
173 193 216
175 196 217
172 193 216
169 190 214
173 193 217
172 192 217
174 194 213
168 188 208
175 196 216
172 193 216
170 190 213
176 198 224
171 192 216
175 196 220
175 196 223
173 195 219
174 196 224
173 194 220
173 194 219
174 195 220
173 195 220
175 196 223
175 196 223
172 194 219
173 196 221
172 194 220
172 194 219
175 197 224
171 192 219
171 194 221
174 196 224
173 195 223
173 196 226
176 198 225
173 196 224
173 196 223
174 196 224
174 197 226
175 197 227
173 196 224
172 194 221
172 197 227
172 195 225
173 196 226
172 194 223
172 194 223
173 196 223
173 197 228
170 193 224
174 197 226
175 198 228
173 197 228
170 193 222
172 195 225
175 197 228
173 196 227
171 194 224
171 194 225
171 194 225
171 193 224
170 193 223
169 192 222
171 192 223
169 191 221
168 190 221
168 190 221
166 190 221
167 190 222
168 192 223
170 191 221
168 191 221
166 187 217
168 191 223
163 185 216
165 184 213
166 189 219
164 184 214
162 182 212
168 191 223
163 185 215
159 178 207
162 181 211
166 188 219
160 177 206
163 185 216
162 179 208
158 177 206
152 170 198
160 178 207
155 172 200
160 179 208
161 177 205
154 173 201
156 176 204
159 176 203
156 173 200
151 171 198
142 159 183
150 169 195
149 169 196
143 161 183
143 160 183
144 160 181
201 219 244
212 230 255
212 230 255
212 230 255
212 230 255
212 230 255
212 230 255
212 230 255
211 230 255
171 146 157
162 118 124
158 115 119
161 118 126
160 116 120
157 114 116
162 118 119
163 118 116
162 118 115
166 120 123
167 121 127
166 121 128
167 121 130
162 118 115
162 118 125
162 119 121
163 119 122
165 119 119
164 119 119
164 120 121
162 118 116
163 119 121
165 120 124
164 119 117
164 119 118
167 121 127
165 120 122
162 117 115
166 120 122
164 119 118
163 118 118
164 118 117
164 119 121
161 118 119
164 119 119
162 119 119
163 119 119
165 120 118
164 119 117
164 119 120
166 120 122
165 120 122
162 118 113
165 119 117
164 119 117
163 119 126
163 119 117
163 119 117
163 119 121
163 118 116
167 120 122
162 118 118
164 118 119
162 119 118
160 117 111
163 119 118
165 120 122
164 119 123
164 119 114
164 119 118
165 120 123
162 118 114
164 119 119
162 118 117
166 120 122
160 117 116
164 119 120
163 119 118
166 121 127
167 121 125
166 120 122
164 119 120
164 119 117
164 120 122
164 119 120
163 119 119
163 119 116
163 119 117
162 118 111
165 120 121
164 119 122
167 120 123
165 120 119
164 119 118
162 118 115
164 119 122
165 120 124
161 118 118
164 119 121
162 118 119
161 117 115
164 120 123
163 118 117
164 119 121
163 119 117
162 118 116
163 119 119
162 118 115
163 118 115
164 119 123
162 117 119
163 118 122
164 117 120
163 117 110
158 115 114
159 115 115
175 151 164
211 229 255
212 230 255
212 230 255
212 230 255
212 230 255
212 230 255
212 230 255
212 230 255
196 208 218
159 154 107
178 172 113
178 173 114
177 172 114
175 171 114
174 171 114
173 171 114
172 170 114
172 170 114
171 170 114
170 169 114
171 170 114
170 169 114
169 169 114
169 169 114
168 169 114
168 168 114
168 168 114
168 168 114
167 168 114
167 168 114
168 168 114
167 168 114
167 168 114
167 168 114
167 168 114
166 168 114
166 168 114
167 168 114
167 168 114
167 168 114
166 167 114
167 168 114
167 168 114
167 168 114
167 168 114
167 168 114
167 168 114
167 168 114
167 168 114
167 168 114
167 168 114
167 168 114
168 168 114
168 168 114
167 168 114
168 168 114
168 168 114
168 168 114
169 169 114
168 169 114
168 168 114
169 169 114
169 169 114
169 169 114
169 169 114
169 169 114
169 169 114
169 169 114
169 169 114
170 169 114
170 169 114
170 169 114
169 169 114
171 170 114
170 169 114
171 169 114
171 170 114
171 170 114
171 170 114
171 170 114
172 170 114
171 170 114
172 170 114
172 170 114
172 170 114
172 170 114
172 170 114
173 170 114
173 171 114
172 170 114
173 171 114
173 171 114
174 171 114
174 171 114
174 171 114
174 171 114
175 171 114
175 172 114
175 171 114
175 171 114
175 172 114
175 171 114
175 172 114
175 172 114
176 172 114
175 172 114
176 172 114
176 172 114
176 172 114
176 172 114
177 172 114
177 173 114
177 173 114
178 173 114
177 172 114
178 173 114
178 173 114
178 173 114
178 173 114
178 173 114
179 173 114
179 173 114
179 173 114
179 173 114
179 173 114
179 173 114
179 174 114
180 174 114
180 174 114
181 174 114
180 174 114
181 175 114
181 174 114
181 174 114
181 174 114
181 174 114
182 175 114
182 175 114
182 175 114
164 182 200
162 181 192
165 184 199
167 186 204
173 191 207
165 185 199
170 190 209
171 190 204
169 188 207
166 184 196
175 194 208
169 187 203
167 187 206
167 186 203
174 193 212
160 178 192
172 192 212
169 189 209
172 191 213
173 193 211
172 192 212
169 189 207
163 183 206
168 188 207
174 193 213
172 192 214
173 194 213
169 189 209
172 193 214
171 192 216
172 192 209
175 197 221
174 195 216
172 193 216
173 194 218
174 195 219
172 193 219
174 194 218
175 196 223
173 194 214
173 194 221
174 196 223
174 196 224
169 191 213
170 191 217
170 191 214
169 190 217
172 194 217
171 193 219
174 196 223
174 196 221
172 194 221
176 198 225
175 197 224
175 197 226
174 196 224
176 197 224
173 195 219
175 196 224
173 196 225
169 191 219
174 195 224
174 196 224
170 193 219
175 198 225
172 195 221
169 193 221
173 197 226
173 196 224
175 196 223
171 195 224
173 196 223
172 194 224
173 194 221
173 196 225
174 197 224
176 198 227
173 195 223
171 194 224
174 197 225
172 195 225
173 196 227
170 192 221
173 195 224
171 194 223
171 192 221
173 195 225
173 195 225
171 193 223
171 195 224
169 190 218
169 192 223
171 193 221
171 190 220
172 195 226
166 189 219
169 189 219
165 187 217
169 191 222
164 183 212
166 186 216
167 189 220
169 187 217
168 189 219
169 191 221
164 183 213
166 187 218
156 175 204
164 181 210
163 180 209
156 172 200
162 179 209
164 185 216
161 179 208
162 179 209
167 186 216
160 175 203
158 176 204
160 178 206
156 173 200
161 180 209
161 181 209
153 171 198
153 172 197
153 171 196
144 163 187
157 176 197
151 168 190
148 165 187
153 170 193
201 219 242
212 230 255
212 230 255
212 230 255
212 230 255
212 230 255
212 230 255
193 193 212
161 119 126
161 117 121
160 117 119
161 117 121
162 119 125
164 119 121
162 117 117
161 118 117
163 119 125
163 118 118
160 117 117
166 119 121
161 117 117
158 116 111
164 120 124
164 119 125
165 120 125
164 119 123
165 120 122
166 120 125
165 120 121
161 118 115
165 120 124
166 120 124
161 118 113
163 119 120
163 118 113
167 121 122
164 118 118
164 119 118
163 119 119
161 118 115
165 120 122
165 119 118
163 119 118
165 120 121
164 120 118
165 120 123
162 118 109
163 119 118
161 117 113
163 119 122
165 120 123
165 120 123
164 120 120
162 117 113
165 120 123
163 119 119
164 119 118
164 118 118
162 118 115
163 118 115
164 119 121
162 118 113
164 120 123
161 118 111
163 119 120
162 118 116
163 118 110
162 118 113
162 118 119
160 117 113
165 120 121
164 119 117
164 119 117
162 119 119
164 119 118
163 119 118
162 118 118
165 120 123
163 119 120
163 118 116
164 119 118
164 119 118
167 121 121
164 120 123
163 118 116
161 117 117
165 119 117
165 120 125
161 118 116
160 117 110
165 120 123
163 118 115
163 119 122
164 120 123
162 118 116
162 118 117
165 119 122
164 119 122
164 119 120
162 118 121
161 118 113
164 119 122
163 119 121
164 119 117
161 117 118
162 118 116
165 120 126
165 120 122
164 119 123
163 118 119
163 117 116
159 115 108
159 116 117
164 118 120
161 116 121
194 198 218
212 230 255
212 230 255
212 230 255
212 230 255
212 230 255
212 230 255
202 216 230
169 163 112
176 170 111
179 173 114
177 172 114
176 172 114
175 171 114
173 171 114
173 171 114
173 170 114
171 170 114
171 170 114
171 170 114
170 169 114
170 169 114
169 169 114
169 169 114
169 169 114
168 168 114
169 169 114
168 168 114
168 168 114
168 168 114
167 168 114
168 169 114
167 168 114
167 168 114
168 168 114
167 168 114
167 168 114
167 168 114
168 168 114
167 168 114
167 168 114
168 168 114
168 168 114
167 168 114
168 168 114
168 168 114
168 168 114
168 168 114
168 168 114
168 168 114
168 168 114
168 168 114
168 168 114
168 168 114
169 169 114
168 168 114
168 168 114
169 169 114
169 169 114
169 169 114
169 169 114
169 169 114
169 169 114
169 169 114
170 169 114
169 169 114
169 169 114
170 169 114
170 169 114
170 169 114
170 169 114
171 170 114
171 170 114
171 170 114
171 170 114
172 170 114
171 170 114
171 170 114
171 170 114
171 170 114
172 170 114
172 170 114
172 170 114
172 170 114
173 170 114
173 170 114
173 171 114
174 171 114
173 171 114
173 171 114
174 171 114
173 171 114
173 171 114
175 171 114
175 172 114
175 171 114
175 171 114
175 172 114
175 172 114
175 172 114
175 171 114
176 172 114
176 172 114
176 172 114
177 172 114
176 172 114
177 172 114
176 172 114
177 172 114
177 173 114
178 173 114
178 173 114
177 173 114
177 173 114
179 173 114
179 173 114
178 173 114
179 173 114
178 173 114
179 173 114
179 173 114
179 173 114
179 174 114
180 174 114
180 174 114
180 174 114
179 173 114
181 174 114
180 174 114
181 174 114
181 174 114
181 174 114
182 175 114
182 175 114
182 175 114
182 175 114
182 175 114
183 175 114
183 175 114
168 186 200
161 180 187
169 188 206
168 187 206
169 188 202
173 192 207
172 192 211
169 188 200
161 180 195
170 188 209
167 186 202
172 192 208
169 189 208
167 187 203
169 188 204
166 186 204
169 188 204
168 188 208
175 196 219
171 192 212
170 189 213
172 192 213
176 196 217
176 195 214
174 194 213
177 197 218
174 194 216
176 195 217
176 196 219
171 190 211
178 198 220
176 195 218
178 199 220
169 189 213
172 192 208
176 197 221
173 193 216
174 195 218
174 196 221
175 197 224
171 193 208
174 195 216
172 193 213
178 200 225
175 196 221
176 198 223
175 197 220
172 193 214
172 194 221
174 195 219
172 194 217
178 199 227
172 192 218
173 193 216
170 192 219
175 198 228
173 195 220
172 195 225
177 198 224
174 197 227
174 197 226
170 192 217
175 198 225
173 195 223
176 197 224
173 196 225
175 198 227
173 195 224
174 197 224
172 196 224
173 196 225
173 195 223
174 197 227
175 198 228
174 197 227
173 195 224
174 197 227
175 196 222
172 195 225
173 195 225
173 197 227
172 194 222
169 189 217
173 194 223
171 194 225
171 193 223
170 191 219
169 192 222
169 191 220
173 195 222
170 190 218
172 195 226
167 189 219
171 192 221
167 187 217
173 194 223
166 188 217
168 188 217
168 188 218
170 190 218
168 189 220
162 182 212
170 190 219
164 184 213
163 181 210
167 186 216
166 185 215
163 183 212
165 182 211
158 175 203
160 177 207
163 181 211
161 182 211
161 177 204
157 176 205
160 178 208
162 179 208
160 178 207
154 171 197
160 179 207
149 164 190
156 175 202
157 174 200
156 173 200
151 168 193
148 164 188
153 170 194
141 157 179
145 163 186
148 166 187
144 160 179
201 219 243
212 231 255
212 230 255
212 230 255
212 230 255
211 229 254
164 131 138
162 119 123
161 116 116
161 117 120
162 117 116
163 117 122
162 117 119
165 119 126
162 118 118
161 118 122
161 118 124
166 120 125
162 118 120
161 117 113
161 118 115
163 118 117
166 120 122
165 120 121
160 116 117
163 119 120
165 120 125
163 118 116
164 119 119
162 118 109
162 118 115
162 118 114
165 120 121
162 118 114
159 117 112
162 118 117
165 119 117
164 119 121
163 118 116
163 119 122
164 119 116
162 118 114
161 117 112
164 119 118
164 119 119
162 118 117
163 119 121
159 116 110
163 119 118
166 120 124
162 118 116
165 120 118
164 119 119
164 119 117
163 119 119
163 119 120
164 119 123
164 119 115
163 118 118
164 119 121
163 119 116
160 117 107
166 120 119
164 119 118
162 118 118
164 119 121
166 120 125
165 120 118
162 118 118
164 119 121
163 119 115
163 119 118
162 118 115
163 119 118
164 119 119
166 120 121
166 120 122
164 119 117
165 120 126
166 120 124
163 118 114
160 117 111
162 118 111
166 120 121
163 118 116
163 119 120
164 118 118
163 119 122
163 118 115
163 118 118
164 120 121
165 120 119
166 120 124
162 118 118
163 118 119
161 118 113
164 119 119
165 120 125
166 120 121
160 116 112
164 119 122
162 118 117
162 117 115
161 117 115
162 118 115
161 117 116
164 119 121
162 118 116
165 118 121
161 117 119
161 116 112
164 118 121
161 117 120
163 117 119
170 138 145
210 226 250
212 230 255
212 230 255
212 230 255
212 231 255
204 220 240
168 164 127
175 168 110
179 173 113
179 173 114
177 172 114
176 172 114
175 171 114
174 171 114
173 171 114
172 170 114
172 170 114
172 170 114
171 170 114
171 170 114
171 170 114
170 169 114
169 169 114
169 169 114
169 169 114
168 168 114
169 169 114
168 168 114
168 169 114
168 169 114
168 168 114
168 168 114
168 168 114
168 168 114
169 169 114
168 168 114
168 169 114
168 168 114
168 168 114
168 168 114
168 168 114
168 168 114
168 168 114
168 169 114
168 168 114
169 169 114
169 169 114
168 169 114
168 168 114
169 169 114
169 169 114
169 169 114
169 169 114
170 169 114
169 169 114
169 169 114
169 169 114
170 169 114
170 169 114
170 169 114
169 169 114
170 169 114
170 169 114
170 169 114
170 169 114
171 170 114
171 170 114
171 170 114
170 169 114
171 170 114
172 170 114
171 170 114
171 170 114
171 170 114
172 170 114
172 170 114
172 170 114
172 170 114
173 170 114
173 170 114
173 171 114
174 171 114
173 171 114
173 171 114
174 171 114
173 171 114
174 171 114
174 171 114
174 171 114
175 171 114
175 171 114
175 171 114
175 171 114
175 172 114
175 172 114
175 172 114
176 172 114
175 172 114
176 172 114
176 172 114
176 172 114
176 172 114
176 172 114
176 172 114
176 172 114
177 172 114
177 173 114
178 173 114
178 173 114
178 173 114
178 173 114
178 173 114
178 173 114
178 173 114
179 173 114
179 173 114
180 174 114
179 173 114
180 174 114
179 174 114
179 173 114
180 174 114
180 174 114
180 174 114
181 174 114
180 174 114
181 174 114
181 174 114
181 174 114
182 175 114
181 174 114
182 175 114
182 175 114
182 175 114
182 175 114
183 175 114
182 175 114
182 175 114
169 187 200
162 181 188
172 191 207
163 181 199
166 183 200
168 186 204
165 183 199
174 192 209
162 181 202
171 191 209
170 190 209
169 188 207
169 187 208
171 191 209
170 189 208
169 189 207
175 195 213
172 191 212
169 188 206
170 191 213
172 192 209
171 192 211
174 195 217
174 195 218
168 188 209
172 193 217
169 188 206
171 190 208
176 196 219
174 193 216
172 192 216
173 194 213
175 195 214
177 197 219
178 198 225
175 196 217
170 191 212
172 193 216
169 189 212
173 192 212
169 191 216
173 194 218
176 196 218
174 195 218
173 195 214
176 197 220
174 194 218
171 192 217
175 196 220
176 197 220
175 197 224
175 195 219
176 197 223
178 199 224
175 197 219
176 197 221
175 196 221
175 197 224
174 195 220
177 199 228
171 193 220
176 198 226
176 198 226
176 198 224
175 197 225
174 196 220
173 195 223
173 195 223
173 195 221
173 195 221
175 198 226
175 197 224
178 199 227
172 195 225
173 195 223
173 196 224
175 198 228
172 193 219
173 196 225
174 196 225
174 196 225
172 194 223
174 196 226
172 194 222
172 193 223
170 190 219
173 195 224
173 196 225
170 192 223
171 192 222
171 190 218
170 188 216
169 190 219
164 180 206
170 192 223
172 193 222
169 189 218
170 189 218
168 190 220
165 181 211
167 187 216
169 188 218
162 180 209
167 186 216
163 180 209
169 187 216
168 185 214
164 185 216
161 178 207
161 178 207
162 177 206
162 179 209
160 179 208
163 181 210
158 172 199
159 177 206
158 173 202
159 174 202
160 177 205
162 179 208
153 167 193
157 174 201
151 169 195
160 177 204
156 172 199
154 170 196
160 178 204
149 167 192
149 167 190
149 166 189
139 155 177
154 170 187
211 229 254
212 231 255
212 231 255
212 231 255
188 183 198
160 117 124
158 116 119
159 116 118
161 118 117
159 116 118
160 117 120
163 119 118
162 118 123
158 115 111
164 120 122
163 118 120
163 118 119
160 117 119
162 118 120
163 119 122
159 116 115
163 119 119
162 118 117
161 117 116
161 117 117
164 120 122
161 117 117
166 120 120
166 120 123
164 119 119
162 118 117
162 117 110
162 117 118
163 118 120
164 120 126
165 119 118
164 119 119
166 120 119
165 120 122
165 120 122
165 120 120
165 119 118
164 119 118
164 119 120
163 119 117
161 117 110
161 118 115
159 116 109
162 118 113
160 117 114
163 118 113
164 119 118
165 120 121
163 119 118
162 118 114
164 119 121
164 119 114
164 119 117
163 119 118
164 119 118
162 118 117
163 118 110
162 118 114
161 118 113
164 120 122
164 118 115
165 120 119
160 117 113
160 117 113
167 121 126
168 122 129
161 118 115
163 119 114
163 118 116
162 118 116
166 120 121
162 118 118
162 118 114
163 119 119
163 119 115
162 118 116
165 120 119
164 119 123
163 118 118
163 118 116
165 120 121
164 119 119
164 119 120
163 119 118
162 117 112
160 116 107
163 119 118
163 118 117
163 119 121
163 119 122
163 118 118
161 117 108
164 119 121
163 118 118
163 118 117
161 117 114
165 120 120
163 118 116
162 117 115
160 116 117
163 118 119
161 117 110
164 118 122
160 116 116
164 119 121
159 114 110
164 118 123
162 117 116
160 115 112
193 193 212
212 231 255
212 231 255
212 231 255
212 229 252
176 175 147
172 165 108
179 173 113
179 173 114
177 172 114
177 172 114
176 172 114
174 171 114
174 171 114
172 170 114
172 170 114
172 170 114
171 170 114
171 170 114
171 170 114
171 169 114
170 169 114
170 169 114
169 169 114
170 169 114
170 169 114
169 169 114
169 169 114
169 169 114
169 169 114
169 169 114
169 169 114
169 169 114
169 169 114
169 169 114
168 169 114
169 169 114
168 169 114
169 169 114
168 169 114
169 169 114
169 169 114
169 169 114
169 169 114
169 169 114
169 169 114
169 169 114
169 169 114
169 169 114
169 169 114
170 169 114
169 169 114
169 169 114
170 169 114
170 169 114
170 169 114
170 169 114
171 170 114
170 169 114
170 169 114
170 169 114
171 170 114
171 169 114
172 170 114
171 170 114
172 170 114
172 170 114
172 170 114
173 170 114
172 170 114
172 170 114
172 170 114
172 170 114
172 170 114
173 170 114
173 170 114
173 170 114
173 171 114
173 171 114
174 171 114
174 171 114
174 171 114
174 171 114
174 171 114
174 171 114
174 171 114
175 171 114
175 171 114
175 171 114
175 172 114
175 172 114
176 172 114
175 172 114
176 172 114
176 172 114
176 172 114
175 172 114
176 172 114
177 172 114
177 172 114
177 173 114
177 173 114
177 173 114
177 173 114
178 173 114
177 173 114
178 173 114
178 173 114
178 173 114
178 173 114
179 173 114
179 173 114
179 173 114
179 173 114
180 174 114
179 173 114
180 174 114
181 174 114
180 174 114
181 174 114
180 174 114
181 174 114
181 174 114
180 174 114
181 174 114
182 175 114
182 175 114
181 174 114
181 174 114
181 174 114
181 175 114
182 175 114
183 175 114
183 175 114
182 175 114
183 175 114
182 175 114
184 176 114
170 189 202
163 182 191
169 187 202
171 190 204
168 188 202
170 189 200
168 188 196
169 189 208
162 181 191
173 192 214
169 188 203
171 189 206
168 186 206
174 193 213
172 191 213
168 186 204
169 187 204
173 192 213
173 193 207
172 190 204
171 192 207
169 188 203
175 195 213
173 193 209
172 192 213
176 195 217
175 195 214
174 194 209
174 195 214
175 195 212
176 196 218
173 193 216
172 193 214
175 195 213
175 196 216
175 195 214
174 195 216
178 198 219
176 197 219
173 195 216
174 194 214
174 195 216
175 195 212
173 194 217
178 198 218
175 196 223
176 197 221
172 192 218
172 194 216
177 198 224
175 196 223
174 195 220
172 194 216
175 197 220
176 196 220
174 196 224
176 198 223
177 198 224
175 197 225
175 197 224
175 198 226
168 190 214
175 197 221
176 198 226
177 199 226
178 200 225
177 199 226
176 197 224
175 196 223
174 197 223
173 195 224
172 195 223
175 196 221
176 198 221
174 197 225
174 195 220
176 199 228
175 197 224
173 196 222
171 195 223
173 195 225
170 192 221
173 195 225
173 195 225
170 189 214
171 193 221
172 194 222
172 194 222
171 191 221
173 193 221
173 196 224
171 191 217
172 192 220
170 187 216
169 189 216
170 192 222
169 191 221
170 190 220
170 190 216
166 186 215
165 184 213
167 183 209
168 186 216
166 184 213
163 178 206
164 180 208
162 180 208
163 179 207
162 177 205
162 178 208
159 174 202
161 175 203
160 173 200
162 178 206
158 173 201
159 175 203
160 175 203
158 174 202
156 170 196
154 171 199
156 171 198
152 165 192
158 176 202
149 164 189
161 178 204
160 178 205
153 169 192
152 169 194
157 174 197
148 163 184
146 163 183
139 155 171
177 193 214
213 231 255
213 231 255
209 224 247
165 130 137
159 116 119
161 117 117
162 117 121
161 118 117
160 117 116
158 115 108
162 118 122
160 117 120
165 120 120
161 117 115
160 117 115
164 119 120
163 118 120
163 118 120
164 119 121
161 118 111
162 118 121
162 118 115
162 118 113
163 119 118
160 116 111
164 119 121
160 117 118
163 119 117
166 120 120
163 119 116
162 118 116
162 118 117
164 119 117
165 120 122
164 119 116
164 119 122
163 119 115
164 119 117
162 117 115
162 118 117
164 119 119
161 117 109
164 119 112
164 119 116
163 119 118
163 118 117
164 119 117
162 118 113
165 120 120
163 118 118
166 120 117
160 117 115
164 119 113
163 118 109
161 117 115
163 119 115
165 120 123
166 121 122
161 118 114
164 118 114
163 118 115
165 120 119
163 119 116
164 119 119
163 118 112
163 118 117
162 118 118
164 119 118
162 117 112
165 119 118
163 119 118
166 120 120
164 119 118
162 118 118
162 118 113
165 120 119
164 119 118
165 119 118
163 119 118
163 119 117
161 117 111
163 118 118
161 117 113
164 119 117
162 118 117
163 118 117
164 119 118
164 118 116
165 119 120
163 119 116
160 117 111
165 119 117
164 119 124
163 118 114
163 118 119
165 119 120
162 118 117
163 118 117
162 118 115
163 118 118
163 117 114
165 119 119
162 118 119
165 120 125
160 116 110
163 117 115
166 120 125
160 116 113
162 117 117
163 118 119
167 120 125
161 116 115
158 113 110
162 121 124
209 224 247
213 231 255
213 231 255
170 172 155
173 165 108
179 173 113
180 174 114
178 173 114
177 173 114
176 172 114
175 171 114
174 171 114
174 171 114
173 171 114
173 171 114
172 170 114
172 170 114
172 170 114
172 170 114
171 170 114
171 170 114
171 169 114
171 169 114
170 169 114
171 170 114
170 169 114
169 169 114
170 169 114
170 169 114
169 169 114
170 169 114
170 169 114
169 169 114
169 169 114
170 169 114
169 169 114
170 169 114
170 169 114
170 169 114
170 169 114
169 169 114
170 169 114
170 169 114
169 169 114
171 169 114
170 169 114
170 169 114
170 169 114
170 169 114
171 170 114
171 170 114
170 169 114
171 170 114
171 170 114
171 170 114
171 170 114
171 170 114
172 170 114
171 170 114
171 170 114
171 170 114
172 170 114
172 170 114
172 170 114
172 170 114
172 170 114
172 170 114
172 170 114
173 171 114
173 171 114
173 171 114
173 171 114
174 171 114
173 171 114
174 171 114
173 171 114
174 171 114
174 171 114
174 171 114
174 171 114
174 171 114
174 171 114
175 171 114
175 171 114
175 171 114
176 172 114
176 172 114
175 172 114
176 172 114
176 172 114
176 172 114
176 172 114
177 172 114
177 172 114
177 172 114
177 172 114
177 172 114
178 173 114
177 172 114
177 172 114
177 172 114
178 173 114
178 173 114
178 173 114
179 173 114
178 173 114
179 174 114
179 173 114
179 174 114
180 174 114
179 174 114
180 174 114
179 174 114
180 174 114
180 174 114
180 174 114
180 174 114
181 174 114
180 174 114
181 174 114
181 174 114
181 174 114
181 174 114
182 175 114
182 175 114
182 175 114
182 175 114
182 175 114
182 175 114
183 175 114
183 175 114
183 175 114
183 175 114
183 175 114
183 175 114
183 175 114
183 175 114
168 186 196
165 184 198
171 190 204
167 186 202
169 188 208
168 186 203
165 183 196
169 188 202
169 188 204
176 195 217
173 192 209
172 192 209
170 189 200
173 192 200
171 191 207
170 190 206
174 193 208
173 191 207
175 194 216
169 189 203
172 192 208
172 192 209
174 192 209
175 195 216
171 192 211
170 190 213
174 195 213
174 194 212
178 198 220
179 199 220
174 195 212
175 196 220
176 196 216
176 195 219
174 195 216
172 193 213
173 193 213
174 194 218
174 195 218
178 198 220
175 195 218
177 199 221
175 196 218
177 199 221
177 197 216
177 197 220
175 198 221
172 193 214
171 192 216
177 198 221
177 197 219
174 195 214
171 193 217
177 199 225
177 199 225
174 195 218
178 199 226
174 196 218
178 199 224
177 199 227
177 199 224
173 194 221
175 197 223
178 199 227
174 196 223
178 199 224
175 198 226
174 195 222
175 196 220
174 197 225
175 197 225
174 197 225
176 198 224
176 197 222
171 193 223
174 196 223
175 197 226
175 198 225
175 197 225
175 195 222
174 195 220
173 195 220
175 197 225
173 195 223
174 195 225
173 195 225
169 188 214
170 188 215
175 196 224
173 196 226
172 191 219
170 190 219
173 195 225
170 189 217
173 192 221
172 191 220
170 189 216
169 187 215
168 185 212
166 185 213
168 184 209
165 180 206
166 182 210
163 181 210
165 181 209
166 183 212
165 181 210
164 178 206
166 181 209
161 176 205
158 172 199
164 181 210
157 169 195
161 176 204
161 177 206
157 172 199
161 172 200
157 169 195
159 172 200
153 165 192
153 168 195
149 162 189
155 169 195
154 169 197
158 171 197
150 164 188
156 172 198
154 169 193
156 172 195
154 169 190
157 175 196
149 166 184
136 151 167
190 207 228
213 231 255
188 185 202
160 117 116
161 117 121
162 118 119
159 117 117
162 117 120
165 119 123
163 119 121
162 118 115
164 119 119
161 117 114
161 118 116
161 117 115
162 118 119
162 117 117
161 117 112
159 116 109
163 118 117
168 121 126
165 119 118
163 119 117
162 118 113
161 117 111
163 118 120
161 118 115
162 118 117
163 119 117
163 119 117
158 116 111
163 119 119
165 120 122
164 119 121
163 118 113
165 120 117
163 118 117
162 118 113
163 118 112
165 120 121
163 119 120
164 119 118
165 119 117
163 119 114
165 119 120
165 120 122
162 118 116
164 119 119
164 119 115
164 119 113
161 117 108
165 119 118
164 119 113
166 120 118
167 121 123
165 119 118
161 118 116
162 118 115
162 118 118
163 118 116
166 121 126
166 120 120
164 120 122
162 118 114
165 120 123
163 119 115
162 118 115
164 119 117
163 118 114
163 118 120
166 120 124
163 118 118
164 119 118
164 118 118
166 120 119
164 119 117
165 120 119
163 119 117
164 119 118
164 119 112
165 119 118
166 120 122
163 119 115
165 119 119
164 119 120
162 117 116
166 120 120
164 119 118
163 119 115
164 119 119
164 119 119
165 119 120
163 118 116
166 120 124
163 119 118
164 119 121
162 118 117
163 118 117
161 117 114
163 118 115
164 119 119
164 119 120
160 115 110
163 119 124
163 117 114
161 116 111
161 116 116
164 117 120
162 117 117
162 117 115
163 118 121
162 117 118
162 115 115
160 115 117
182 171 183
213 231 255
188 198 204
175 167 108
180 173 113
179 173 113
179 173 114
178 173 114
176 172 114
176 172 114
176 172 114
175 171 114
174 171 114
174 171 114
173 170 114
173 171 114
173 170 114
172 170 114
172 170 114
171 170 114
171 170 114
172 170 114
171 170 114
171 170 114
171 170 114
171 170 114
170 169 114
171 170 114
171 170 114
170 169 114
170 169 114
170 169 114
170 169 114
171 170 114
170 169 114
170 169 114
170 169 114
170 169 114
170 169 114
170 169 114
171 170 114
171 170 114
170 169 114
171 170 114
170 169 114
171 170 114
172 170 114
171 170 114
171 170 114
171 170 114
172 170 114
171 170 114
172 170 114
171 170 114
172 170 114
172 170 114
172 170 114
172 170 114
172 170 114
172 170 114
172 170 114
173 171 114
173 171 114
173 171 114
173 171 114
173 170 114
174 171 114
173 170 114
174 171 114
174 171 114
174 171 114
174 171 114
174 171 114
174 171 114
174 171 114
175 171 114
175 171 114
175 171 114
175 171 114
175 171 114
175 172 114
175 172 114
176 172 114
176 172 114
176 172 114
176 172 114
176 172 114
176 172 114
176 172 114
177 172 114
177 172 114
178 173 114
177 173 114
177 172 114
177 173 114
177 173 114
178 173 114
178 173 114
178 173 114
177 173 114
178 173 114
179 173 114
178 173 114
179 173 114
179 173 114
179 173 114
179 173 114
179 173 114
180 174 114
180 174 114
180 174 114
180 174 114
181 174 114
180 174 114
180 174 114
179 174 114
181 174 114
180 174 114
181 174 114
181 174 114
181 174 114
181 174 114
181 174 114
182 175 114
182 175 114
182 175 114
182 175 114
182 175 114
183 175 114
183 175 114
183 175 114
183 175 114
183 175 114
183 175 114
183 175 114
184 176 114
185 176 114
175 194 207
171 189 204
165 184 198
175 193 208
168 185 198
172 191 209
173 191 202
170 189 206
171 191 204
166 184 200
171 189 203
173 191 206
168 187 195
170 188 204
172 191 204
173 192 208
174 194 213
175 194 211
172 192 212
170 190 207
169 188 200
172 192 208
175 194 213
174 194 212
177 196 219
172 193 211
173 193 213
176 196 214
175 195 211
175 195 213
177 197 217
178 198 217
174 194 209
174 194 214
174 195 211
174 195 216
172 193 214
178 198 213
178 198 220
175 196 219
174 195 211
173 193 213
179 199 220
175 196 218
174 194 216
172 193 204
179 199 220
175 195 213
180 200 226
177 198 221
177 197 217
179 200 223
175 196 221
176 197 223
176 198 223
175 196 220
177 198 220
177 198 224
174 195 214
177 199 226
175 196 221
177 199 225
176 198 219
176 197 220
178 199 224
177 199 227
176 198 221
173 194 220
176 198 224
177 198 223
175 196 220
176 199 227
178 199 224
177 199 226
176 198 224
175 196 220
175 197 224
176 196 225
176 196 220
176 197 226
177 196 223
173 194 222
174 197 224
174 196 224
175 197 226
173 195 222
175 196 225
171 193 221
174 194 221
168 187 214
173 192 221
174 196 226
171 192 222
172 192 221
171 190 219
172 194 224
169 188 214
170 188 217
168 186 214
167 186 215
165 183 211
167 183 211
166 182 210
168 186 211
163 179 207
164 178 205
164 179 207
162 174 201
164 180 209
163 179 207
163 178 206
159 169 196
160 172 199
159 171 197
156 165 191
157 168 194
156 170 197
160 171 198
157 169 195
157 166 193
157 171 198
157 170 198
150 160 185
156 170 195
144 157 181
156 169 194
153 167 190
143 155 178
153 168 192
145 161 182
147 165 185
151 169 187
147 160 176
140 156 172
199 215 237
166 134 138
160 116 118
163 118 121
160 116 116
160 117 118
163 119 120
160 116 119
163 118 116
164 118 116
163 118 114
161 117 114
161 118 113
166 120 120
162 118 118
161 118 115
164 119 121
163 118 117
161 118 118
163 118 117
161 117 112
162 118 116
164 119 121
163 118 117
162 118 113
163 118 118
161 117 112
162 118 116
163 119 117
163 118 112
165 119 118
164 119 119
164 118 118
164 119 119
164 119 117
161 117 114
161 116 113
164 120 124
165 120 123
161 118 111
165 120 118
162 118 114
162 118 117
162 118 116
162 117 112
163 119 115
164 119 118
165 120 120
162 118 113
162 118 112
162 117 114
163 119 117
162 118 115
163 119 117
165 120 118
164 119 119
165 119 114
165 120 116
165 119 113
163 119 118
165 120 118
164 119 123
164 119 118
162 118 115
160 117 113
162 118 118
165 120 123
163 118 113
161 117 117
165 119 118
162 117 108
163 119 118
162 118 114
166 119 123
164 119 113
163 118 116
161 116 112
166 120 121
161 117 112
162 117 113
166 120 119
164 118 116
163 119 119
166 120 123
161 117 114
166 120 122
165 120 118
165 119 122
164 118 113
162 119 120
163 118 114
162 118 114
167 121 125
162 117 118
162 117 116
163 118 115
163 118 117
164 118 114
162 116 111
162 117 107
163 118 117
163 118 113
162 117 114
165 119 121
163 117 111
163 118 118
164 119 119
161 115 116
159 116 113
161 117 112
163 118 118
160 115 115
160 114 113
163 125 126
198 210 221
170 164 116
180 172 111
181 174 114
180 174 114
179 173 114
178 173 114
177 172 114
175 172 114
175 172 114
175 172 114
174 171 114
174 171 114
173 171 114
173 170 113
173 170 113
172 169 113
172 169 113
172 170 114
171 168 112
172 169 113
171 168 113
171 169 113
171 169 114
170 169 114
171 170 114
171 170 114
171 170 114
171 170 114
171 170 114
171 170 114
172 170 114
171 170 114
171 170 114
171 170 114
172 170 114
171 170 114
171 170 114
171 170 114
171 170 114
172 170 114
172 170 114
171 170 114
172 170 114
172 170 114
172 170 114
172 170 114
172 170 114
172 170 114
173 170 114
173 170 114
173 170 114
173 170 114
173 171 114
172 170 114
172 170 114
173 170 114
173 171 114
174 171 114
173 171 114
174 171 114
174 171 114
174 171 114
173 171 114
174 171 114
173 171 114
175 171 114
175 171 114
175 171 114
174 171 114
175 171 114
175 172 114
176 172 114
175 171 114
176 172 114
175 171 114
175 171 114
176 172 114
176 172 114
176 172 114
176 172 114
176 172 114
176 172 114
176 172 114
177 172 114
177 172 114
177 172 114
177 172 114
178 173 114
178 173 114
177 173 114
178 173 114
178 173 114
179 173 114
178 173 114
178 173 114
179 173 114
179 173 114
178 173 114
179 173 114
179 174 114
179 174 114
179 173 114
180 174 114
180 174 114
179 173 114
180 174 114
181 174 114
181 174 114
181 174 114
181 174 114
181 174 114
180 174 114
181 174 114
182 175 114
181 174 114
181 174 114
182 175 114
182 175 114
182 175 114
182 175 114
181 175 114
182 175 114
183 175 114
183 175 114
183 175 114
183 175 114
183 175 114
183 175 114
184 175 114
184 175 114
184 176 114
184 176 114
184 176 114
183 175 114
184 176 114
171 190 203
171 188 198
171 189 199
167 186 202
169 187 204
168 186 198
164 183 191
167 187 195
171 190 200
174 194 211
169 187 202
173 193 206
165 184 194
171 191 200
170 191 199
174 194 212
171 191 211
166 185 194
177 196 216
176 196 206
173 193 207
172 191 208
178 197 214
176 196 218
174 194 213
175 195 213
179 199 219
175 195 213
175 195 214
172 192 209
179 198 218
173 193 209
178 197 220
169 189 204
178 198 218
171 190 209
179 200 219
174 195 219
175 196 214
177 197 218
175 195 218
175 195 218
177 198 217
176 196 213
178 198 221
174 194 213
179 200 221
177 198 223
178 198 221
176 197 217
176 196 217
176 197 217
179 200 224
177 197 217
181 201 226
178 198 220
176 197 220
175 196 217
173 194 214
177 198 219
175 197 220
178 199 221
177 199 223
177 197 216
176 199 226
177 198 219
176 197 222
173 195 219
175 197 222
178 199 226
176 196 221
175 197 222
175 196 220
178 198 221
175 197 223
176 198 224
175 196 221
176 196 223
175 195 220
176 197 225
175 194 220
176 196 224
174 197 224
173 192 216
174 196 221
173 193 220
174 194 224
174 194 220
171 190 214
172 191 218
172 190 218
173 192 219
172 190 217
169 185 211
171 192 220
165 181 209
171 191 218
169 184 212
167 183 210
172 192 219
171 189 218
168 185 213
164 180 208
165 178 206
164 178 204
163 177 204
162 175 200
164 177 205
163 174 200
164 176 202
162 175 202
162 175 203
159 171 198
162 174 200
156 169 197
157 166 192
154 165 191
159 166 191
154 169 197
150 160 186
154 167 194
153 165 192
150 159 184
153 162 188
154 164 189
154 166 191
152 166 190
151 165 189
148 161 185
149 161 183
153 170 192
146 161 182
141 158 176
147 163 175
148 141 155
160 116 115
157 114 119
160 117 116
161 117 118
163 118 118
159 116 120
161 118 117
162 118 120
160 117 119
162 117 115
163 119 120
164 120 123
163 118 120
158 115 113
162 118 114
163 119 119
162 118 113
162 118 114
164 120 123
163 118 118
163 118 119
160 116 112
165 120 120
165 119 117
162 117 113
161 117 110
164 119 117
161 117 108
161 118 113
162 118 111
164 120 118
162 118 110
162 118 117
166 120 117
163 119 119
165 120 119
163 118 113
165 120 117
165 119 118
166 120 123
163 119 116
165 119 118
165 119 118
162 118 112
163 118 118
163 118 113
165 119 118
162 119 116
164 119 122
167 121 124
163 119 118
161 117 111
160 116 110
166 120 125
165 119 113
161 117 111
161 117 111
163 118 118
163 118 118
162 117 113
161 118 114
162 118 113
162 118 118
165 120 120
162 117 113
162 117 111
166 121 123
161 117 112
165 119 118
161 118 113
164 119 122
162 117 110
165 119 118
162 118 112
163 118 109
165 120 120
166 120 124
157 115 106
164 119 109
164 119 119
162 117 118
161 117 114
165 120 118
166 120 122
164 119 120
161 117 114
161 117 113
165 119 120
165 119 117
163 118 116
159 115 112
165 119 122
163 119 123
164 119 120
166 120 118
162 117 121
164 119 119
163 118 116
163 118 116
162 117 115
161 117 115
162 117 113
159 115 110
165 119 120
160 115 107
160 116 116
159 114 116
165 119 122
162 117 117
161 116 117
160 116 112
162 116 116
158 113 110
163 140 115
178 170 110
181 174 113
180 174 114
180 174 114
179 173 114
177 173 114
177 172 114
176 172 114
176 172 114
176 172 114
174 170 113
174 170 113
173 168 112
173 168 112
171 168 112
171 167 111
172 169 113
170 165 110
171 166 111
170 165 110
170 165 110
170 165 110
172 169 113
172 169 114
171 169 113
173 170 114
172 170 114
172 170 114
172 170 114
171 170 114
172 170 114
172 170 114
172 170 114
172 170 114
172 170 114
172 170 114
172 170 114
172 170 114
172 170 114
172 170 114
173 170 114
173 171 114
173 171 114
173 171 114
172 170 114
173 171 114
172 170 114
172 170 114
173 171 114
173 171 114
173 171 114
174 171 114
174 171 114
173 171 114
173 171 114
173 171 114
174 171 114
174 171 114
175 171 114
174 171 114
175 171 114
175 171 114
174 171 114
175 171 114
175 171 114
175 171 114
175 172 114
175 171 114
175 172 114
176 172 114
175 172 114
176 172 114
176 172 114
176 172 114
176 172 114
176 172 114
177 172 114
177 172 114
177 172 114
177 173 114
177 172 114
178 173 114
177 172 114
179 173 114
178 173 114
177 173 114
178 173 114
178 173 114
179 173 114
178 173 114
178 173 114
178 173 114
178 173 114
179 173 114
179 173 114
179 173 114
180 174 114
179 173 114
180 174 114
180 174 114
180 174 114
181 174 114
180 174 114
180 174 114
181 174 114
181 174 114
180 174 114
181 174 114
181 175 114
181 174 114
181 174 114
182 175 114
182 175 114
183 175 114
182 175 114
183 175 114
182 175 114
182 175 114
182 175 114
182 175 114
183 175 114
183 175 114
182 175 114
183 175 114
183 175 114
183 175 114
184 176 114
184 176 114
183 175 114
184 176 114
184 176 114
184 176 114
185 176 114
185 176 114
185 176 114
174 192 204
175 194 203
173 192 200
169 186 195
169 187 200
167 186 190
174 193 204
170 189 198
172 192 204
173 192 208
172 192 199
168 187 196
170 190 203
172 190 200
176 195 213
168 187 195
177 196 213
171 189 206
173 192 200
177 196 211
175 194 212
170 190 203
172 192 213
172 193 208
174 194 206
176 195 212
176 196 216
174 193 208
174 194 206
173 193 206
175 194 214
174 194 212
175 194 208
173 192 208
176 196 212
177 197 214
175 195 212
178 198 218
173 191 209
170 191 209
176 197 219
176 196 219
174 194 209
178 198 219
177 196 214
176 196 218
176 196 219
174 196 218
180 200 220
178 198 217
177 197 218
176 196 214
179 199 223
176 197 218
179 199 220
174 195 217
180 199 219
178 198 217
178 199 225
177 198 223
175 197 223
176 197 219
176 197 223
177 198 221
179 200 226
177 198 222
175 196 215
176 198 223
178 199 220
175 197 221
177 199 220
178 199 225
176 198 223
176 198 224
177 199 225
178 199 224
177 198 225
176 196 224
176 198 224
175 196 219
174 195 218
175 196 222
176 196 223
172 191 218
177 197 223
174 193 218
176 196 222
173 192 215
172 192 219
171 189 215
173 193 220
173 194 218
170 186 213
174 193 219
171 190 218
171 183 207
169 187 217
166 181 209
167 184 212
170 187 213
166 181 205
170 188 214
171 188 215
164 175 201
165 179 207
166 177 204
162 174 200
159 170 197
163 176 204
165 180 207
155 164 187
162 173 200
162 172 199
155 164 189
159 169 195
157 162 187
161 177 205
151 159 184
154 161 186
154 162 188
161 174 202
151 156 180
148 158 182
147 158 183
149 156 180
155 167 193
158 174 200
149 161 184
149 159 181
155 171 194
153 166 189
141 155 174
145 158 175
145 162 177
160 122 129
158 115 115
158 115 116
161 117 118
160 116 115
160 117 117
160 116 116
160 116 120
161 117 119
162 118 118
158 115 108
163 118 120
162 118 114
163 119 120
161 118 118
164 119 117
160 116 111
160 117 110
160 117 115
165 120 119
164 119 115
163 118 114
158 115 108
165 119 119
162 118 115
164 118 118
161 118 117
167 120 123
163 118 113
162 118 118
163 119 113
163 118 111
162 118 112
164 119 118
163 118 112
164 119 118
166 120 122
162 118 118
163 118 113
163 118 117
164 120 125
165 119 118
161 117 113
162 118 111
164 119 118
164 119 118
165 120 119
166 120 116
161 118 113
163 118 113
163 118 118
162 118 116
165 119 116
162 117 109
164 119 117
161 116 113
166 120 119
163 118 117
164 119 118
163 119 120
159 117 110
164 119 116
161 118 109
164 118 111
159 117 109
164 119 123
163 119 117
161 118 112
160 116 107
164 119 118
164 118 115
164 119 117
162 117 113
167 121 121
162 118 113
164 119 116
163 118 113
163 118 113
162 118 114
165 119 118
160 116 113
162 118 119
162 118 116
165 119 118
162 118 112
165 120 117
163 118 112
161 117 113
164 118 114
161 117 108
162 118 110
165 119 116
159 116 104
163 117 116
163 118 114
160 116 106
160 116 113
166 120 122
164 119 115
162 117 114
163 117 116
165 119 120
162 118 116
162 116 116
162 116 117
164 119 119
164 118 118
162 116 114
161 116 111
163 118 117
158 114 109
163 117 112
162 116 115
159 113 110
162 123 110
183 174 114
182 175 114
180 174 114
179 174 114
179 173 114
178 173 114
177 173 114
176 172 114
176 172 114
174 166 110
173 166 111
172 165 110
170 162 108
170 161 107
171 164 109
167 156 104
170 162 108
170 164 109
169 161 107
169 161 108
169 162 107
169 161 107
172 168 113
171 167 112
171 168 113
172 167 112
173 170 113
173 171 114
173 171 114
173 171 114
172 170 114
173 171 114
173 171 114
173 170 114
173 171 114
173 171 114
173 170 114
173 171 114
173 171 114
173 170 114
173 171 114
173 171 114
173 171 114
174 171 114
174 171 114
174 171 114
174 171 114
174 171 114
174 171 114
174 171 114
174 171 114
175 171 114
174 171 114
174 171 114
174 171 114
174 171 114
175 171 114
175 172 114
175 172 114
176 172 114
175 171 114
175 172 114
176 172 114
176 172 114
175 172 114
176 172 114
176 172 114
176 172 114
176 172 114
176 172 114
176 172 114
177 172 114
176 172 114
177 172 114
177 172 114
177 172 114
177 172 114
177 172 114
178 173 114
178 173 114
179 173 114
178 173 114
178 173 114
178 173 114
178 173 114
178 173 114
179 173 114
179 174 114
179 173 114
180 174 114
179 174 114
180 174 114
179 173 114
179 173 114
179 174 114
181 174 114
180 174 114
181 174 114
181 174 114
180 174 114
181 174 114
181 174 114
180 174 114
181 174 114
182 175 114
181 175 114
182 175 114
182 175 114
182 175 114
181 174 114
182 175 114
182 175 114
182 175 114
182 175 114
182 175 114
183 175 114
183 175 114
183 175 114
182 175 114
184 176 114
183 175 114
183 175 114
183 175 114
185 176 114
184 176 114
183 175 114
184 176 114
184 176 114
184 176 114
184 176 114
185 176 114
184 176 114
185 176 114
185 176 114
185 176 114
165 183 187
171 190 204
175 194 202
170 188 204
170 188 200
169 189 200
170 188 202
172 191 198
174 193 204
174 193 203
174 194 206
170 189 191
176 196 212
169 187 194
174 194 207
174 192 203
176 196 209
176 196 211
175 193 206
173 193 207
172 191 198
179 199 220
167 187 204
173 193 211
176 196 217
172 192 208
177 196 214
175 195 204
173 192 212
178 196 209
175 194 207
176 196 213
180 199 220
175 195 213
174 194 212
179 199 219
176 196 214
176 196 214
177 198 218
176 195 214
178 198 213
179 198 213
176 196 213
177 197 217
177 197 218
178 199 217
175 196 216
180 199 213
178 198 214
179 199 218
175 196 214
174 196 217
179 199 221
178 198 219
177 198 217
177 198 220
178 198 221
177 197 216
178 199 217
178 199 221
175 197 220
179 199 223
177 198 219
178 199 224
180 200 221
176 197 218
180 200 223
178 198 218
175 195 218
175 195 213
176 197 222
176 197 220
178 198 219
176 198 225
177 197 221
177 198 224
178 198 218
176 196 219
176 195 218
176 197 223
177 198 224
178 197 224
176 197 219
176 197 225
172 193 220
174 193 217
173 191 215
174 193 219
172 189 212
174 192 217
176 195 219
174 193 220
173 190 215
172 190 213
170 189 215
173 192 219
172 190 217
170 187 211
168 183 208
170 185 212
169 182 208
167 183 210
166 177 202
167 180 208
167 180 207
162 175 202
166 177 204
166 180 207
160 172 198
163 176 201
160 170 195
162 173 199
155 161 186
154 162 186
149 155 179
157 167 193
156 167 193
155 160 184
151 155 179
152 162 186
151 156 180
155 161 186
154 155 178
159 171 198
146 152 175
156 166 190
150 160 183
153 162 185
154 162 184
148 157 178
149 161 184
149 162 183
155 169 190
148 145 160
159 116 120
163 117 123
162 118 121
160 117 119
158 116 113
160 117 115
163 118 118
161 117 117
163 118 115
160 116 114
162 118 120
163 118 116
159 116 111
162 118 112
163 118 119
162 118 115
161 117 113
166 120 123
163 119 119
162 118 117
159 116 107
160 117 107
163 118 114
163 119 118
162 118 113
163 118 118
162 117 110
166 120 120
163 119 116
163 118 117
161 117 112
164 119 117
158 115 105
162 117 115
161 116 113
162 118 114
164 118 118
164 120 118
164 119 117
163 119 117
164 118 117
163 118 113
163 119 115
165 119 118
161 118 111
159 115 104
162 117 113
164 119 117
160 117 113
162 117 107
162 117 111
164 119 117
163 118 118
165 119 118
164 119 120
164 119 118
161 117 109
164 119 118
163 119 117
161 117 111
162 117 108
163 118 115
163 117 112
163 119 113
162 118 113
162 118 111
163 119 118
164 118 117
161 117 114
164 118 110
162 117 119
164 119 116
163 119 117
161 117 106
163 119 113
162 118 113
162 118 112
164 118 115
164 119 117
165 119 121
164 119 118
163 118 118
165 119 118
161 117 111
164 119 118
160 116 104
163 118 111
165 119 118
166 120 120
161 117 113
164 119 119
160 117 112
163 118 113
162 118 117
160 116 111
160 117 111
162 118 116
160 117 112
158 114 107
161 116 110
161 117 115
162 117 111
163 118 115
161 117 115
162 117 111
163 118 113
163 118 118
160 115 115
162 117 113
159 115 108
159 115 108
162 116 111
160 116 116
161 116 113
162 115 115
176 160 112
181 174 114
181 174 114
179 173 114
179 173 114
178 173 114
176 170 112
173 165 109
173 166 109
170 160 106
171 163 108
169 158 105
167 153 101
167 156 103
163 150 99
166 155 102
166 154 103
166 156 104
166 155 104
163 150 99
168 158 105
167 159 106
169 161 107
169 163 109
172 165 110
171 167 111
172 168 112
172 168 112
173 170 114
174 171 114
174 171 114
174 171 114
174 171 114
174 171 114
174 171 114
174 171 114
174 171 114
174 171 114
174 171 114
174 171 114
175 171 114
174 171 114
174 171 114
174 171 114
174 171 114
174 171 114
175 171 114
175 172 114
174 171 114
175 171 114
176 172 114
175 172 114
175 171 114
176 172 114
175 172 114
175 171 114
176 172 114
176 172 114
176 172 114
176 172 114
176 172 114
176 172 114
176 172 114
176 172 114
177 172 114
177 172 114
177 172 114
177 172 114
177 172 114
177 172 114
177 173 114
177 173 114
178 173 114
178 173 114
178 173 114
178 173 114
179 173 114
178 173 114
178 173 114
178 173 114
179 173 114
179 173 114
179 173 114
179 173 114
180 174 114
179 173 114
179 174 114
179 173 114
180 174 114
180 174 114
180 174 114
180 174 114
180 174 114
180 174 114
180 174 114
180 174 114
181 174 114
181 174 114
182 175 114
182 175 114
181 174 114
181 174 114
182 175 114
181 174 114
182 175 114
182 175 114
182 175 114
182 175 114
182 175 114
182 175 114
182 175 114
183 175 114
182 175 114
183 175 114
183 175 114
184 176 114
183 175 114
182 175 114
184 176 114
183 175 114
184 176 114
184 176 114
185 176 114
184 176 114
185 176 114
184 176 114
185 176 114
185 176 114
185 176 114
184 176 114
185 176 114
186 176 114
186 176 114
186 177 114
185 176 114
173 192 202
168 187 198
165 182 191
169 187 195
170 190 199
173 192 204
175 193 203
170 188 194
177 196 209
172 191 202
175 192 208
176 194 209
169 187 194
174 194 204
173 192 204
173 191 200
175 194 213
177 196 208
175 195 211
168 187 200
177 197 209
170 189 200
178 197 218
174 194 204
176 195 209
175 194 202
173 192 209
173 193 204
172 191 206
179 199 216
177 196 213
177 197 209
174 194 212
173 192 207
174 193 206
176 196 211
177 197 216
176 197 211
176 196 211
180 200 219
176 195 212
180 200 221
177 197 214
179 198 213
174 194 213
177 198 213
176 197 218
178 198 214
176 196 212
177 197 212
176 197 214
180 200 216
177 197 218
179 199 219
179 199 222
179 200 220
176 196 209
178 199 223
179 200 221
177 197 217
177 198 217
177 198 219
177 198 223
179 199 223
176 197 216
180 200 223
179 199 217
178 198 219
175 195 216
179 199 224
177 198 220
179 199 221
179 199 222
178 198 216
177 196 217
177 197 221
176 196 214
179 199 224
178 198 224
177 197 221
174 193 219
174 194 221
176 195 220
176 195 219
175 195 216
175 190 215
173 193 219
174 193 217
173 192 216
173 191 215
174 193 218
171 186 208
171 188 214
172 190 217
170 187 209
173 191 216
173 189 212
168 184 210
170 187 216
167 180 204
168 184 211
167 179 203
167 183 210
164 180 206
162 172 194
163 175 200
161 168 189
166 176 203
163 174 200
162 173 200
160 171 194
160 169 196
161 169 194
158 166 191
159 166 191
153 155 178
159 170 197
155 157 182
150 153 176
153 155 179
151 153 176
150 159 184
150 154 177
150 153 176
141 138 159
143 149 173
152 162 187
144 149 170
150 154 177
150 163 187
141 146 167
152 165 189
154 168 190
155 131 138
160 116 121
157 115 113
159 115 115
164 119 123
157 115 109
161 117 117
163 118 121
161 118 119
162 118 117
162 118 119
164 118 118
160 116 110
163 118 114
158 114 105
161 117 111
159 115 108
162 117 112
163 119 118
162 118 116
162 118 117
160 115 109
160 117 110
165 119 122
163 119 119
164 118 113
163 118 116
166 120 118
164 119 118
165 119 120
160 117 109
166 120 123
163 118 112
161 117 111
161 118 115
163 118 109
164 119 119
163 119 118
163 119 119
163 119 118
162 118 111
165 119 121
163 118 113
164 119 118
164 118 119
163 118 115
163 118 118
164 119 118
162 118 116
163 119 116
163 119 113
164 119 118
167 120 123
161 117 109
164 119 118
163 118 118
161 117 110
162 118 118
164 120 118
163 119 113
163 118 114
163 118 115
163 118 114
165 120 117
163 118 115
163 118 112
163 119 114
162 117 117
162 117 106
165 120 121
162 118 114
162 118 114
163 118 114
166 120 119
163 119 120
165 119 119
163 118 114
162 118 114
165 119 118
164 119 114
162 118 114
164 119 115
161 118 111
165 119 116
161 117 113
161 116 113
163 119 117
163 118 116
164 118 116
164 119 114
161 117 111
162 117 111
162 118 115
163 118 117
165 119 118
162 117 108
161 117 110
162 118 116
159 116 108
163 118 113
164 119 119
162 118 119
162 118 112
164 118 120
163 118 119
164 119 124
163 117 117
161 116 108
160 115 113
162 116 112
159 114 107
162 117 110
160 116 117
161 115 112
159 114 111
158 112 108
166 131 114
182 175 114
181 174 114
180 174 114
179 173 114
176 170 112
171 162 106
172 162 107
169 158 104
166 150 99
166 149 98
165 151 100
162 147 97
162 146 96
160 142 93
164 148 97
158 133 88
165 151 100
165 150 100
163 145 96
166 153 102
165 155 103
167 155 103
168 156 104
169 158 105
171 164 109
173 168 112
172 167 111
173 168 112
174 169 113
174 171 114
174 171 114
174 171 114
175 172 114
175 171 114
175 171 114
175 171 114
175 171 114
175 172 114
175 172 114
175 172 114
175 172 114
175 172 114
175 171 114
176 172 114
175 172 114
176 172 114
175 172 114
176 172 114
176 172 114
176 172 114
177 172 114
176 172 114
176 172 114
176 172 114
176 172 114
176 172 114
176 172 114
176 172 114
177 172 114
177 173 114
178 173 114
177 173 114
178 173 114
177 173 114
178 173 114
178 173 114
178 173 114
178 173 114
178 173 114
178 173 114
179 173 114
179 173 114
179 173 114
179 173 114
179 173 114
178 173 114
179 173 114
179 173 114
179 173 114
180 174 114
180 174 114
180 174 114
179 174 114
180 174 114
180 174 114
180 174 114
180 174 114
180 174 114
180 174 114
181 174 114
181 174 114
181 174 114
180 174 114
181 174 114
181 175 114
181 174 114
181 174 114
181 174 114
182 175 114
182 175 114
182 175 114
182 175 114
182 175 114
182 175 114
181 174 114
182 175 114
182 175 114
183 175 114
182 175 114
182 175 114
183 175 114
183 175 114
184 176 114
184 176 114
184 176 114
185 176 114
184 176 114
184 176 114
184 176 114
185 176 114
184 176 114
184 176 114
184 176 114
185 176 114
186 176 114
185 176 114
186 176 114
184 176 114
185 176 114
186 177 114
185 176 114
185 176 114
186 177 114
186 177 114
165 184 188
170 189 195
169 188 200
169 187 196
173 192 203
169 187 194
171 190 200
169 188 194
168 185 194
177 194 206
175 193 207
171 190 202
170 188 194
171 191 208
172 192 207
171 190 203
174 192 204
169 187 187
171 190 199
172 191 200
173 191 209
174 193 199
174 193 208
174 195 203
179 199 218
180 199 214
176 196 212
175 194 207
176 195 209
178 197 216
175 195 204
178 198 214
174 194 209
176 194 209
175 195 213
177 196 207
179 199 212
177 197 208
174 194 203
176 196 213
177 197 217
177 197 211
181 199 217
180 200 219
177 195 213
175 195 214
178 197 217
179 199 217
176 196 214
175 195 216
179 199 218
180 199 216
179 199 216
179 199 219
175 196 212
178 198 220
178 199 217
177 197 217
178 199 217
177 198 214
179 199 223
179 200 221
178 199 221
180 200 219
177 198 212
179 199 216
177 197 218
178 198 219
177 197 219
178 197 217
180 200 221
176 198 217
174 194 212
177 196 216
177 198 223
177 198 223
177 197 219
175 195 216
176 196 216
174 194 213
176 195 214
177 198 219
174 194 217
171 188 209
175 193 209
173 194 216
172 190 211
175 192 217
174 191 216
174 190 214
175 194 219
174 190 211
173 189 211
174 192 220
172 187 211
169 185 207
171 185 205
170 183 206
168 186 212
166 180 204
166 178 202
166 179 204
166 178 202
162 169 192
166 177 201
163 173 197
164 171 193
164 174 199
162 171 196
158 161 183
157 161 185
160 170 196
158 163 189
152 153 175
156 161 186
156 162 186
155 158 182
154 156 179
152 154 177
148 149 173
151 154 178
149 149 171
149 153 177
141 140 161
142 142 162
152 155 180
150 157 181
149 158 181
148 150 172
148 155 179
150 157 180
145 153 174
150 158 178
156 114 116
158 115 115
157 115 114
160 117 115
162 118 114
162 117 112
160 116 111
162 117 113
160 116 113
159 116 112
161 116 115
164 119 121
156 114 110
164 119 116
162 118 117
163 118 114
161 117 116
164 119 117
161 117 112
161 117 114
165 119 123
162 118 117
163 118 116
163 118 116
163 119 115
163 118 118
162 118 111
160 117 109
164 119 118
161 117 112
163 118 113
161 117 111
162 118 120
163 118 112
163 118 117
164 119 119
161 117 107
162 118 113
162 119 116
161 117 108
158 116 109
162 118 113
161 117 113
160 116 112
164 119 122
160 116 109
161 117 115
162 117 113
162 118 111
164 118 119
162 118 112
163 118 114
163 118 113
163 118 112
163 118 115
161 117 109
163 119 120
162 118 112
164 119 116
162 117 111
160 116 112
160 117 107
163 118 113
161 116 108
164 119 118
163 118 113
164 119 114
161 117 109
163 118 116
164 119 115
163 118 115
164 119 115
163 117 112
161 116 116
160 117 108
163 118 113
158 116 108
162 118 114
162 118 112
164 119 115
163 119 117
163 117 110
166 120 118
163 118 110
164 119 116
162 117 109
161 117 110
164 120 121
161 117 114
163 118 118
164 118 116
167 121 125
162 118 113
164 119 117
164 119 121
161 116 108
163 118 117
164 119 118
161 117 113
164 119 121
161 117 114
162 118 113
162 117 115
161 116 114
161 117 110
162 116 111
162 117 114
162 118 117
162 117 115
161 116 113
160 115 113
162 117 113
160 115 117
161 115 115
160 114 111
159 113 109
163 119 115
181 172 112
181 174 114
180 173 114
176 166 109
171 158 103
173 163 107
165 149 97
162 141 92
163 142 93
159 138 90
156 130 85
159 139 91
156 130 85
159 135 88
159 137 90
157 131 86
159 137 90
162 146 96
160 138 91
163 146 96
163 145 96
165 152 101
166 154 102
169 159 105
171 162 108
171 164 109
171 164 109
173 167 111
173 167 111
175 170 113
175 172 114
176 172 114
176 172 114
175 172 114
175 171 114
176 172 114
176 172 114
176 172 114
175 172 114
176 172 114
175 172 114
177 172 114
176 172 114
177 172 114
176 172 114
177 172 114
176 172 114
176 172 114
176 172 114
177 172 114
178 173 114
176 172 114
177 173 114
177 172 114
177 173 114
177 173 114
177 172 114
177 172 114
177 172 114
178 173 114
178 173 114
178 173 114
179 173 114
179 173 114
178 173 114
178 173 114
179 173 114
179 173 114
179 173 114
179 173 114
178 173 114
179 173 114
180 174 114
179 173 114
179 173 114
179 173 114
181 174 114
180 174 114
180 174 114
180 174 114
180 174 114
181 174 114
181 174 114
181 174 114
181 174 114
181 174 114
182 175 114
181 174 114
182 175 114
181 174 114
182 175 114
181 175 114
182 175 114
182 175 114
182 175 114
182 175 114
182 175 114
182 175 114
183 175 114
183 175 114
182 175 114
183 175 114
183 175 114
183 175 114
183 175 114
183 175 114
183 175 114
183 175 114
183 175 114
183 175 114
184 176 114
184 176 114
183 175 114
184 176 114
184 176 114
185 176 114
185 176 114
185 176 114
184 176 114
185 176 114
185 176 114
185 176 114
185 176 114
185 176 114
185 176 114
185 176 114
186 176 114
185 176 114
186 177 114
186 177 114
186 177 114
186 177 114
186 177 114
186 177 114
169 188 199
168 186 190
170 188 199
173 191 196
173 191 199
173 192 198
170 189 199
176 194 207
171 190 192
174 191 199
178 198 214
170 189 198
176 195 200
177 195 204
174 192 202
176 195 206
175 194 203
173 191 207
174 193 207
172 190 202
175 194 198
174 193 204
175 193 206
175 195 204
177 195 208
175 194 202
175 194 203
170 189 200
175 194 206
171 190 194
180 199 216
177 196 204
178 198 209
177 197 214
176 195 209
178 198 211
175 195 204
178 197 212
181 200 216
177 196 212
179 199 216
175 194 206
178 198 217
177 196 214
177 197 217
178 197 213
177 198 218
179 199 214
179 199 217
177 198 211
179 199 214
178 198 216
177 197 214
180 200 219
177 197 213
179 199 219
174 195 211
179 199 214
180 200 224
179 199 218
177 198 217
179 198 219
180 200 219
178 199 220
176 197 213
179 199 223
181 201 221
177 198 217
179 199 222
176 196 214
178 198 213
177 198 218
180 201 225
178 198 211
175 194 215
179 199 217
178 198 221
173 193 213
175 196 212
175 195 212
176 193 214
176 195 218
175 194 214
176 194 215
174 194 218
176 194 216
171 188 206
173 191 215
173 191 214
175 191 212
174 192 218
173 189 207
173 187 211
172 185 209
171 185 203
173 187 211
167 181 205
166 176 199
167 182 204
163 174 194
169 183 209
167 180 203
167 181 206
166 177 201
162 170 191
162 170 195
163 173 198
161 166 191
163 171 197
160 165 187
164 176 201
155 158 182
156 162 185
158 162 186
153 153 175
156 163 188
153 157 180
153 154 178
152 156 178
150 153 177
147 147 169
148 147 169
146 149 173
149 145 167
148 152 175
141 136 157
148 149 172
140 138 159
141 140 161
144 148 169
146 152 174
151 157 178
150 142 157
159 116 119
156 114 109
160 117 115
160 116 117
163 117 114
159 116 117
162 117 117
161 117 115
161 118 118
158 116 109
161 118 118
161 117 118
164 119 120
161 117 113
163 119 114
164 119 115
163 118 119
160 116 107
163 118 114
161 117 115
164 119 117
165 119 119
162 117 113
165 119 120
161 117 111
162 118 114
157 114 103
163 119 115
161 117 113
158 114 107
161 118 112
163 118 117
162 118 114
163 118 114
162 117 115
162 118 113
161 118 112
165 120 121
165 120 120
164 119 117
164 120 120
160 116 104
163 118 111
162 117 112
159 116 107
162 118 113
164 119 116
161 117 113
162 118 115
160 116 110
165 120 118
160 116 109
166 120 118
162 117 111
163 118 116
165 120 118
160 116 107
162 118 113
164 118 118
162 118 114
160 116 104
163 119 115
166 120 122
160 116 109
161 117 113
162 118 110
161 117 112
163 117 113
162 118 110
160 117 111
165 120 117
161 118 112
165 120 118
163 119 118
163 118 119
164 119 117
161 118 111
166 120 122
165 119 113
162 118 113
163 118 112
164 119 119
162 117 107
165 119 116
162 118 113
161 116 115
162 118 109
161 116 107
163 119 118
165 120 118
161 117 109
164 117 113
160 117 110
160 116 105
161 116 110
163 119 119
160 116 113
160 117 111
162 117 114
161 117 110
161 117 109
163 118 122
162 118 116
163 117 111
165 117 114
161 117 108
162 116 113
161 116 110
162 117 115
161 116 107
161 115 111
161 117 115
161 116 108
163 117 116
160 115 113
158 113 104
161 114 111
174 156 111
179 170 111
177 168 110
170 155 101
162 144 94
162 142 92
159 140 92
157 130 85
154 128 83
151 118 76
152 124 80
151 121 78
151 114 73
153 122 79
153 124 81
153 121 78
154 122 78
158 133 87
154 124 80
159 133 87
160 141 92
163 143 94
165 151 100
169 157 104
167 154 101
169 157 104
169 157 103
174 166 110
174 167 110
175 169 112
176 171 113
176 170 113
176 172 114
176 172 114
177 172 114
177 172 114
177 172 114
177 172 114
177 173 114
177 173 114
177 172 114
178 173 114
177 173 114
177 173 114
177 172 114
178 173 114
178 173 114
178 173 114
178 173 114
177 173 114
178 173 114
178 173 114
178 173 114
178 173 114
178 173 114
178 173 114
178 173 114
179 173 114
179 173 114
179 173 114
179 173 114
180 174 114
179 173 114
180 174 114
180 174 114
179 173 114
179 173 114
180 174 114
180 174 114
179 174 114
180 174 114
181 174 114
181 174 114
180 174 114
181 174 114
180 174 114
180 174 114
181 174 114
181 174 114
181 174 114
181 174 114
181 174 114
182 175 114
181 174 114
182 175 114
182 175 114
182 175 114
182 175 114
182 175 114
182 175 114
182 175 114
182 175 114
182 175 114
183 175 114
183 175 114
183 175 114
183 175 114
183 175 114
183 175 114
183 175 114
184 175 114
184 176 114
183 175 114
184 176 114
184 176 114
183 175 114
184 176 114
184 176 114
184 176 114
184 176 114
184 176 114
184 176 114
185 176 114
184 176 114
185 176 114
185 176 114
185 176 114
186 177 114
185 176 114
185 176 114
186 177 114
186 177 114
187 177 114
186 177 114
186 177 114
187 177 114
187 177 114
186 177 114
187 177 114
187 177 114
187 177 114
187 177 114
188 178 114
188 177 114
168 186 199
173 190 192
175 194 204
168 186 194
172 190 196
171 190 190
174 193 207
171 190 199
175 194 203
171 190 203
175 193 204
171 189 200
173 192 202
169 187 194
174 192 195
174 193 202
176 196 206
175 194 206
174 193 202
178 198 211
171 190 199
172 190 192
177 196 200
176 196 209
176 196 209
174 193 199
178 198 214
178 197 204
179 199 216
176 196 209
177 196 214
176 195 208
181 200 219
178 197 208
180 198 213
173 193 204
175 196 204
180 199 214
180 199 211
177 197 208
181 200 216
177 196 206
181 200 214
174 194 209
180 198 208
176 196 204
178 198 214
181 200 220
178 198 211
178 198 212
180 200 219
180 199 217
180 199 214
179 199 217
178 197 213
175 194 206
178 198 214
181 199 211
181 201 223
176 197 211
177 198 218
180 200 214
179 199 213
179 199 213
175 195 209
178 198 212
177 197 211
179 199 217
181 200 222
176 195 216
179 198 212
177 197 218
177 196 211
176 195 212
177 196 213
174 194 206
177 197 214
172 190 207
178 195 216
177 197 215
178 198 221
176 194 216
174 191 211
176 195 210
174 194 217
176 193 212
177 197 217
176 190 210
176 193 217
173 191 215
176 192 213
172 185 203
173 192 210
171 184 203
172 185 204
168 182 205
169 183 209
171 183 205
171 184 204
164 173 195
164 169 193
167 173 192
164 174 199
167 177 199
162 170 191
161 171 191
162 168 191
158 166 186
160 168 188
160 167 191
158 165 189
160 165 188
157 160 182
152 149 169
152 150 173
153 153 174
161 170 196
151 149 172
151 149 172
145 142 163
146 142 162
141 135 156
142 143 165
137 125 143
148 151 173
140 137 157
141 143 165
140 140 162
136 133 153
137 135 156
143 146 167
150 157 181
153 126 137
157 113 109
158 115 117
161 117 115
161 116 117
159 116 116
157 114 110
159 116 114
165 119 120
160 117 111
160 116 114
161 117 110
162 118 116
164 119 118
160 117 110
157 115 110
164 119 116
163 119 119
159 115 106
161 117 113
162 117 112
164 119 120
162 118 112
160 116 115
160 116 108
161 117 113
164 119 113
163 118 113
160 116 108
160 116 107
163 118 114
163 118 112
166 120 118
164 119 118
163 118 113
163 118 115
164 119 117
162 117 114
162 117 112
159 115 108
163 119 113
163 118 112
164 118 116
161 118 117
165 120 120
160 117 115
161 117 108
164 119 115
165 119 120
164 119 117
165 120 118
164 119 117
164 119 121
162 117 111
163 118 109
162 118 110
159 116 106
162 118 114
165 120 118
162 117 113
163 118 113
164 118 118
159 116 106
166 119 118
162 118 113
164 119 113
162 118 113
161 117 112
167 120 117
164 119 115
163 118 114
166 120 122
161 117 115
163 118 114
163 118 113
159 116 106
161 116 107
164 119 115
164 118 110
163 119 120
161 117 111
164 119 118
164 119 115
162 118 115
163 118 113
163 118 113
160 116 111
162 118 113
162 118 115
160 116 109
160 117 109
164 118 116
162 117 109
161 116 110
162 117 110
161 117 113
163 117 111
164 118 111
166 120 119
163 117 114
164 118 116
162 118 114
164 117 111
163 118 117
164 118 120
160 115 110
163 118 119
163 117 114
161 116 110
163 117 117
162 116 108
163 118 115
161 115 111
159 115 112
160 114 111
156 112 99
159 115 111
158 113 109
163 131 109
175 163 107
170 155 101
164 143 93
157 134 86
157 132 85
148 112 71
146 114 72
148 112 71
144 107 68
148 115 73
149 117 75
145 101 64
147 108 68
150 113 72
150 116 75
150 112 71
156 125 81
150 114 73
156 129 84
156 129 84
158 132 86
159 136 88
164 141 92
164 146 95
167 153 101
171 160 106
173 163 107
171 159 105
174 167 110
175 168 111
176 170 112
177 172 113
177 173 114
177 173 114
178 173 114
177 173 114
178 173 114
178 173 114
178 173 114
179 173 114
178 173 114
179 173 114
179 173 114
179 173 114
178 173 114
179 173 114
178 173 114
179 173 114
179 173 114
178 173 114
179 173 114
179 174 114
179 173 114
180 174 114
180 174 114
179 173 114
179 174 114
179 174 114
180 174 114
180 174 114
180 174 114
180 174 114
180 174 114
180 174 114
181 174 114
180 174 114
180 174 114
180 174 114
181 174 114
180 174 114
181 174 114
181 174 114
181 174 114
181 175 114
182 175 114
181 174 114
181 174 114
181 174 114
182 175 114
181 175 114
182 175 114
181 174 114
182 175 114
182 175 114
183 175 114
183 175 114
182 175 114
183 175 114
183 175 114
183 175 114
183 175 114
183 175 114
184 176 114
184 176 114
184 176 114
184 175 114
183 175 114
184 176 114
184 176 114
184 176 114
185 176 114
185 176 114
185 176 114
185 176 114
185 176 114
185 176 114
186 176 114
185 176 114
185 176 114
184 176 114
185 176 114
185 176 114
186 177 114
186 177 114
186 176 114
186 177 114
185 176 114
186 176 114
187 177 114
186 177 114
186 177 114
187 177 114
186 177 114
187 177 114
187 177 114
187 177 114
187 177 114
187 177 114
187 177 114
187 177 114
187 177 114
187 177 114
187 177 114
177 195 206
171 188 199
174 193 195
174 191 196
178 196 206
174 193 196
169 187 191
168 187 186
176 195 208
174 192 202
173 191 192
169 187 191
178 197 203
175 194 199
173 192 198
173 191 200
175 195 206
175 193 200
175 193 206
173 192 200
175 194 204
175 193 199
175 195 203
178 198 212
178 197 200
173 192 199
176 195 204
175 194 203
175 193 204
177 196 206
175 195 209
174 194 206
179 199 214
176 195 206
177 197 207
175 195 204
176 196 207
179 198 209
175 194 200
177 197 217
178 198 216
178 197 212
173 193 204
177 197 207
177 196 207
178 198 212
179 198 216
176 197 213
175 194 203
178 196 212
179 199 217
177 197 204
177 197 211
178 199 213
181 199 216
179 199 213
178 197 204
175 196 207
178 198 211
181 200 219
179 199 217
181 200 214
179 199 213
179 199 218
177 197 212
177 198 212
178 197 207
177 197 212
178 196 206
177 196 209
180 199 217
178 198 216
179 198 213
176 197 214
181 200 223
179 197 218
179 195 210
173 190 205
176 196 209
178 197 215
179 197 215
177 194 213
177 196 213
173 192 206
175 191 211
176 192 213
176 192 215
174 191 212
173 189 206
173 190 208
172 185 200
174 190 211
174 187 206
171 188 209
174 191 209
169 183 203
169 181 198
168 183 203
170 184 206
166 175 192
168 177 196
167 175 198
166 176 196
162 168 190
162 167 187
161 169 188
158 165 188
163 172 191
161 165 184
159 162 186
155 153 172
153 152 170
153 152 170
148 139 158
149 149 170
152 151 171
151 148 168
151 151 174
147 139 160
150 149 171
146 141 161
144 139 159
145 141 160
139 134 153
147 146 167
138 136 156
140 135 155
136 129 147
133 131 150
139 138 160
143 140 157
140 146 167
153 111 109
158 115 113
159 116 113
158 115 112
159 115 114
159 115 116
161 117 115
161 116 115
160 117 114
163 118 116
161 117 112
163 118 118
164 119 115
163 118 117
163 118 112
162 117 115
161 117 116
160 116 109
164 119 116
163 118 113
162 117 113
161 117 108
161 117 110
159 115 108
160 116 111
164 118 121
160 117 110
160 116 104
164 118 117
162 118 111
161 116 112
160 116 103
161 117 114
160 116 108
164 119 118
164 119 114
162 117 112
163 118 114
160 116 106
163 118 116
164 119 116
161 117 108
163 118 115
160 116 105
162 117 113
163 118 118
159 116 107
161 117 112
161 117 113
165 119 116
163 118 113
162 118 114
162 117 111
164 119 116
163 118 114
162 118 112
164 119 118
161 117 110
166 120 118
160 117 113
159 117 107
163 118 117
162 117 104
164 119 113
165 119 116
163 119 116
163 118 118
161 117 107
164 119 117
160 117 108
163 118 113
164 119 113
158 115 98
163 118 118
162 118 113
159 116 101
162 118 114
164 118 113
162 117 106
162 117 112
161 117 109
163 117 113
161 117 114
162 117 111
159 116 110
163 118 116
160 116 112
161 118 115
161 116 107
165 119 119
164 118 118
165 119 122
162 118 115
164 118 114
164 119 119
159 114 109
163 118 118
162 118 114
162 117 114
162 117 110
166 120 122
163 119 119
159 115 104
163 117 117
159 114 107
162 116 109
162 117 114
162 118 116
161 117 115
161 116 110
159 115 102
164 118 115
162 116 110
162 116 110
162 117 113
161 116 114
157 112 106
162 116 115
158 115 109
170 153 100
162 142 92
159 136 88
153 123 78
150 118 76
150 114 73
147 108 67
142 100 61
141 96 60
142 100 63
143 98 60
142 95 58
147 107 68
143 97 60
149 112 70
147 105 66
147 106 67
150 108 68
153 119 76
154 122 78
156 128 83
160 136 88
161 138 90
163 140 91
166 148 97
169 155 101
171 159 104
171 159 105
175 166 109
177 170 112
178 172 114
178 172 113
178 172 114
178 173 114
179 173 114
179 173 114
179 174 114
179 174 114
178 173 114
179 173 114
179 174 114
179 173 114
180 174 114
179 174 114
180 174 114
179 173 114
179 173 114
180 174 114
180 174 114
179 174 114
180 174 114
180 174 114
181 174 114
180 174 114
180 174 114
180 174 114
180 174 114
179 173 114
181 174 114
181 174 114
181 174 114
181 174 114
180 174 114
181 174 114
181 174 114
182 175 114
181 175 114
181 174 114
183 175 114
182 175 114
181 174 114
182 175 114
182 175 114
182 175 114
183 175 114
183 175 114
183 175 114
182 175 114
183 175 114
183 175 114
183 175 114
183 175 114
183 175 114
183 175 114
183 175 114
183 175 114
183 175 114
183 175 114
184 176 114
183 175 114
184 176 114
184 176 114
184 176 114
184 176 114
184 176 114
184 176 114
184 176 114
185 176 114
185 176 114
185 176 114
185 176 114
184 176 114
186 176 114
186 177 114
185 176 114
185 176 114
186 177 114
185 176 114
187 177 114
186 177 114
185 176 114
186 177 114
187 177 114
186 177 114
186 177 114
186 177 114
187 177 114
187 177 114
187 177 114
187 177 114
186 177 114
187 177 114
187 177 114
187 177 114
187 177 114
187 177 114
187 177 114
187 177 114
188 178 114
188 178 114
188 178 114
188 178 114
189 178 114
169 187 190
167 185 188
175 193 196
169 186 190
167 185 187
171 189 202
170 189 194
167 186 184
171 189 196
175 194 195
178 195 208
173 192 196
171 189 192
173 192 195
175 193 208
176 195 207
179 197 203
172 191 195
173 192 190
174 192 199
174 193 203
174 193 195
174 192 192
173 192 194
174 193 198
178 195 207
176 196 198
177 196 208
176 195 211
179 199 212
178 197 211
178 197 208
179 198 207
175 194 203
177 197 208
179 197 212
179 198 211
177 196 203
175 194 199
178 197 204
174 194 203
177 197 203
180 199 209
182 201 218
179 199 212
179 199 216
178 198 209
178 197 211
177 197 207
181 200 216
176 195 204
178 198 211
180 200 218
179 198 213
179 199 216
179 199 211
175 196 208
177 197 206
177 197 213
181 201 223
178 198 209
177 197 208
180 200 216
181 200 218
176 194 203
180 199 212
179 200 218
179 198 214
179 197 207
178 196 210
178 198 214
177 196 208
180 200 220
176 196 211
178 198 221
175 195 210
178 198 212
176 195 211
177 195 215
179 197 219
178 197 215
175 195 207
180 198 218
176 192 211
176 193 216
176 191 208
173 191 210
175 189 211
175 193 215
174 190 206
174 191 209
170 187 206
173 188 196
175 192 211
166 176 191
167 177 197
170 181 201
167 177 196
168 178 197
164 175 191
169 182 200
166 173 193
164 171 189
161 165 181
164 174 196
162 169 192
161 169 190
161 165 186
157 158 174
151 148 168
162 165 185
157 164 188
152 151 170
151 147 166
153 151 171
150 153 174
146 146 168
143 138 158
147 143 163
138 127 145
143 134 152
142 135 155
142 134 153
141 131 151
140 133 152
138 134 155
135 125 144
139 136 157
137 129 149
137 136 156
136 135 156
143 126 136
158 115 120
162 118 122
155 113 112
160 116 117
161 117 118
160 116 120
159 116 113
161 117 118
163 118 114
161 117 113
160 116 115
161 117 111
159 116 110
162 116 111
158 114 104
160 117 111
158 115 106
161 117 115
163 118 112
159 117 112
163 119 119
160 116 114
160 117 106
163 119 114
162 118 111
161 117 111
162 117 111
161 117 111
159 116 106
162 117 107
160 117 107
164 119 113
163 118 117
163 118 111
163 118 114
161 117 108
161 117 109
160 116 110
163 118 117
162 118 110
160 117 108
161 118 112
162 117 113
161 117 111
163 118 113
162 118 114
163 118 111
162 117 108
162 118 112
161 117 113
163 118 110
162 118 108
162 117 112
158 115 103
164 119 113
164 119 118
163 119 117
165 119 113
161 117 108
163 118 113
163 117 112
162 118 115
164 119 115
158 116 110
164 119 114
165 118 116
165 119 119
162 118 113
162 117 105
162 118 113
160 117 105
161 117 110
161 116 108
164 119 115
163 118 111
162 118 108
162 118 110
163 117 115
161 117 109
164 118 112
159 116 107
162 118 113
162 117 116
161 117 111
164 118 119
164 118 116
163 118 113
162 117 111
164 118 118
158 115 104
160 116 107
161 117 114
162 117 115
163 119 119
160 116 106
164 119 118
165 120 120
159 116 108
166 119 119
161 117 111
160 116 113
163 118 114
161 117 111
161 116 112
163 118 117
159 115 103
159 115 104
161 116 110
161 117 111
158 115 103
158 115 109
163 116 112
163 117 108
158 114 105
164 118 119
161 115 111
158 112 106
157 113 110
154 110 101
160 128 96
151 123 78
144 106 66
145 106 66
137 89 54
141 104 64
139 92 56
137 88 54
136 81 45
138 88 52
137 87 51
138 88 53
140 87 50
143 93 58
139 90 53
144 98 60
142 95 57
147 105 65
146 101 62
151 118 75
153 119 76
152 119 75
157 128 82
162 139 90
165 145 95
166 149 98
169 153 100
170 154 101
171 156 102
173 162 106
177 170 111
179 172 113
179 172 113
180 173 113
180 174 114
180 174 114
180 174 114
180 174 114
180 174 114
181 174 114
181 174 114
180 174 114
181 174 114
180 174 114
181 174 114
180 174 114
181 174 114
181 174 114
181 174 114
181 174 114
180 174 114
181 174 114
181 174 114
181 174 114
182 175 114
181 174 114
182 175 114
182 175 114
181 174 114
181 174 114
182 175 114
182 175 114
182 175 114
182 175 114
183 175 114
182 175 114
182 175 114
182 175 114
183 175 114
183 175 114
183 175 114
183 175 114
182 175 114
183 175 114
183 175 114
183 175 114
184 175 114
183 175 114
183 175 114
183 175 114
182 175 114
184 176 114
184 176 114
184 176 114
184 176 114
185 176 114
185 176 114
184 176 114
185 176 114
185 176 114
185 176 114
185 176 114
185 176 114
185 176 114
185 176 114
185 176 114
186 177 114
185 176 114
186 176 114
185 176 114
186 177 114
185 176 114
186 177 114
186 177 114
186 177 114
185 176 114
186 177 114
186 177 114
187 177 114
186 177 114
186 177 114
186 177 114
186 177 114
187 177 114
187 177 114
187 177 114
187 177 114
188 178 114
187 177 114
188 178 114
187 177 114
187 177 114
188 178 114
189 178 114
188 177 114
188 178 114
188 178 114
189 178 114
188 178 114
188 177 114
189 178 114
189 178 114
188 178 114
168 185 184
172 190 196
173 191 198
176 194 204
165 184 175
173 191 194
170 188 188
173 191 196
173 191 199
177 195 206
174 193 202
175 193 202
176 194 199
172 190 191
171 189 194
177 195 203
174 192 200
174 193 199
176 195 202
177 196 208
174 194 200
176 196 202
175 194 200
175 193 196
175 193 202
177 196 195
175 194 203
175 194 202
180 199 207
178 197 204
178 197 206
177 196 204
179 198 214
177 197 207
177 196 209
178 197 208
175 195 203
179 198 213
179 198 204
175 195 206
179 199 214
178 197 208
180 198 203
177 196 203
177 196 206
179 198 209
177 197 203
178 198 214
178 198 208
179 198 208
181 200 217
178 198 207
178 198 206
175 194 196
180 199 208
180 200 220
176 195 206
178 198 212
179 198 214
177 197 212
176 196 208
179 199 217
181 200 219
179 199 217
175 195 208
178 198 214
179 198 213
176 196 206
181 200 216
180 199 219
180 200 219
174 194 209
177 196 208
179 198 209
177 197 209
180 199 216
177 197 212
177 195 208
178 196 207
177 196 207
178 197 219
177 193 211
177 195 215
175 193 213
178 195 216
173 192 207
176 195 211
172 189 204
174 187 208
174 188 204
174 189 208
173 188 208
171 183 204
172 185 203
171 184 198
169 179 194
168 184 203
172 185 203
165 171 191
165 170 184
165 171 191
167 177 194
164 171 191
163 169 187
161 166 182
160 166 183
155 155 174
157 158 175
155 154 169
154 152 172
154 157 177
153 148 165
152 157 177
152 147 167
152 145 165
153 150 170
144 140 158
142 134 150
144 135 152
142 133 153
142 131 149
139 126 145
132 120 136
133 126 145
137 127 147
137 131 151
134 129 148
131 121 141
133 127 145
136 130 148
130 120 137
149 126 139
155 113 112
160 116 115
155 113 108
160 116 113
163 118 116
160 115 115
159 116 110
159 116 112
160 117 114
161 117 116
162 118 117
160 116 116
161 117 110
158 115 100
159 116 108
162 118 114
162 118 113
159 115 107
161 117 113
161 117 108
161 117 112
162 118 116
163 119 118
162 118 114
164 119 118
166 120 119
166 119 115
164 119 118
164 119 117
162 117 111
162 118 113
158 115 104
159 116 107
160 116 105
164 118 115
165 119 118
164 119 117
160 116 105
160 117 111
161 117 107
162 118 113
164 118 115
162 118 113
161 117 109
163 118 113
164 119 114
161 117 111
162 117 110
163 118 113
159 116 108
161 117 108
160 117 108
163 118 120
162 118 113
161 116 106
162 117 113
162 118 115
163 118 115
167 121 124
161 117 107
161 116 109
162 118 113
163 118 110
165 119 116
161 117 109
165 119 118
165 119 114
165 119 115
164 118 114
164 119 118
161 116 111
162 118 112
165 119 121
163 118 113
164 118 114
160 116 107
163 118 110
162 118 112
165 120 118
163 117 109
160 115 106
162 116 112
163 118 111
165 119 114
158 115 107
161 116 107
165 119 118
161 117 111
165 119 118
159 116 106
165 119 119
162 117 107
158 115 103
161 117 109
161 116 110
161 117 113
160 116 108
162 118 114
164 118 115
159 115 103
162 117 114
164 119 115
160 116 113
158 116 108
163 118 118
163 117 114
162 117 117
162 116 109
164 118 113
161 116 111
159 115 108
162 117 114
159 115 106
158 114 103
159 113 108
158 113 104
161 116 110
157 112 100
158 114 112
149 107 82
142 99 61
131 85 51
132 84 49
133 83 48
132 78 45
132 80 47
133 78 42
136 80 44
135 80 46
137 82 48
139 86 51
138 82 48
138 85 50
138 84 49
141 89 53
142 92 55
143 93 55
144 99 60
152 114 72
149 109 68
152 116 73
154 123 77
162 137 88
162 138 89
167 149 97
166 147 95
170 153 100
170 154 101
172 160 104
176 164 107
177 167 110
179 170 111
180 173 114
180 174 114
181 174 114
182 175 114
181 174 114
181 174 114
182 175 114
181 174 114
181 175 114
181 174 114
182 175 114
181 174 114
182 175 114
181 174 114
182 175 114
182 175 114
181 174 114
182 175 114
181 174 114
182 175 114
182 175 114
182 175 114
182 175 114
182 175 114
182 175 114
182 175 114
182 175 114
183 175 114
183 175 114
183 175 114
183 175 114
184 176 114
182 175 114
183 175 114
183 175 114
183 175 114
184 176 114
183 175 114
183 175 114
183 175 114
183 175 114
184 176 114
184 176 114
184 176 114
184 176 114
184 175 114
185 176 114
185 176 114
185 176 114
185 176 114
184 176 114
185 176 114
186 176 114
186 176 114
185 176 114
186 177 114
185 176 114
185 176 114
185 176 114
186 177 114
185 176 114
185 176 114
186 176 114
186 177 114
187 177 114
187 177 114
185 176 114
187 177 114
187 177 114
186 177 114
186 177 114
187 177 114
187 177 114
187 177 114
187 177 114
187 177 114
187 177 114
188 177 114
188 178 114
188 177 114
187 177 114
188 178 114
187 177 114
188 177 114
188 177 114
188 177 114
188 178 114
188 178 114
188 178 114
188 178 114
189 178 114
189 178 114
188 178 114
189 178 114
188 178 114
189 178 114
189 178 114
189 178 114
190 178 114
190 178 114
169 186 187
176 195 202
174 192 199
176 195 204
174 192 192
169 187 188
172 190 190
169 187 183
173 192 194
172 190 194
165 184 186
173 191 195
174 192 194
175 193 198
171 189 190
173 191 196
174 194 200
174 192 203
171 189 194
171 190 194
177 196 202
171 189 187
177 196 204
173 191 190
174 193 192
177 195 203
177 195 204
178 196 200
176 196 208
172 192 194
175 195 202
179 198 208
176 196 202
173 193 202
176 195 202
175 194 192
180 198 207
176 195 202
178 197 204
175 195 200
176 195 202
177 196 200
177 197 206
174 193 192
180 199 209
177 196 196
175 194 196
180 199 214
178 198 212
177 196 204
176 194 191
178 197 211
177 197 207
177 197 199
180 199 206
178 198 211
180 199 209
177 197 208
180 199 211
181 200 219
176 196 196
176 197 203
178 197 210
179 199 211
180 199 212
180 199 213
181 199 215
179 198 210
179 198 209
177 195 202
177 196 207
180 198 217
177 194 211
179 198 214
178 196 203
179 198 212
178 195 208
179 197 214
175 194 203
176 194 205
177 196 208
180 199 219
177 194 208
176 194 210
177 193 208
175 190 203
176 191 212
173 188 206
175 191 210
172 186 202
172 187 198
175 189 202
172 186 202
169 182 199
168 177 188
168 179 199
168 179 194
167 179 194
169 182 199
167 174 192
168 174 191
170 180 195
165 170 189
160 164 179
167 174 195
167 177 197
157 157 172
162 164 185
155 156 170
157 158 176
158 153 171
152 148 163
154 150 170
152 147 166
144 132 144
150 143 163
145 139 159
138 133 152
140 132 149
141 131 147
144 134 152
141 129 148
130 114 126
131 118 136
136 126 144
133 127 146
128 121 140
136 128 145
126 111 127
127 119 136
133 126 145
148 111 115
155 113 113
156 113 106
158 115 112
161 117 112
157 115 109
159 115 107
158 114 107
160 116 115
158 115 107
161 117 110
161 117 117
161 116 116
157 115 104
163 118 113
163 118 113
162 118 112
160 116 108
162 116 112
164 120 120
163 118 116
163 118 113
161 117 108
159 117 109
162 118 114
161 117 110
157 114 100
164 119 122
164 119 116
164 119 118
161 117 110
160 116 106
161 117 110
161 117 111
160 116 111
161 117 110
168 121 122
164 119 118
163 118 113
162 117 108
162 118 108
164 118 113
160 116 105
160 116 110
164 119 113
163 118 114
163 117 112
163 118 110
160 116 103
161 118 109
159 116 105
164 119 119
163 117 109
163 118 114
164 118 113
164 118 113
162 118 114
160 117 109
163 117 112
161 118 112
161 117 108
163 118 113
163 118 113
158 115 103
162 118 115
164 119 118
161 116 109
162 117 111
162 118 113
164 119 116
161 117 106
158 115 105
164 119 121
161 118 107
162 117 106
163 119 113
160 116 107
160 116 112
164 118 109
163 119 116
163 118 110
158 115 102
162 118 112
161 117 106
164 118 114
162 117 110
162 117 108
160 116 109
165 119 116
164 119 119
160 116 110
163 119 114
164 119 119
162 117 111
159 116 106
160 116 112
164 118 121
164 118 115
160 115 110
163 118 119
160 116 110
163 118 113
165 119 118
162 117 108
163 118 108
162 118 118
159 116 107
162 117 111
162 117 116
162 116 112
165 118 117
161 117 115
159 114 101
158 114 107
160 116 106
159 114 112
157 112 108
158 113 108
159 113 102
157 112 105
155 113 101
137 93 57
125 72 40
132 79 45
133 79 45
129 73 41
133 78 44
131 77 44
130 76 43
132 77 42
136 81 46
132 78 42
137 83 46
134 80 44
139 84 47
138 84 47
140 85 47
142 89 53
138 90 52
147 100 61
150 111 69
151 111 69
153 121 77
153 119 74
156 125 79
161 135 87
167 144 93
166 145 94
169 151 97
176 164 107
175 162 105
177 165 108
179 169 110
181 173 113
181 174 113
182 175 114
182 174 114
182 175 114
181 174 114
183 175 114
182 175 114
182 175 114
182 175 114
182 175 114
183 175 114
182 175 114
182 175 114
183 175 114
182 175 114
183 175 114
183 175 114
183 175 114
184 175 114
182 175 114
183 175 114
183 175 114
184 175 114
184 176 114
184 176 114
184 176 114
184 176 114
183 175 114
184 176 114
184 176 114
184 176 114
183 175 114
184 176 114
184 176 114
184 175 114
184 176 114
184 176 114
184 176 114
185 176 114
184 176 114
185 176 114
185 176 114
184 176 114
185 176 114
186 177 114
186 177 114
184 176 114
186 177 114
185 176 114
185 176 114
185 176 114
185 176 114
186 176 114
185 176 114
186 177 114
186 177 114
187 177 114
186 177 114
186 176 114
186 177 114
187 177 114
186 177 114
186 177 114
186 177 114
186 177 114
187 177 114
187 177 114
187 177 114
187 177 114
187 177 114
187 177 114
188 177 114
188 177 114
187 177 114
187 177 114
188 178 114
187 177 114
188 177 114
188 178 114
189 178 114
188 178 114
189 178 114
189 178 114
189 178 114
188 178 114
188 178 114
188 178 114
189 178 114
189 178 114
189 178 114
188 178 114
189 178 114
190 178 114
190 178 114
190 178 114
190 178 114
189 178 114
190 179 114
190 179 114
173 191 190
174 191 191
173 191 195
172 190 192
170 189 187
173 190 188
170 187 186
173 191 194
172 191 195
173 191 194
174 193 199
171 189 196
169 187 186
174 192 195
168 186 181
178 195 203
174 192 206
174 192 195
182 199 211
175 193 194
179 198 203
179 196 199
179 197 199
179 197 207
179 197 207
174 193 195
180 198 204
176 195 200
177 195 202
180 198 208
177 197 206
178 197 202
175 193 200
182 200 213
177 195 202
178 197 203
177 196 204
177 196 211
180 199 212
177 196 198
179 198 206
179 198 206
177 196 204
180 198 208
178 196 200
180 199 212
180 199 211
179 198 207
177 196 206
178 198 209
176 195 200
178 197 202
178 198 203
175 195 208
177 196 204
181 199 207
183 201 214
181 199 209
179 198 208
180 199 214
178 198 208
176 196 194
179 199 211
179 198 213
179 198 211
177 198 209
178 198 206
180 199 215
179 197 208
180 198 208
179 199 216
176 196 207
179 199 213
177 195 205
178 195 203
176 196 202
177 198 214
176 194 205
175 191 199
177 196 209
179 197 213
176 194 205
175 191 205
177 194 211
178 196 211
177 194 210
176 192 204
176 191 205
175 191 205
171 185 199
171 182 194
173 183 196
174 189 203
170 182 199
167 175 186
173 186 204
169 181 197
172 183 199
171 182 201
165 172 189
162 166 181
166 176 194
164 170 182
165 175 193
164 166 185
162 168 185
159 165 182
157 161 176
157 163 179
153 148 164
158 158 179
153 151 167
152 146 163
153 150 171
150 147 166
146 141 155
140 132 147
146 137 154
145 135 154
138 128 146
137 123 139
137 125 142
134 118 133
128 109 123
133 118 134
134 125 144
127 111 126
131 120 139
134 124 142
126 113 129
128 119 136
156 114 110
155 112 107
157 115 115
161 117 114
158 116 111
159 115 109
158 115 111
160 116 112
158 115 111
158 115 111
160 116 114
160 117 114
163 118 112
160 117 113
161 117 114
161 117 114
159 116 102
161 117 116
160 117 116
160 117 109
165 119 114
161 116 108
157 114 104
162 118 106
162 118 110
161 116 108
160 117 107
159 115 107
163 118 117
161 117 105
163 118 118
164 119 116
162 118 114
163 118 117
161 118 112
162 118 110
160 116 108
160 116 108
163 118 111
163 118 113
165 119 122
163 119 117
160 116 111
161 118 108
162 118 110
159 116 107
164 119 117
161 118 114
161 116 109
162 118 113
161 116 108
163 118 114
164 118 112
165 120 118
162 117 108
164 118 115
162 117 118
161 117 111
164 118 112
161 117 108
163 117 110
161 116 103
161 117 109
165 119 114
165 120 118
164 119 115
166 119 115
160 116 109
164 119 115
163 118 114
161 117 108
161 117 109
160 116 104
161 118 111
164 118 115
163 118 114
162 117 108
162 117 114
162 118 110
163 118 108
158 115 104
164 119 113
163 118 115
159 115 102
160 115 108
162 116 114
162 117 114
162 118 118
160 116 107
161 117 109
161 117 112
161 116 110
161 117 111
160 117 105
164 118 117
161 116 109
161 117 109
159 116 102
162 117 116
161 117 109
163 117 111
160 116 108
164 118 114
161 117 112
160 116 112
162 117 111
159 114 103
159 115 104
161 117 110
157 113 101
159 115 109
160 115 105
157 113 102
162 117 112
160 116 113
159 114 108
156 111 101
158 113 101
158 113 103
157 112 104
155 109 100
126 75 52
128 74 41
124 70 37
125 71 39
126 72 41
126 72 40
128 73 37
129 74 41
134 79 46
132 78 43
133 77 42
135 80 46
136 82 47
138 83 48
138 83 48
139 84 48
139 87 50
142 88 51
142 93 55
145 98 59
148 101 61
152 114 72
154 119 75
159 131 84
159 129 82
162 140 89
163 137 87
170 151 98
171 152 98
176 165 107
176 163 105
180 170 111
180 170 110
183 173 113
184 176 114
183 175 114
183 175 114
184 176 114
184 176 114
182 175 114
184 176 114
183 175 114
183 175 114
183 175 114
183 175 114
183 175 114
183 175 114
184 176 114
183 175 114
183 175 114
184 176 114
184 176 114
184 176 114
184 176 114
185 176 114
185 176 114
184 176 114
184 176 114
185 176 114
185 176 114
184 176 114
185 176 114
185 176 114
184 175 114
185 176 114
185 176 114
185 176 114
186 176 114
185 176 114
186 177 114
185 176 114
185 176 114
186 177 114
185 176 114
186 177 114
186 177 114
186 177 114
186 177 114
186 177 114
186 177 114
186 177 114
186 177 114
186 176 114
186 177 114
187 177 114
186 177 114
188 177 114
187 177 114
186 177 114
187 177 114
188 177 114
188 177 114
187 177 114
187 177 114
188 178 114
187 177 114
187 177 114
188 177 114
187 177 114
187 177 114
187 177 114
187 177 114
188 178 114
188 178 114
188 177 114
188 178 114
188 178 114
188 178 114
188 178 114
189 178 114
190 178 114
188 178 114
188 178 114
189 178 114
188 178 114
189 178 114
189 178 114
189 178 114
189 178 114
189 178 114
190 178 114
189 178 114
190 179 114
189 178 114
189 178 114
190 179 114
189 178 114
190 179 114
191 179 114
190 178 114
190 179 114
190 179 114
174 193 198
167 185 191
172 190 195
171 189 194
163 181 171
170 189 191
177 195 206
170 188 174
171 189 195
169 186 188
175 193 194
173 191 194
172 190 186
172 190 190
171 190 192
172 190 190
173 193 188
175 193 194
179 197 204
178 197 198
174 193 186
176 195 200
177 196 203
176 195 199
176 195 199
176 194 199
175 194 198
173 192 199
176 194 195
177 196 204
178 197 206
175 195 196
178 198 206
178 196 206
180 198 203
178 198 202
178 198 214
177 196 199
177 196 204
176 194 199
177 196 202
180 199 209
176 196 198
179 198 204
178 197 204
177 196 199
179 198 206
177 196 202
177 195 195
179 198 206
179 198 206
180 199 207
176 195 198
177 197 203
179 198 209
176 196 200
177 196 198
181 200 209
180 198 208
180 199 207
179 198 207
179 197 206
177 196 202
178 198 211
178 197 202
175 194 202
178 198 212
180 200 214
178 196 203
179 196 204
178 197 205
178 196 204
180 198 212
180 200 219
181 198 214
176 195 200
177 196 203
175 193 202
177 195 208
174 192 200
178 197 210
173 189 192
178 196 213
177 192 200
174 189 196
171 188 201
172 187 199
175 192 201
171 188 201
173 188 200
175 188 200
174 184 198
174 190 205
170 181 187
169 179 187
168 176 187
168 177 189
168 180 193
163 171 184
164 170 181
165 168 180
167 178 194
161 166 177
163 165 178
160 162 178
157 159 176
157 159 174
158 159 175
158 158 174
155 153 166
156 153 169
151 144 160
145 140 153
148 139 157
147 132 146
141 130 142
144 132 146
141 130 145
138 119 130
141 130 146
135 121 135
135 118 132
134 111 125
136 118 132
131 117 134
129 106 120
124 103 116
126 113 130
123 105 119
122 111 129
129 103 113
154 111 109
156 113 106
156 113 110
156 114 108
159 116 117
159 115 108
157 114 109
156 114 107
159 115 106
159 115 105
156 114 109
159 116 107
161 117 110
162 118 113
160 116 109
159 115 106
165 120 119
161 116 109
162 118 118
163 118 117
162 118 112
162 117 114
162 117 110
159 116 108
162 117 114
162 118 108
162 118 113
163 118 114
161 117 108
160 117 110
162 118 113
164 118 113
163 119 113
162 118 114
162 118 109
160 116 106
164 119 115
161 116 113
159 115 104
160 117 110
165 119 118
163 118 111
162 117 108
162 118 103
163 118 115
163 117 114
162 118 111
162 118 116
162 118 113
161 116 110
162 118 117
162 117 111
162 117 109
165 119 118
161 117 109
162 118 113
163 118 112
161 118 110
163 118 115
164 118 115
162 118 109
163 118 115
162 117 110
161 116 109
162 117 107
161 116 104
161 117 109
164 118 112
162 118 113
166 119 116
161 117 113
160 116 105
160 116 110
158 114 102
160 116 106
161 117 112
164 118 113
164 118 116
161 117 109
160 117 102
161 116 110
164 118 109
161 117 108
163 118 120
165 119 119
160 116 104
163 117 111
162 118 113
161 117 103
162 118 113
161 116 112
159 116 112
161 117 106
160 116 110
162 117 112
165 119 117
164 119 114
163 118 117
159 115 105
164 119 117
162 117 109
161 117 108
165 119 114
160 115 107
161 116 110
165 118 118
165 118 114
159 115 105
159 115 102
160 114 103
164 116 111
163 117 111
159 115 103
162 116 111
162 115 111
161 117 114
162 116 108
161 115 103
156 111 105
158 112 104
159 113 104
133 83 60
124 69 36
124 69 36
124 70 37
126 71 39
128 72 38
128 74 40
131 76 41
128 73 38
132 77 43
135 79 44
137 80 44
135 78 40
134 80 45
135 81 44
135 81 46
141 86 51
139 84 47
139 85 45
144 94 56
144 96 55
148 100 61
153 117 72
154 121 75
157 125 78
159 129 82
164 138 87
168 149 95
171 154 99
172 155 100
178 166 108
179 166 108
180 168 109
183 174 113
183 174 113
184 176 114
184 176 114
185 176 114
184 176 114
185 176 114
185 176 114
185 176 114
184 176 114
184 176 114
185 176 114
185 176 114
185 176 114
184 176 114
185 176 114
184 176 114
186 177 114
185 176 114
185 176 114
185 176 114
186 176 114
185 176 114
186 176 114
185 176 114
186 177 114
187 177 114
185 176 114
186 177 114
185 176 114
186 177 114
186 177 114
186 177 114
186 177 114
186 176 114
186 177 114
186 176 114
186 177 114
186 177 114
187 177 114
186 177 114
187 177 114
187 177 114
187 177 114
187 177 114
187 177 114
186 177 114
186 177 114
188 177 114
188 178 114
188 178 114
188 177 114
187 177 114
188 178 114
188 177 114
188 177 114
187 177 114
188 177 114
188 177 114
188 177 114
188 178 114
188 178 114
188 178 114
187 177 114
188 178 114
189 178 114
188 178 114
189 178 114
189 178 114
189 178 114
189 178 114
188 178 114
189 178 114
189 178 114
189 178 114
189 178 114
189 178 114
189 178 114
189 178 114
189 178 114
190 179 114
190 178 114
189 178 114
189 178 114
190 179 114
190 178 114
189 178 114
190 179 114
190 179 114
190 179 114
190 179 114
190 179 114
190 179 114
190 179 114
190 178 114
190 179 114
191 179 114
190 179 114
190 179 114
170 189 194
171 188 192
173 192 190
176 194 202
168 186 177
168 186 188
173 191 198
177 194 198
174 192 196
171 189 194
167 185 188
171 189 188
177 195 199
179 198 206
177 196 200
175 193 194
173 191 188
173 192 192
175 193 200
175 194 196
176 195 200
175 193 184
172 189 188
175 194 196
173 190 192
179 198 212
174 192 184
175 194 199
177 196 198
177 195 195
179 198 206
176 194 196
177 196 198
175 194 195
177 196 192
181 199 211
178 197 204
178 197 207
178 197 198
177 196 207
179 197 196
177 196 199
181 199 211
178 196 200
180 198 209
177 197 200
179 197 204
178 197 208
181 199 208
177 196 202
178 197 202
180 199 209
177 197 198
177 195 187
180 198 207
179 198 204
181 200 213
177 196 200
176 196 200
176 196 206
177 195 200
180 198 207
177 196 207
180 199 212
178 197 196
181 200 213
178 197 206
178 197 202
177 195 199
177 196 202
179 197 209
177 194 199
177 195 203
177 195 205
175 193 200
177 195 203
179 198 216
177 193 197
180 197 205
177 193 207
176 194 205
175 191 200
175 190 199
172 189 192
177 192 199
177 192 201
175 188 197
173 188 195
173 190 195
169 180 191
172 183 193
173 186 197
168 178 187
174 185 199
167 176 188
170 180 187
169 180 192
165 172 176
162 170 171
163 170 184
164 169 182
165 175 186
162 164 177
155 155 166
164 172 188
161 161 173
157 157 171
154 150 157
156 155 166
148 140 154
155 150 166
153 144 161
147 137 150
146 136 148
149 140 156
145 129 142
145 136 150
140 126 141
137 122 135
130 113 126
133 117 131
135 118 130
124 109 121
134 124 140
127 113 127
128 110 125
125 108 122
125 108 124
110 91 103
123 110 126
139 104 108
155 113 110
159 115 112
155 112 97
158 114 117
159 115 116
158 115 112
158 115 110
158 115 107
158 115 106
162 117 113
163 118 115
161 117 115
162 117 116
163 118 116
161 117 113
160 115 108
161 116 115
159 115 107
160 116 109
160 116 102
161 117 111
160 116 104
161 117 112
160 116 104
157 115 106
163 117 112
164 119 116
165 119 117
161 117 108
163 118 115
159 115 100
160 116 106
162 118 117
160 116 103
161 117 111
160 117 103
159 116 105
163 118 113
164 119 117
164 119 117
158 115 107
160 117 106
164 119 117
163 118 110
160 116 106
161 117 113
161 118 111
161 117 113
162 118 112
161 116 110
162 117 117
162 118 112
162 118 110
160 116 102
158 115 101
164 119 113
159 116 112
160 116 106
161 116 104
162 117 112
160 116 110
166 119 113
162 118 114
161 117 109
159 115 103
160 116 106
166 120 119
161 117 115
160 116 110
161 117 110
164 118 114
161 117 113
161 116 106
164 119 114
166 120 117
163 119 114
165 120 119
161 117 111
161 117 113
163 117 113
163 117 110
161 116 106
163 117 115
159 116 108
163 118 109
162 117 107
160 116 109
162 117 112
162 118 114
161 116 112
164 119 115
165 120 119
162 116 107
161 117 105
160 116 102
163 118 113
164 118 113
161 116 113
163 118 115
160 116 100
161 117 108
160 117 113
161 116 108
162 116 113
159 114 109
162 117 116
160 115 107
162 116 114
160 116 111
159 114 107
162 117 115
159 114 106
157 114 102
162 116 112
162 116 113
159 113 107
159 114 106
157 111 102
157 112 103
156 111 97
159 113 107
138 88 69
122 69 37
120 66 35
119 66 33
127 72 40
130 75 40
128 73 38
126 72 39
127 73 35
131 77 43
130 77 44
133 78 41
133 77 41
135 81 47
136 81 46
136 81 44
136 81 43
140 85 47
140 85 48
142 87 48
142 88 52
145 97 58
148 105 63
157 121 76
157 127 80
162 135 86
161 130 83
164 140 89
168 146 93
172 154 98
175 159 103
178 164 106
180 168 108
182 171 110
185 175 113
185 176 114
185 176 114
185 176 114
186 176 114
185 176 114
185 176 114
185 176 114
186 177 114
185 176 114
185 176 114
186 177 114
186 177 114
186 177 114
186 177 114
186 176 114
186 176 114
185 176 114
186 176 114
186 177 114
186 177 114
186 177 114
186 177 114
186 177 114
186 177 114
187 177 114
187 177 114
187 177 114
186 177 114
187 177 114
187 177 114
187 177 114
187 177 114
187 177 114
188 178 114
188 178 114
187 177 114
187 177 114
187 177 114
188 177 114
187 177 114
187 177 114
187 177 114
188 177 114
187 177 114
188 178 114
188 178 114
188 177 114
188 177 114
188 177 114
187 177 114
188 178 114
188 178 114
189 178 114
189 178 114
188 178 114
189 178 114
189 178 114
188 178 114
189 178 114
189 178 114
189 178 114
189 178 114
189 178 114
189 178 114
189 178 114
189 178 114
190 178 114
189 178 114
189 178 114
189 178 114
190 178 114
190 178 114
190 178 114
190 179 114
189 178 114
190 179 114
190 178 114
190 179 114
190 178 114
191 179 114
190 179 114
190 179 114
190 178 114
190 179 114
190 179 114
190 178 114
191 179 114
191 179 114
191 179 114
191 179 114
190 179 114
191 179 114
191 179 114
192 179 114
190 179 114
192 179 114
192 179 114
176 193 196
174 193 192
168 186 187
170 187 191
174 193 194
170 187 183
174 192 196
169 186 181
178 196 199
172 191 195
175 194 196
174 193 196
175 193 196
177 195 200
174 192 188
174 192 191
169 187 181
171 189 186
172 191 187
175 194 194
171 190 191
175 193 187
174 192 192
176 194 191
174 192 194
170 187 187
177 195 196
177 196 199
173 191 187
178 197 200
177 196 192
177 196 199
175 194 188
179 198 204
180 199 203
173 191 186
178 196 204
179 197 196
178 196 204
176 195 203
179 197 192
176 195 196
179 198 206
177 196 206
177 196 195
176 195 200
176 195 196
177 195 196
180 198 207
178 196 195
178 196 196
177 196 196
177 195 191
179 198 204
178 198 209
176 195 195
176 196 198
176 195 191
178 197 198
180 199 207
179 198 209
179 199 208
178 196 202
178 197 207
181 200 213
179 198 206
180 199 207
177 195 195
178 197 200
180 198 207
178 197 202
178 198 209
176 194 203
180 197 207
179 196 202
176 192 200
178 196 203
179 196 206
178 194 202
176 193 205
176 193 201
176 191 197
175 190 199
176 193 203
175 190 198
177 193 206
174 189 194
171 186 191
177 193 204
174 190 194
175 189 204
171 183 186
166 179 180
175 188 204
170 180 189
165 175 185
165 171 182
167 176 186
170 179 193
160 168 173
166 171 185
161 159 167
160 164 176
153 152 168
156 155 163
155 155 165
157 156 167
153 152 164
155 153 164
156 151 166
152 142 154
147 140 151
150 145 160
147 134 144
144 131 139
141 128 139
143 131 145
134 119 128
133 113 124
137 117 126
136 117 132
133 113 127
130 110 122
124 108 122
122 99 113
122 99 111
127 112 127
122 102 115
114 94 107
116 97 109
141 105 108
156 113 111
158 114 106
155 112 108
154 112 98
155 113 107
156 113 106
158 114 108
160 116 113
164 118 118
157 115 105
157 114 104
161 117 110
157 114 105
162 117 116
163 117 117
162 117 117
160 117 113
161 117 110
163 118 116
163 118 113
161 117 107
162 118 117
160 116 106
160 116 113
163 117 112
160 117 108
160 117 107
163 118 114
164 118 111
161 118 111
159 115 104
159 116 103
161 116 111
165 119 118
163 118 112
165 119 110
163 118 114
161 117 114
161 117 109
161 117 113
164 118 113
162 118 113
164 118 118
162 118 111
157 114 103
165 119 111
162 117 112
162 118 113
164 118 113
160 117 107
163 118 110
160 116 103
161 117 110
158 115 105
161 117 111
163 118 113
164 119 115
162 116 106
162 117 108
160 116 105
160 117 109
162 117 114
161 117 107
164 119 116
164 118 108
162 117 109
162 117 105
161 117 104
166 119 121
162 118 111
165 119 117
161 117 107
163 118 110
162 118 113
162 117 109
165 119 114
162 117 112
163 118 111
159 116 102
162 117 113
164 119 114
161 116 110
160 115 104
162 116 105
162 117 108
160 116 100
163 117 115
161 117 108
160 116 103
161 117 108
163 118 111
162 118 113
158 114 105
162 117 109
163 118 109
161 116 105
159 116 105
162 117 106
164 118 111
160 116 103
161 116 108
163 118 110
164 118 112
163 118 114
161 116 106
162 116 112
163 118 114
159 115 104
161 116 111
161 116 111
163 117 114
162 118 115
159 114 105
158 113 101
159 115 108
163 117 112
162 117 111
157 113 106
158 112 106
153 107 94
157 112 107
147 99 82
109 56 27
120 66 36
119 65 32
124 70 36
123 69 35
122 69 35
128 73 38
130 74 39
129 73 40
127 73 37
132 76 40
135 79 43
136 81 44
134 79 43
134 80 42
138 83 46
138 83 46
137 84 46
138 84 47
142 91 52
144 95 55
146 98 59
149 106 65
153 117 72
159 127 80
160 129 81
167 141 90
173 154 98
175 159 102
176 158 100
179 168 108
178 165 106
182 170 110
186 175 112
185 175 113
187 177 114
186 177 114
186 177 114
186 177 114
186 177 114
186 177 114
186 177 114
187 177 114
187 177 114
186 177 114
187 177 114
186 177 114
186 177 114
187 177 114
187 177 114
187 177 114
187 177 114
188 177 114
187 177 114
188 177 114
187 177 114
188 178 114
188 178 114
188 177 114
187 177 114
188 178 114
187 177 114
187 177 114
188 178 114
188 178 114
187 177 114
188 177 114
188 178 114
189 178 114
189 178 114
188 178 114
188 178 114
188 177 114
188 178 114
188 178 114
189 178 114
188 178 114
188 178 114
188 178 114
190 178 114
189 178 114
189 178 114
189 178 114
188 178 114
189 178 114
190 178 114
190 179 114
189 178 114
189 178 114
189 178 114
189 178 114
190 178 114
189 178 114
189 178 114
189 178 114
190 179 114
190 179 114
190 179 114
190 179 114
190 179 114
190 178 114
190 178 114
190 178 114
189 178 114
191 179 114
190 178 114
191 179 114
191 179 114
190 179 114
190 179 114
190 179 114
191 179 114
191 179 114
192 179 114
191 179 114
191 179 114
191 179 114
191 179 114
191 179 114
191 179 114
191 179 114
192 179 114
191 179 114
192 179 114
192 179 114
192 179 114
191 179 114
192 179 114
192 179 114
192 180 114
192 180 114
175 193 196
169 187 175
173 190 191
167 186 180
174 192 190
177 194 198
168 187 174
177 194 195
171 190 181
178 196 202
170 188 184
172 190 186
172 190 191
169 188 177
172 190 180
173 191 184
180 198 199
174 193 191
177 195 198
178 196 192
182 199 207
177 196 199
178 196 199
177 195 204
175 194 195
174 192 192
173 192 188
177 196 195
178 197 200
174 192 188
175 195 200
178 197 199
178 197 200
177 196 200
176 195 192
176 195 194
177 196 200
180 198 209
175 194 195
177 196 190
178 196 200
176 194 184
176 195 187
179 198 199
178 197 200
181 199 206
179 198 196
177 196 196
180 199 206
178 197 207
178 196 206
177 195 199
175 195 195
178 195 195
176 196 199
178 196 195
176 196 194
179 198 200
178 196 195
176 196 202
178 196 198
177 196 198
181 199 207
175 194 194
178 196 201
178 196 202
175 193 197
180 198 207
178 196 199
180 199 202
181 196 207
174 193 192
178 197 206
177 194 194
175 194 198
177 196 206
177 194 203
175 193 194
177 194 199
178 195 203
174 191 191
179 196 213
179 193 207
172 187 196
177 194 201
174 189 198
171 183 185
175 188 192
173 187 195
175 188 198
174 187 197
173 186 198
169 180 184
171 184 196
169 178 180
168 174 182
167 174 181
168 177 188
163 170 176
166 168 170
160 165 178
163 166 174
159 156 164
164 168 179
159 163 175
157 155 166
155 149 159
157 154 162
154 150 162
153 148 156
148 140 147
148 140 146
149 137 146
141 127 136
144 133 147
139 122 131
140 122 129
128 110 117
134 116 126
134 116 128
131 113 127
131 108 117
129 106 117
123 102 114
125 102 113
131 112 124
123 106 119
116 95 107
120 97 109
115 94 109
154 114 110
156 113 117
156 114 111
157 113 109
160 116 114
156 113 112
157 114 107
159 115 110
160 116 106
160 115 112
162 118 110
157 114 102
159 116 106
161 116 111
162 117 111
161 117 110
160 116 104
161 117 112
164 119 117
161 117 101
159 116 104
164 118 114
158 115 108
161 117 113
165 119 114
160 116 105
166 120 118
160 117 106
161 117 110
162 117 110
161 117 111
161 116 110
162 117 108
159 116 103
162 118 110
159 116 103
160 116 111
161 117 103
157 114 102
161 117 104
160 115 103
161 117 109
162 118 111
163 118 117
164 118 115
162 118 109
159 115 101
159 116 103
161 117 112
160 116 107
163 118 109
162 117 109
163 118 110
164 119 113
162 118 113
163 119 111
161 117 109
160 116 105
159 115 108
163 118 114
164 118 111
162 117 114
164 118 113
165 119 113
163 117 106
161 116 108
163 118 113
158 116 100
159 115 104
165 120 121
158 116 105
160 116 103
161 117 110
162 118 109
159 116 100
163 118 106
162 118 108
165 119 114
161 117 107
164 118 113
159 116 100
162 118 112
158 115 97
158 114 103
162 118 111
161 116 111
161 116 112
162 116 111
162 117 108
161 117 108
160 115 103
165 119 116
158 115 103
161 116 113
165 119 119
162 117 111
163 118 107
162 117 109
160 116 101
162 118 109
164 118 119
164 119 113
161 116 107
161 116 105
158 114 106
162 117 111
161 116 104
160 115 112
160 114 101
160 115 106
162 117 115
163 117 111
157 113 100
163 116 108
162 116 111
159 114 108
159 115 107
160 115 106
156 112 98
156 112 99
155 111 103
160 113 110
148 102 91
119 65 33
116 61 30
119 65 33
122 67 33
123 69 36
126 72 37
125 70 35
125 70 34
128 72 39
126 72 34
131 77 41
132 76 38
129 75 38
134 77 39
131 78 41
137 83 44
137 82 46
138 83 47
140 85 47
140 86 48
141 89 51
144 97 58
150 105 64
154 118 72
153 114 69
157 126 79
166 143 90
168 144 91
171 150 96
173 154 98
177 160 102
181 165 106
184 171 109
185 172 110
186 175 112
187 177 114
187 177 114
188 178 114
187 177 114
188 177 114
187 177 114
188 177 114
187 177 114
188 178 114
187 177 114
188 178 114
188 177 114
187 177 114
188 178 114
187 177 114
187 177 114
188 178 114
188 177 114
188 178 114
188 178 114
189 178 114
188 177 114
188 177 114
189 178 114
188 178 114
188 178 114
189 178 114
188 178 114
188 177 114
189 178 114
189 178 114
188 177 114
189 178 114
188 178 114
188 178 114
189 178 114
189 178 114
189 178 114
189 178 114
188 178 114
189 178 114
190 178 114
190 178 114
190 179 114
189 178 114
190 178 114
190 178 114
189 178 114
190 178 114
189 178 114
190 178 114
190 178 114
190 179 114
191 179 114
190 179 114
189 178 114
191 179 114
190 179 114
190 179 114
192 179 114
190 178 114
191 179 114
190 179 114
191 179 114
191 179 114
191 179 114
191 179 114
190 179 114
190 179 114
191 179 114
192 179 114
192 179 114
192 179 114
191 179 114
192 179 114
191 179 114
192 179 114
191 179 114
191 179 114
192 179 114
192 179 114
191 179 114
191 179 114
191 179 114
192 180 114
192 180 114
192 179 114
193 180 114
192 179 114
192 179 114
192 179 113
192 180 114
193 180 114
192 179 113
192 180 114
191 179 113
173 191 191
171 189 183
168 186 177
172 190 188
173 191 183
173 190 191
170 187 188
171 189 177
173 191 181
169 187 183
171 189 186
169 186 181
174 191 191
174 192 192
168 187 178
171 189 186
172 190 181
175 193 186
170 188 181
175 194 194
176 194 183
171 190 187
174 192 190
177 195 195
174 193 186
174 192 192
174 193 187
173 192 190
175 194 192
177 195 196
175 193 191
179 197 202
176 195 186
176 194 192
178 196 195
178 197 202
177 196 195
179 198 203
179 197 200
179 198 195
175 195 191
178 198 200
177 196 194
179 198 202
176 196 192
180 198 195
178 197 200
178 197 191
178 197 199
179 197 199
178 196 194
178 196 195
177 196 192
177 195 195
178 197 202
180 198 202
180 198 200
177 197 199
180 198 203
176 194 189
178 196 196
180 197 202
177 195 192
181 199 204
179 197 198
178 195 198
177 196 200
181 199 209
177 194 205
174 193 184
180 198 200
175 193 189
176 195 198
174 191 193
179 197 207
177 195 203
177 194 197
174 189 186
175 192 193
179 195 196
177 192 194
176 193 195
174 191 195
172 186 182
178 194 199
172 186 187
174 190 193
173 188 194
174 188 196
172 185 194
170 182 185
168 181 180
168 178 183
172 183 186
172 183 188
166 172 174
164 172 176
164 168 179
161 160 163
160 165 173
165 169 174
155 158 162
157 158 153
160 159 160
156 154 157
159 154 161
156 152 155
155 151 157
148 136 142
151 139 149
146 131 139
150 142 151
147 139 153
141 127 134
146 134 148
145 130 140
136 113 121
138 121 130
130 112 122
132 106 113
134 115 124
124 94 99
127 103 115
120 98 101
124 96 106
117 96 105
114 89 99
122 99 108
110 85 96
110 86 96
154 112 106
155 113 108
158 115 110
155 112 105
158 115 112
157 114 106
162 117 118
161 117 106
161 115 113
161 116 111
160 117 112
159 115 108
156 114 100
157 115 109
161 116 113
161 118 116
159 117 110
161 116 110
162 118 111
162 118 110
160 116 103
159 116 103
161 116 109
159 116 108
158 115 104
161 117 110
161 117 114
163 118 111
161 117 109
158 114 100
164 119 112
157 114 100
161 117 105
163 118 112
161 117 108
159 115 103
161 116 106
162 117 112
161 117 109
161 117 108
163 118 111
162 118 110
162 117 109
163 118 115
160 116 105
156 113 97
162 117 109
162 117 113
158 114 103
162 117 106
160 116 103
158 115 101
161 116 106
158 115 100
163 118 113
162 117 106
161 116 107
165 119 115
161 115 104
164 118 110
166 120 116
162 117 112
161 117 103
161 117 113
160 116 107
162 117 105
162 117 111
162 117 112
160 116 104
160 116 105
165 119 117
159 116 105
166 120 117
160 116 103
163 118 117
158 115 105
159 115 101
166 119 115
166 120 120
161 117 108
161 117 106
164 118 113
163 118 112
160 117 107
160 117 105
164 118 113
162 117 113
164 119 114
160 116 108
161 117 107
163 117 111
161 117 112
164 118 112
164 118 111
160 115 108
162 117 113
161 117 110
161 117 108
161 117 109
161 117 114
160 116 109
161 116 106
160 116 112
160 115 103
157 113 98
160 116 106
163 117 108
161 116 108
160 114 108
162 116 110
160 115 103
161 116 109
161 115 111
162 116 110
158 114 103
159 115 104
161 115 105
159 114 105
161 116 110
158 113 104
158 113 101
158 113 108
157 110 100
117 63 35
117 64 33
118 63 33
118 63 31
122 66 33
122 68 34
125 72 36
125 70 35
126 73 37
130 75 41
129 75 38
130 75 39
133 79 42
135 80 43
131 76 39
132 78 41
133 77 39
137 83 44
139 85 47
140 86 46
138 83 44
142 90 51
143 97 56
150 107 64
159 122 76
157 126 78
164 137 85
161 131 83
167 142 88
174 154 98
178 162 103
183 168 108
183 168 107
183 170 108
186 174 111
188 178 114
188 178 114
188 178 114
188 178 114
189 178 114
189 178 114
188 178 114
189 178 114
189 178 114
189 178 114
189 178 114
188 178 114
188 178 114
189 178 114
189 178 114
188 178 114
189 178 114
189 178 114
189 178 114
190 179 114
190 178 114
190 178 114
189 178 114
189 178 114
189 178 114
189 178 114
190 179 114
188 178 114
189 178 114
190 178 114
189 178 114
189 178 114
189 178 114
190 179 114
190 179 114
190 178 114
190 179 114
189 178 114
190 178 114
191 179 114
190 179 114
190 179 114
191 179 114
191 179 114
191 179 114
190 179 114
189 178 114
190 179 114
191 179 114
191 179 114
190 179 114
190 179 114
191 179 114
191 179 114
190 179 114
191 179 114
190 179 114
192 179 114
192 179 114
190 179 114
191 179 114
191 179 114
191 179 114
192 179 114
192 180 114
191 179 114
191 179 114
191 179 114
192 179 114
191 179 114
193 180 114
192 179 114
192 180 114
192 180 114
191 179 113
192 180 114
192 179 114
192 179 114
192 179 114
192 180 114
193 180 114
192 179 114
192 179 114
192 179 113
193 180 114
193 180 113
192 180 114
193 180 113
192 179 112
192 180 114
192 180 113
191 179 113
192 180 114
192 179 113
193 180 114
193 180 113
171 190 184
172 190 183
173 192 183
176 194 192
174 192 186
176 194 194
166 184 165
175 193 191
176 194 196
175 193 188
171 188 183
170 188 178
177 195 183
170 188 178
172 189 181
173 191 184
173 191 187
175 194 186
171 189 180
174 192 195
175 193 191
178 197 208
176 194 198
179 197 194
174 191 190
175 193 190
178 196 198
176 193 192
170 188 183
176 195 196
173 191 188
174 193 190
178 195 194
178 196 198
176 195 195
177 195 187
175 194 188
178 196 196
180 199 208
175 193 190
177 195 199
174 192 186
177 195 190
178 197 203
177 196 199
179 197 195
180 198 200
177 196 187
178 196 191
175 192 190
179 197 196
176 196 195
174 192 187
182 199 199
179 197 198
179 197 194
177 196 191
180 198 203
177 196 192
175 194 194
178 197 202
178 197 200
178 196 198
177 197 196
177 197 198
180 198 207
179 196 206
178 197 200
179 197 206
176 194 191
178 196 202
176 194 193
178 196 199
176 193 199
175 193 201
176 191 198
177 194 193
176 193 196
178 195 203
175 191 188
176 194 203
174 190 192
174 190 190
178 194 196
176 194 197
175 192 189
176 191 199
175 188 188
173 184 194
170 180 190
167 178 181
173 185 190
172 186 186
167 174 177
166 175 178
166 173 176
168 179 186
164 171 175
166 175 175
166 172 182
159 159 162
157 153 156
162 168 174
157 158 162
153 149 153
156 154 158
154 147 157
156 151 162
146 134 144
150 141 152
142 131 132
146 132 140
140 125 133
146 138 146
140 124 131
133 114 121
133 111 121
132 116 122
134 115 127
136 113 122
130 106 117
123 96 105
122 99 110
126 105 116
121 96 103
112 89 98
111 92 103
117 91 99
112 84 91
116 91 100
150 109 105
156 114 110
155 113 107
156 113 108
152 111 99
157 114 110
160 115 107
156 114 101
157 115 108
158 115 105
157 114 98
162 116 109
160 116 109
158 115 105
159 116 107
162 118 114
157 113 103
161 117 111
159 116 109
161 116 111
160 116 110
160 115 103
162 117 112
161 117 111
160 116 107
161 116 111
160 116 110
161 117 112
161 116 108
159 114 103
160 115 110
163 118 111
161 116 103
161 116 107
161 117 107
163 118 108
162 118 113
162 118 105
163 118 113
160 116 103
160 116 108
162 117 110
164 119 115
162 118 114
162 117 103
160 116 106
161 117 112
160 116 106
165 119 118
159 116 109
158 115 107
159 115 106
159 115 105
161 117 108
162 117 109
165 119 116
161 117 106
160 116 103
164 118 114
161 117 119
161 116 103
160 116 107
161 116 106
161 117 111
162 117 112
163 118 114
161 117 111
160 116 103
162 117 110
162 117 111
164 118 111
161 117 102
159 115 105
162 118 113
160 116 109
162 117 109
162 118 110
162 117 113
163 118 111
163 118 111
160 116 104
162 117 109
160 116 112
158 114 98
161 117 112
159 115 103
161 116 106
158 115 100
160 117 110
163 117 114
159 115 106
162 118 113
162 118 113
160 116 104
162 117 114
161 116 106
159 115 108
160 115 103
158 114 104
161 117 110
160 115 112
159 116 108
161 117 105
161 116 109
159 114 105
162 116 105
163 118 113
160 115 102
160 116 108
162 116 110
163 117 115
162 116 112
161 116 105
159 114 103
161 116 110
163 116 116
159 115 107
154 111 102
162 114 106
158 113 106
159 113 108
152 107 90
153 108 93
121 71 49
117 63 33
116 62 33
119 65 31
121 67 36
123 67 31
127 73 38
122 68 34
131 75 39
127 70 35
125 71 34
132 76 41
129 76 39
134 80 43
132 77 38
132 79 42
136 81 43
136 83 47
137 82 43
138 83 45
142 87 48
147 96 57
146 99 58
148 102 60
152 117 71
155 119 72
159 126 78
168 142 89
171 147 92
175 155 99
180 163 103
180 162 103
184 168 107
187 174 111
187 175 112
188 176 113
189 178 114
190 178 114
190 178 114
190 179 114
189 178 114
190 178 114
190 179 114
190 178 114
190 179 114
190 179 114
190 178 114
189 178 114
190 179 114
190 179 114
190 179 114
190 179 114
190 178 114
190 178 114
190 178 114
190 178 114
190 179 114
189 178 114
190 178 114
190 179 114
190 179 114
191 179 114
190 179 114
191 179 114
190 179 114
190 179 114
191 179 114
191 179 114
190 179 114
191 179 114
191 179 114
191 179 114
190 179 114
190 179 114
191 179 114
191 179 114
192 179 114
190 179 114
192 179 114
190 179 114
190 179 114
191 179 114
191 179 114
191 179 114
192 179 114
192 179 114
192 179 114
191 179 114
191 179 114
191 179 114
192 179 114
191 179 113
192 180 114
192 179 114
192 180 114
192 179 114
191 179 113
192 180 113
192 179 114
191 179 113
193 180 114
192 180 114
192 179 113
193 180 114
192 179 114
193 180 114
192 180 114
192 179 114
193 180 114
192 179 114
193 180 113
192 180 114
192 180 113
193 180 114
192 179 113
192 179 113
192 179 113
192 179 112
193 180 113
192 180 113
194 180 114
192 179 113
193 180 114
193 180 113
193 180 113
192 179 113
192 180 114
193 180 113
192 179 112
192 179 112
192 179 113
169 187 171
162 179 168
167 186 175
180 197 196
175 194 190
170 188 172
171 190 184
170 187 180
173 190 183
171 190 180
173 191 192
168 186 177
174 191 191
169 187 174
174 193 194
174 192 190
170 188 180
174 192 187
180 198 204
174 193 186
175 193 184
174 192 184
172 191 184
177 195 194
176 195 195
173 190 191
177 195 191
175 193 199
175 194 184
176 195 191
175 194 191
173 192 188
175 194 194
174 193 180
174 193 194
180 198 199
177 196 190
173 192 187
171 189 178
179 197 203
178 196 195
180 197 195
179 197 194
181 199 204
177 195 192
176 196 199
176 194 190
178 196 202
177 196 195
176 194 180
176 194 195
177 195 186
177 196 191
174 192 181
177 196 198
176 193 187
176 194 184
178 195 197
178 196 199
179 197 199
178 197 203
178 197 200
177 195 195
178 197 199
178 196 200
178 197 194
175 192 186
177 194 194
178 196 202
176 196 190
176 193 190
176 194 186
177 194 200
174 190 179
175 195 196
178 194 198
173 190 187
177 193 196
176 191 199
177 192 201
176 190 195
178 193 202
175 190 192
175 190 189
175 189 187
175 189 199
174 190 190
174 188 184
173 186 193
171 181 182
171 183 179
173 181 188
169 178 179
163 174 164
167 175 179
168 177 177
164 169 173
164 170 167
163 170 171
167 174 181
160 163 164
157 159 162
157 157 167
154 153 155
156 153 152
155 150 160
157 153 159
150 143 144
146 139 145
146 136 141
146 137 143
144 129 132
143 124 129
144 128 135
140 127 131
135 115 122
136 115 124
130 111 117
132 111 120
135 114 122
119 93 97
128 104 107
119 92 101
124 95 99
113 91 97
112 84 90
107 77 81
115 81 85
104 74 75
124 88 92
156 113 112
153 110 106
156 113 106
156 112 104
156 113 109
156 114 103
156 113 103
158 115 108
157 113 101
153 111 99
159 115 111
161 117 112
161 117 112
160 115 102
158 115 104
159 115 113
161 116 108
160 116 111
157 114 98
159 115 104
162 117 110
162 117 107
160 117 106
162 117 109
157 114 102
161 117 109
157 115 99
160 116 103
160 115 109
161 117 107
161 117 109
161 116 107
159 115 104
163 118 110
162 118 107
162 117 112
162 117 106
162 117 107
162 117 108
161 116 106
158 115 108
162 117 109
163 118 113
160 116 110
162 117 108
160 117 108
163 119 117
162 117 108
163 117 109
163 118 112
161 117 108
163 118 110
161 116 105
156 114 97
160 117 106
163 117 113
160 116 109
159 115 101
161 116 106
162 117 109
160 116 97
159 116 103
161 116 106
164 118 113
159 115 106
162 118 110
162 117 109
163 118 112
162 117 106
162 118 115
162 118 113
159 116 104
160 117 103
159 115 102
162 116 109
160 115 106
162 117 112
160 116 107
159 115 103
158 115 103
163 118 113
161 117 110
162 117 112
164 119 116
160 116 104
165 119 113
163 118 115
160 117 104
159 115 104
159 115 102
160 116 109
161 116 109
162 117 108
160 116 106
162 118 108
160 116 108
160 116 104
164 118 111
157 113 104
159 115 105
160 116 106
160 115 106
159 114 105
160 116 108
163 117 113
161 116 108
160 116 106
160 116 111
160 115 100
155 112 95
160 115 108
157 113 101
160 115 105
160 114 108
161 116 113
161 115 104
159 114 107
152 109 89
154 110 96
159 114 104
155 110 97
151 106 85
155 110 101
130 82 62
111 57 26
116 62 31
115 62 27
115 62 32
123 68 35
122 65 31
129 75 39
127 71 38
127 73 37
123 69 35
128 73 38
132 77 40
133 79 39
132 78 41
136 80 44
131 77 39
136 81 43
138 83 46
137 83 44
142 87 46
140 84 45
139 91 49
144 98 54
151 109 66
154 113 68
159 127 77
168 141 89
172 148 93
175 152 96
175 155 97
183 167 107
183 168 107
188 175 112
188 176 112
190 178 113
190 178 114
190 179 114
190 179 114
190 179 114
191 179 114
191 179 114
192 179 114
190 179 114
191 179 114
190 179 114
191 179 114
190 179 114
190 179 114
191 179 114
191 179 114
191 179 114
191 179 114
191 179 114
191 179 114
191 179 114
192 180 114
191 179 114
192 179 114
191 179 114
191 179 114
192 179 114
192 179 114
192 179 114
191 179 114
191 179 114
192 179 114
191 179 113
191 179 114
192 179 114
191 179 114
192 180 114
191 179 113
191 179 114
192 179 114
191 179 113
191 179 113
192 179 114
192 179 114
192 179 114
192 180 113
192 179 114
191 179 113
191 179 113
192 179 114
193 180 114
192 179 113
192 179 113
192 179 113
192 180 113
192 179 113
192 180 114
192 180 114
192 179 113
191 179 112
192 179 113
193 180 114
192 179 113
193 180 113
192 179 113
193 180 113
193 180 114
193 180 112
193 180 114
192 179 112
192 179 112
191 179 112
192 179 112
192 179 113
193 180 113
193 180 114
192 179 112
193 180 113
192 179 113
193 180 112
193 180 113
193 180 114
193 180 113
193 180 113
193 180 113
193 180 113
193 180 113
193 180 112
192 179 110
193 180 113
193 180 113
193 180 113
194 180 113
192 179 111
193 180 112
193 180 112
170 188 181
173 190 190
168 185 180
172 189 187
172 190 191
172 190 186
176 194 187
169 187 177
173 190 190
172 190 181
175 193 186
174 192 190
170 188 177
172 189 186
172 190 177
169 187 178
170 189 181
177 195 188
171 189 180
172 191 184
175 191 187
173 192 178
171 190 181
177 195 192
170 188 180
175 193 187
176 194 192
173 190 190
173 192 177
174 193 188
177 194 184
172 190 181
174 193 177
173 192 180
176 193 181
174 193 178
177 195 192
177 196 194
181 199 202
177 196 191
176 195 190
174 193 180
179 197 200
179 198 199
178 196 190
176 194 191
180 198 202
174 192 180
178 197 195
177 196 194
175 193 188
175 193 181
176 195 186
180 198 198
179 198 195
178 196 192
175 194 187
179 197 198
176 195 192
173 191 186
175 193 181
177 196 194
176 194 188
176 194 195
179 197 200
180 198 199
178 196 193
176 193 186
175 193 188
178 194 189
174 190 174
178 195 198
178 195 200
176 195 190
176 193 195
175 191 181
172 188 182
176 194 194
173 189 183
175 192 188
177 194 196
173 189 179
173 189 185
170 183 177
172 187 187
173 185 184
172 188 181
177 192 195
168 182 174
167 180 176
172 186 187
169 178 182
170 181 176
170 177 178
165 174 170
167 176 180
169 175 183
165 171 171
163 163 158
160 162 165
161 160 164
156 158 156
161 161 166
153 152 153
151 147 144
153 148 151
153 151 150
153 151 153
150 143 149
149 141 148
144 133 139
147 135 139
145 129 139
147 130 134
136 117 117
134 115 121
134 122 130
130 103 107
134 114 125
130 104 111
127 103 106
123 94 97
117 90 95
116 86 89
123 96 101
110 79 80
106 79 86
109 82 87
108 84 91
119 86 86
156 113 108
150 107 94
153 112 107
157 114 107
159 114 107
157 114 103
159 115 107
157 115 111
160 116 105
158 115 104
163 117 117
159 115 103
159 116 110
160 116 111
162 116 108
160 116 105
157 115 99
160 115 104
160 116 107
160 116 110
161 117 111
163 118 110
159 115 104
163 118 114
161 116 110
160 116 102
162 117 107
164 119 115
162 118 113
160 116 107
164 118 113
159 116 108
160 116 105
159 115 104
162 118 110
162 117 105
157 114 103
163 118 108
162 117 117
163 118 110
164 118 114
160 115 102
158 115 103
162 117 107
160 115 105
160 116 110
161 117 108
160 116 102
160 115 101
161 117 108
162 118 111
159 115 104
162 117 111
161 116 106
160 116 106
161 117 107
163 118 112
163 118 111
162 117 108
161 117 115
160 116 105
162 117 104
161 116 108
164 118 109
159 115 107
161 116 108
162 117 110
159 115 105
162 117 109
161 116 108
159 115 108
159 115 102
160 116 103
164 118 111
161 117 108
163 118 110
163 118 111
163 117 113
157 113 99
162 118 108
165 119 113
157 114 101
157 114 95
161 116 103
160 116 106
158 115 100
160 115 103
161 116 104
162 118 112
163 118 112
161 116 105
162 117 106
161 117 111
159 115 107
158 115 107
160 116 103
162 117 109
163 117 111
159 114 102
161 117 109
159 114 107
162 117 104
161 116 103
155 112 98
160 116 109
161 117 109
162 116 102
160 115 106
160 115 105
159 115 107
161 115 106
157 113 101
157 113 99
160 115 104
161 115 108
158 113 102
160 115 107
157 113 102
158 113 103
161 114 111
160 114 102
154 108 97
154 107 98
128 81 63
106 54 23
107 50 20
116 62 28
119 66 30
121 66 32
124 69 34
122 67 33
127 71 34
127 73 37
128 75 38
128 74 37
127 74 35
128 74 35
130 76 36
135 81 40
138 82 44
133 80 40
136 81 40
140 85 47
138 84 45
140 86 46
141 89 48
143 96 54
147 102 59
150 107 62
157 122 74
164 134 82
170 143 89
175 152 96
176 155 97
180 159 100
185 170 108
186 171 108
189 175 111
190 176 112
190 177 113
192 179 114
193 180 114
191 179 114
192 179 113
192 179 113
192 179 114
191 179 114
191 179 114
192 180 114
192 180 114
191 179 114
190 179 114
193 180 114
192 180 114
191 179 114
192 179 113
191 179 114
191 179 114
192 179 113
191 179 114
192 179 114
192 179 114
192 180 114
191 179 112
193 180 114
192 179 113
192 180 113
192 180 113
192 179 114
192 179 113
192 180 114
192 179 113
193 180 114
192 179 113
191 179 113
193 180 114
193 180 113
192 180 114
192 180 113
193 180 113
192 180 113
192 180 114
191 179 113
191 179 112
193 180 113
193 180 113
193 180 114
192 179 112
192 179 112
192 179 112
193 180 113
192 180 113
193 180 113
192 180 113
193 180 114
192 179 112
193 180 114
193 180 114
192 179 112
193 180 113
192 179 112
193 180 113
191 179 111
192 179 112
193 180 112
192 179 112
192 179 111
192 179 113
191 179 111
193 180 113
193 180 113
193 180 112
193 180 112
192 179 112
192 179 111
190 177 108
193 180 112
194 180 113
191 179 110
192 179 111
193 179 111
192 179 110
193 180 113
193 180 113
192 179 110
192 179 111
192 179 110
192 179 110
192 179 111
191 179 110
192 179 110
193 180 112
192 179 111
193 180 113
168 186 174
165 182 174
167 184 168
168 187 171
171 188 175
168 186 174
170 187 174
172 190 180
173 191 186
173 191 184
174 192 184
177 195 192
176 194 192
171 187 183
178 196 190
171 190 174
173 192 186
170 189 175
176 193 195
173 191 181
174 192 184
178 195 184
173 191 177
172 190 172
174 191 178
177 195 190
177 195 192
174 192 171
176 193 190
174 192 181
174 193 190
172 191 178
175 191 187
177 196 191
177 195 192
174 193 180
176 194 192
178 195 198
177 195 186
173 191 174
178 197 196
175 194 175
179 197 194
177 194 190
177 195 192
179 197 190
175 194 184
175 193 187
180 198 195
177 195 191
176 195 184
175 194 184
177 196 192
177 195 191
173 191 172
176 194 184
176 194 190
176 194 178
180 198 198
175 191 180
178 196 190
176 195 191
176 194 186
180 198 198
177 195 193
179 197 196
179 197 202
176 192 185
173 192 177
176 194 198
178 196 194
177 192 198
174 193 191
173 189 178
175 190 188
174 191 181
174 189 183
172 187 172
171 186 176
173 188 180
175 190 189
174 190 190
177 193 194
170 184 172
172 184 179
172 186 182
176 191 195
174 188 188
169 179 173
169 180 170
170 183 177
174 187 189
172 183 185
171 180 189
167 177 178
167 176 180
164 172 172
164 170 164
164 173 170
157 157 156
162 165 161
159 162 156
157 155 152
156 155 148
157 151 159
149 135 131
155 151 153
149 140 138
145 136 134
148 135 137
151 142 143
143 133 140
141 124 122
141 124 126
138 121 124
136 114 121
136 113 118
133 113 116
133 111 115
129 100 103
120 90 90
130 105 110
119 87 87
119 88 89
112 82 89
109 78 79
110 79 84
103 72 77
110 85 95
125 90 88
155 112 106
149 108 97
152 110 97
157 113 105
155 112 103
159 114 106
155 114 101
155 113 103
159 114 103
155 113 99
155 112 102
159 116 105
159 116 107
158 114 103
162 117 110
161 117 111
161 116 114
159 114 99
161 116 110
157 114 102
160 116 108
162 117 110
161 117 110
163 118 106
160 116 101
162 117 110
160 116 108
159 116 102
158 115 103
161 116 110
163 118 113
162 117 109
161 116 109
163 118 120
162 117 108
159 115 107
163 117 109
163 118 112
164 119 110
163 118 112
162 117 109
160 115 103
163 118 113
159 115 104
160 116 107
160 116 102
162 117 112
161 116 111
158 115 103
161 117 103
161 116 111
162 118 106
156 113 98
161 116 108
158 115 100
158 114 103
162 117 108
163 117 113
160 116 106
160 115 103
163 118 106
165 119 116
161 116 106
161 116 104
161 117 106
160 115 106
164 119 115
157 115 97
163 118 115
163 118 113
158 115 103
164 117 109
161 117 111
162 118 107
163 118 115
161 116 112
162 117 106
162 117 106
162 116 110
157 114 97
159 116 104
163 117 108
158 114 98
160 116 103
161 116 113
161 116 105
155 113 98
162 118 113
160 116 106
159 115 99
160 116 103
161 116 107
163 117 109
158 115 106
163 118 110
161 117 112
158 116 103
163 118 110
159 115 104
161 117 104
160 116 109
160 116 103
164 118 112
161 116 105
159 115 105
157 113 105
163 118 112
158 114 99
159 114 104
161 115 105
157 112 107
162 116 115
163 118 113
157 112 93
162 116 111
159 114 108
158 113 106
160 114 105
160 115 107
157 113 104
159 112 104
156 111 100
155 110 97
129 82 64
108 55 23
110 57 27
108 57 26
114 59 26
119 66 32
120 66 33
120 65 32
127 72 36
126 72 36
126 71 35
124 71 35
127 72 34
134 80 43
132 77 40
130 76 37
132 77 39
132 77 40
135 80 41
137 82 43
133 79 38
143 87 46
135 84 44
145 95 53
148 102 58
151 109 63
159 125 75
162 131 79
166 139 85
169 139 86
178 158 98
181 162 101
186 169 107
186 172 107
189 174 110
191 176 111
192 180 113
191 179 113
192 179 112
192 180 113
191 179 112
191 178 112
192 179 113
192 179 113
192 179 113
192 180 113
192 179 113
192 179 112
192 180 114
192 179 112
192 180 113
191 179 112
193 180 114
192 179 112
193 180 113
192 179 112
192 180 113
192 179 114
191 179 113
191 179 112
192 179 113
192 179 112
192 179 112
192 179 112
191 178 109
192 179 112
191 179 112
192 179 112
192 179 112
191 179 111
192 179 112
192 179 112
193 180 113
191 179 110
191 179 112
192 179 112
192 179 112
191 179 112
192 179 111
190 178 110
192 179 112
191 178 110
193 180 113
191 179 112
191 179 111
191 179 110
191 178 110
192 180 113
192 179 111
192 179 110
192 179 112
192 179 112
192 179 112
192 179 112
193 180 113
192 179 110
193 180 113
193 180 112
193 180 112
193 179 111
191 179 110
191 179 110
192 179 110
192 179 110
191 178 108
190 178 108
192 179 110
194 180 113
192 179 110
190 178 108
193 180 112
192 179 110
192 179 110
191 179 110
192 179 110
192 179 110
191 179 110
192 179 111
192 179 110
192 179 110
192 179 110
193 180 111
191 178 108
191 178 109
192 179 109
190 178 109
191 178 109
192 179 110
192 179 110
192 179 109
190 177 107
167 184 172
168 185 184
170 188 178
169 188 177
169 186 172
171 188 178
171 190 177
167 185 169
172 189 178
177 196 191
178 196 198
170 189 172
173 191 188
171 190 172
176 194 191
165 182 165
170 188 171
177 194 183
172 190 175
174 192 186
176 194 194
178 196 191
173 190 183
172 189 177
175 193 191
174 192 184
175 193 194
173 192 183
178 196 194
176 195 191
175 193 178
171 188 172
178 196 195
178 196 186
173 191 177
177 195 183
176 194 180
174 192 181
175 194 184
177 196 195
179 197 190
175 193 186
174 193 178
177 195 188
178 197 192
171 190 171
175 192 180
178 196 195
177 195 188
174 192 186
177 195 191
175 193 175
174 193 181
177 195 186
175 193 177
179 197 198
174 192 181
173 191 175
176 194 190
176 195 181
175 194 183
178 197 196
177 195 191
176 194 184
175 192 178
178 196 190
176 192 184
177 195 181
178 196 196
177 194 186
173 190 185
175 190 180
177 194 192
176 192 186
173 190 177
177 194 187
173 188 176
176 192 195
173 188 180
175 191 188
177 193 184
168 179 166
173 187 178
173 191 187
171 186 175
170 183 178
175 189 184
170 184 176
169 181 167
170 180 177
167 174 174
166 172 176
164 170 168
168 177 179
168 176 175
167 172 168
166 171 170
162 168 162
164 171 160
165 168 175
155 149 141
157 157 158
159 158 155
155 153 149
154 148 150
154 150 143
151 144 142
144 131 131
146 134 134
148 131 131
143 131 132
137 114 115
137 118 117
139 121 117
133 114 103
132 110 111
134 110 116
125 103 104
125 95 95
133 108 105
126 101 101
118 84 84
119 90 93
120 86 85
108 76 74
112 79 77
111 82 87
105 71 68
95 67 70
135 95 90
149 107 94
155 112 104
160 116 110
155 111 105
156 113 106
156 113 100
158 115 109
159 115 112
158 115 108
158 114 102
155 111 91
160 117 108
159 115 109
158 114 102
161 116 109
160 116 110
160 115 106
162 118 116
158 114 105
158 114 99
158 113 103
158 112 96
158 115 104
158 114 103
159 115 104
161 116 104
162 117 113
161 116 112
158 115 103
161 117 104
160 117 110
158 114 102
158 115 103
158 115 102
162 117 111
163 118 111
159 115 109
160 116 103
162 117 110
161 116 106
160 116 106
162 118 112
164 118 110
161 116 105
158 114 100
158 115 100
159 115 105
161 117 107
163 118 109
161 117 105
162 117 105
158 116 103
162 117 104
161 116 107
160 116 103
164 118 113
160 117 110
161 116 107
163 117 110
163 117 110
161 116 104
161 117 105
163 118 113
156 113 100
161 116 106
162 116 104
161 117 106
158 114 99
161 117 105
159 115 100
157 114 103
163 118 106
159 115 100
159 115 100
160 115 101
160 116 104
160 116 108
163 117 109
160 116 103
161 117 113
162 117 110
163 118 113
158 114 101
163 117 111
166 119 116
161 116 105
161 117 112
160 116 104
160 116 105
160 116 106
162 117 106
158 115 103
156 113 94
158 113 106
158 115 101
161 116 109
159 115 100
160 117 112
162 117 111
158 114 96
160 115 103
161 116 109
165 118 108
160 115 101
164 117 112
161 116 109
160 115 108
161 116 107
160 115 107
162 117 109
158 114 105
161 116 110
161 116 113
160 114 106
161 115 104
159 114 104
159 113 101
159 113 105
157 111 96
158 112 104
158 112 102
157 111 94
153 109 96
134 87 72
108 56 26
111 58 28
117 62 30
118 63 29
120 67 34
126 70 33
122 67 34
124 70 31
125 72 34
126 73 35
128 74 35
131 75 36
132 77 42
130 77 38
132 76 37
133 77 39
132 77 40
132 79 41
133 79 40
136 82 42
136 81 39
139 87 44
143 94 52
143 98 56
150 106 61
157 122 73
162 129 77
164 133 80
172 147 91
172 146 88
181 162 100
178 159 97
184 168 103
187 171 107
188 174 106
190 177 110
191 178 110
193 180 113
192 179 111
193 180 112
191 179 110
193 180 113
192 179 112
192 179 112
192 179 112
190 178 109
192 179 112
191 179 110
192 179 112
192 179 112
191 178 110
190 178 109
192 179 110
192 179 112
191 178 109
191 179 110
191 179 110
192 179 112
190 178 109
192 179 110
189 177 108
191 178 109
192 179 110
193 179 111
192 179 110
191 178 110
190 178 109
193 180 113
191 179 111
192 179 110
192 179 110
191 178 109
191 179 110
193 180 112
191 178 109
192 179 110
192 179 110
192 179 111
192 179 110
191 178 109
192 179 110
192 179 110
191 178 110
192 179 111
192 179 111
193 180 112
192 179 110
192 179 110
191 179 109
191 179 110
192 179 111
193 179 111
192 179 111
192 179 110
192 179 110
192 179 110
194 180 113
192 179 110
192 179 111
192 179 109
192 179 110
191 178 108
191 178 109
190 178 108
192 179 110
192 178 109
191 178 109
191 178 107
191 178 108
191 178 108
191 179 110
191 178 109
191 178 109
191 178 107
192 179 110
190 178 106
192 179 109
191 178 108
190 178 107
190 178 108
191 178 109
194 180 113
191 178 109
191 178 107
192 179 109
191 178 108
190 177 106
192 179 109
191 178 107
192 179 109
167 184 175
167 183 180
164 181 168
174 192 181
172 190 175
175 192 188
169 187 169
171 188 181
167 185 166
176 192 192
176 194 188
171 189 169
169 187 169
169 187 174
169 187 177
172 189 181
168 186 161
176 194 188
170 189 163
175 193 184
177 195 184
174 192 177
172 191 171
175 192 181
173 191 172
175 193 183
175 194 184
172 189 169
177 194 184
174 192 180
173 192 174
175 194 178
174 193 174
172 190 178
175 193 180
177 194 190
175 192 186
172 189 161
180 197 194
174 192 177
176 194 183
177 194 186
176 194 181
175 193 180
174 193 188
176 192 175
175 194 180
175 193 180
175 194 178
178 196 192
180 199 203
179 196 188
175 193 184
176 194 180
170 189 172
177 195 187
176 194 180
174 193 184
176 194 184
179 197 191
175 192 184
173 192 184
177 195 186
173 189 167
173 191 172
173 192 174
175 192 179
176 193 190
177 194 184
174 191 176
175 193 177
174 191 177
178 196 191
174 190 178
175 189 185
173 189 175
172 188 177
174 189 183
173 190 182
174 188 182
174 188 186
173 187 186
176 191 188
172 186 182
167 176 167
173 186 183
168 181 167
171 182 182
169 183 173
171 182 181
171 183 169
170 178 176
163 171 157
173 184 181
168 176 170
166 173 163
167 174 161
167 177 176
160 161 156
159 159 154
151 152 130
158 156 154
155 153 156
155 152 147
153 148 143
153 143 132
152 147 145
148 141 138
143 131 131
144 127 120
146 131 133
142 127 117
141 121 119
138 120 115
139 119 121
132 106 100
133 112 112
127 103 99
128 100 98
128 101 100
122 89 93
116 87 87
114 81 80
116 82 83
115 82 83
106 73 70
106 72 75
103 71 71
100 67 65
136 97 94
155 113 107
154 111 101
158 114 109
158 114 106
155 113 101
155 113 104
161 117 112
159 115 109
156 114 94
157 114 103
158 114 107
157 114 106
160 116 109
161 116 108
158 114 102
160 116 108
159 115 100
160 116 103
162 117 110
160 116 105
162 118 111
158 114 102
160 116 100
159 115 104
156 112 100
161 117 104
163 118 110
164 118 114
159 115 109
161 115 105
161 116 103
160 116 105
161 117 111
161 116 111
160 116 102
160 115 104
161 117 108
160 115 105
158 115 100
163 117 109
158 114 104
161 116 108
164 118 113
162 117 113
162 117 109
161 116 108
162 118 113
163 118 112
162 117 109
161 116 104
159 116 102
161 117 106
160 116 101
163 118 115
160 116 104
159 115 102
162 117 108
160 116 104
158 115 100
166 119 116
161 117 108
161 117 109
161 116 107
158 115 103
161 117 103
162 117 113
161 117 104
161 117 104
162 117 106
163 118 106
159 115 102
162 117 112
161 116 107
158 115 103
163 117 105
162 117 109
159 115 103
161 116 103
159 116 100
159 115 102
162 117 106
159 116 104
160 116 101
161 116 105
162 117 111
161 117 106
161 117 106
161 116 105
161 117 113
162 117 106
160 116 103
161 117 105
159 116 101
163 118 110
163 117 108
162 117 110
161 116 104
162 117 104
161 116 108
161 117 107
160 114 103
161 117 108
159 114 104
166 119 116
158 114 102
163 116 108
160 114 104
164 118 114
161 115 103
162 117 112
158 113 99
157 114 102
163 118 109
162 117 112
161 116 108
160 115 106
159 113 105
160 114 105
161 115 108
157 111 102
159 114 101
157 111 97
157 111 103
145 97 88
105 54 25
109 56 25
115 62 28
113 60 28
119 62 27
121 67 31
120 66 31
118 64 27
119 64 25
124 71 32
124 70 32
129 75 36
129 74 36
131 77 37
132 78 38
130 75 36
131 77 35
133 79 38
138 84 42
135 82 40
136 82 41
140 89 48
140 90 48
142 94 51
153 111 66
154 117 68
162 130 76
169 142 86
172 149 90
176 153 91
176 155 94
183 166 101
185 170 103
187 172 107
188 174 106
191 178 109
192 179 111
189 177 107
191 178 109
192 179 110
191 179 110
191 178 109
193 179 111
191 178 109
190 178 109
191 178 109
190 178 107
190 178 108
190 178 106
190 177 106
192 179 110
191 178 109
189 177 106
190 178 108
192 179 111
190 177 106
189 177 106
191 178 109
191 178 110
189 177 106
192 179 111
192 179 109
192 179 109
189 177 105
192 179 109
191 178 108
188 176 105
191 179 109
190 177 106
192 179 110
193 179 111
192 179 110
190 177 107
190 177 107
187 175 103
193 179 110
191 178 109
189 177 106
191 178 108
189 177 105
189 177 106
192 179 109
192 179 109
189 177 106
193 180 112
192 179 109
192 179 110
192 179 110
191 178 108
192 179 110
192 179 109
192 179 109
190 177 106
192 179 110
191 178 107
190 177 106
191 178 109
191 178 108
191 178 108
191 178 108
190 178 107
192 179 109
191 178 108
191 178 109
193 179 109
191 178 108
190 178 108
192 179 109
192 179 109
193 180 111
190 177 106
189 177 105
191 178 106
191 178 108
193 180 112
190 178 106
191 178 107
188 176 103
189 177 106
189 177 104
186 175 100
189 176 103
190 177 106
190 177 104
189 177 104
189 176 102
190 177 106
190 178 106
188 176 104
190 178 107
168 184 165
168 186 165
173 190 183
166 184 166
169 187 171
164 181 165
168 185 175
171 188 175
167 185 169
173 191 175
170 187 171
175 192 194
176 194 188
175 193 174
173 190 172
171 187 174
170 188 171
173 191 169
169 187 174
174 192 178
173 191 181
171 190 166
177 195 186
172 190 177
171 188 174
168 186 158
170 189 166
174 192 175
174 192 180
173 191 171
175 193 177
167 185 175
176 194 184
171 191 169
174 192 172
174 192 172
173 191 165
178 195 188
175 192 177
173 191 172
173 191 171
170 187 165
177 194 186
175 193 187
176 193 180
177 196 186
171 188 168
176 194 178
174 194 180
173 192 175
175 193 177
176 194 183
174 193 174
175 193 183
176 194 181
177 195 181
174 193 180
175 193 178
173 191 172
173 191 180
173 192 175
177 194 186
174 192 183
175 192 177
175 192 171
175 193 175
175 193 180
173 189 173
172 188 167
177 195 188
178 195 191
175 193 179
173 190 177
173 189 172
174 191 180
170 186 172
174 191 184
171 187 174
173 190 176
174 191 178
172 190 175
170 186 166
169 185 165
172 184 179
168 180 168
170 185 171
169 183 171
173 186 182
169 182 175
174 184 184
167 177 160
165 174 163
168 176 166
167 174 161
162 168 159
165 172 157
163 169 156
163 167 158
156 157 146
154 148 135
156 158 150
156 157 142
153 148 133
149 143 131
155 151 138
144 138 131
151 141 133
151 141 131
152 146 143
144 133 131
146 126 128
141 124 119
132 107 99
138 120 123
133 113 104
136 115 114
129 102 95
127 102 98
123 91 94
127 94 93
126 98 92
115 86 84
116 82 73
117 88 88
108 76 73
111 79 73
106 74 74
106 71 73
102 71 70
131 92 82
150 108 94
151 110 100
154 112 101
153 111 103
156 113 101
155 113 98
154 112 104
159 115 106
163 118 113
159 114 110
162 116 114
161 116 108
157 114 102
157 114 104
156 113 105
161 116 109
160 116 107
161 117 111
160 117 108
160 116 112
160 116 108
158 114 100
160 116 106
159 115 97
161 117 107
159 116 108
159 115 102
161 117 101
160 116 105
160 116 111
160 116 102
160 116 108
158 114 99
162 117 112
157 115 103
161 116 103
161 116 105
160 116 104
158 114 102
160 116 107
161 117 110
159 116 102
160 115 104
158 115 103
161 117 108
162 116 106
159 115 102
165 119 118
162 116 103
160 116 103
163 118 112
160 116 106
163 118 109
158 114 104
163 118 111
162 117 109
160 115 109
162 117 107
165 118 107
159 116 103
162 117 113
161 117 109
161 116 107
159 115 103
162 117 116
161 117 112
161 116 105
163 118 109
164 119 113
159 116 106
160 117 111
163 118 108
160 116 105
161 116 109
161 117 106
162 117 105
160 116 103
158 114 98
160 116 102
161 117 110
161 116 105
160 115 103
159 115 104
161 117 106
159 116 100
160 117 107
162 118 109
157 113 90
161 116 106
164 118 113
161 116 103
164 118 112
161 116 105
162 116 106
158 114 98
158 113 96
158 115 98
162 117 105
157 114 101
159 114 105
158 115 105
159 115 104
160 114 105
159 115 104
156 112 97
160 116 107
157 113 99
158 113 102
159 114 104
160 115 105
163 117 106
159 114 107
156 113 97
158 113 101
160 115 108
158 113 106
160 114 106
159 114 106
158 113 102
157 112 103
158 113 99
157 111 97
152 107 90
141 95 83
106 56 25
103 49 20
116 61 26
114 60 26
114 60 27
116 62 25
126 70 34
123 69 34
123 66 29
124 70 33
127 71 32
131 75 36
125 71 34
131 75 37
132 78 39
135 80 41
133 79 40
133 79 41
135 79 38
135 81 37
137 82 42
138 85 48
142 92 49
145 95 52
146 104 58
155 120 68
164 132 80
165 137 81
167 141 80
172 150 87
179 159 94
182 167 97
183 165 100
186 172 101
185 172 99
188 175 104
190 177 106
190 177 106
189 177 106
190 177 106
191 178 108
189 177 104
191 178 107
191 178 107
189 177 106
188 176 104
189 176 104
188 175 101
190 178 108
189 177 107
190 177 106
190 178 106
189 176 103
189 177 105
190 178 108
191 178 106
189 177 105
191 178 107
189 176 104
189 176 104
191 178 107
191 178 108
189 177 105
189 177 104
189 177 105
190 178 107
191 177 107
190 177 104
191 178 108
190 177 106
190 178 106
187 175 101
191 178 107
191 178 106
191 178 108
189 176 103
191 178 108
192 179 109
190 177 105
190 177 103
187 175 100
189 177 104
189 177 104
189 177 104
191 178 107
191 178 107
188 176 103
189 176 101
189 176 103
189 177 104
191 178 108
191 178 106
189 177 104
193 179 109
188 176 104
190 177 106
191 178 106
190 178 106
189 176 103
189 177 106
190 177 105
188 176 102
191 178 108
194 180 111
190 177 105
189 176 103
192 179 109
187 175 101
191 178 108
188 176 103
188 176 102
190 178 106
188 176 102
190 177 104
189 176 104
191 178 108
190 177 106
190 177 106
190 177 104
189 177 105
189 176 103
189 176 104
190 177 105
189 177 105
188 176 101
192 178 108
188 176 103
190 177 104
189 176 101
188 176 103
171 189 172
169 186 163
168 186 178
167 184 163
167 184 168
176 193 178
165 183 163
174 192 180
171 189 165
170 188 172
168 187 163
175 192 183
172 190 172
172 190 169
170 188 166
171 188 174
174 192 181
173 191 175
171 188 177
172 189 172
172 190 183
173 190 172
172 189 169
173 192 178
171 189 169
175 194 180
171 189 172
172 189 166
175 193 178
177 194 186
173 190 181
170 187 156
172 191 177
174 192 177
173 190 177
178 195 188
172 191 177
175 193 177
176 194 188
173 192 168
172 189 177
175 193 174
174 193 184
169 188 160
174 193 178
175 194 174
176 194 184
175 192 171
173 191 166
176 195 187
178 197 192
172 189 166
175 193 181
174 192 175
177 194 180
172 191 165
171 190 171
177 195 186
172 190 168
178 196 186
173 191 174
176 193 178
174 191 182
176 193 180
172 190 168
174 192 174
173 188 170
172 188 173
174 191 175
173 190 168
172 189 172
176 193 183
174 191 180
173 189 172
174 190 175
175 192 176
173 188 174
172 188 166
169 185 156
171 188 174
171 186 177
166 179 164
170 184 169
172 187 181
172 184 171
169 183 171
169 183 170
172 186 176
167 179 163
168 177 162
169 177 170
169 180 173
160 165 144
165 173 158
162 168 152
163 166 157
165 172 162
165 169 163
161 163 149
158 155 145
160 161 153
159 157 154
158 160 149
156 157 151
158 156 150
143 128 111
144 130 122
143 132 119
145 133 123
150 140 131
144 128 123
144 132 123
139 125 121
135 114 113
130 108 108
136 114 112
131 108 101
128 101 96
123 93 87
124 95 98
121 92 89
120 92 93
114 84 82
115 81 77
115 79 74
101 70 64
104 69 63
90 64 60
102 68 59
138 98 90
154 112 103
153 110 99
156 112 105
152 111 101
156 113 103
156 113 104
158 114 102
152 110 97
159 115 103
156 113 103
159 114 110
158 114 102
158 114 106
161 115 107
159 114 110
159 115 108
163 117 114
158 115 105
159 115 103
162 117 113
161 116 103
160 115 108
161 117 107
159 114 105
158 115 100
163 118 113
161 117 110
161 117 108
156 113 98
162 117 114
159 115 105
162 117 106
160 116 103
159 115 103
159 115 103
159 116 106
160 116 107
163 118 107
157 113 98
160 115 101
161 117 110
161 116 108
160 116 104
159 116 103
162 117 106
164 119 113
158 115 99
160 116 104
158 115 101
157 115 98
160 116 101
159 114 100
163 118 110
164 118 114
159 116 104
159 115 103
158 115 100
161 117 104
162 117 111
161 116 108
163 118 111
162 117 107
155 112 94
162 117 107
159 116 101
162 117 104
158 114 100
156 113 100
156 114 101
160 116 102
163 117 112
161 116 108
162 117 107
163 118 109
161 117 110
163 118 111
161 116 108
158 115 107
163 118 106
161 116 107
164 118 108
161 116 108
158 114 109
157 114 96
163 118 112
162 117 113
160 116 106
161 116 113
160 115 105
160 115 104
158 115 104
159 115 101
161 117 104
162 116 104
163 118 117
160 115 102
159 116 102
158 115 100
161 116 110
158 114 102
162 116 106
162 117 108
156 113 91
162 116 106
158 114 107
158 113 97
161 116 108
161 116 104
158 114 103
157 113 103
162 117 108
161 116 104
157 113 101
157 111 98
157 112 98
159 113 104
158 113 104
158 113 103
156 110 93
158 113 101
158 112 101
155 109 98
155 109 93
145 99 84
103 54 24
105 54 23
112 58 27
112 58 25
119 65 30
117 63 30
118 63 27
119 66 30
121 67 29
126 72 33
125 71 33
126 71 35
132 76 36
131 75 36
133 78 38
131 78 39
135 80 38
131 78 38
133 79 37
133 80 40
137 82 41
138 82 39
143 90 49
141 94 49
149 103 56
150 111 62
160 126 73
167 140 81
168 139 81
176 154 91
174 155 88
179 161 92
181 163 96
186 171 101
185 172 99
186 171 100
188 175 102
186 174 99
187 175 101
189 176 103
190 177 106
190 177 104
188 176 101
192 179 109
191 178 106
188 176 101
189 177 104
188 175 101
190 177 104
189 176 103
187 175 99
188 176 102
190 177 105
190 177 104
184 173 95
189 177 104
188 176 103
187 176 102
190 177 105
186 175 99
188 176 103
186 174 98
188 175 101
185 173 97
187 175 102
187 175 100
190 177 104
187 175 100
190 177 105
189 177 104
187 175 100
184 173 95
190 177 104
186 174 100
188 176 101
189 176 103
188 176 101
189 176 102
189 176 103
190 177 105
186 174 98
188 176 101
186 175 99
189 176 103
189 177 104
189 177 104
189 177 104
189 177 104
189 176 103
188 176 102
189 176 102
189 177 103
190 177 105
186 174 100
186 174 99
189 176 103
190 177 104
185 174 97
190 177 104
190 177 106
189 176 103
184 173 94
187 175 99
186 174 99
187 175 99
191 178 107
189 177 103
187 175 100
190 178 106
187 175 99
188 176 102
187 175 99
192 178 107
191 178 107
188 175 101
189 176 101
184 173 94
188 176 102
190 177 104
190 177 105
189 176 103
187 175 99
190 177 104
188 176 101
186 174 99
187 175 101
189 176 103
188 176 101
186 174 97
187 175 101
175 192 177
172 190 175
172 190 175
174 192 181
166 184 163
170 188 168
174 191 178
173 190 174
168 186 166
170 188 166
171 188 180
169 187 168
175 193 187
170 188 166
168 187 161
166 184 165
175 193 186
171 189 165
167 184 166
172 189 186
171 189 177
172 190 171
174 192 175
172 190 169
170 188 165
176 194 177
173 191 169
178 195 192
174 192 163
171 189 169
175 193 180
175 194 175
175 193 180
173 191 171
171 189 163
175 193 175
177 195 180
171 187 165
170 188 165
171 189 168
174 193 180
174 192 180
177 194 181
174 192 168
172 189 168
174 192 172
173 191 171
173 192 172
178 196 184
177 195 183
175 193 183
173 191 169
170 188 163
175 192 180
173 192 177
179 195 181
175 193 174
177 194 180
176 194 184
173 190 169
171 189 158
171 188 171
172 191 169
172 190 168
172 188 166
172 190 165
173 190 174
171 188 162
176 192 183
175 193 184
171 186 162
175 190 169
168 185 157
171 187 163
175 191 176
174 190 176
173 191 173
172 187 176
168 181 168
171 187 164
170 185 165
168 180 164
165 181 161
170 183 167
168 180 165
165 176 155
170 182 168
168 178 166
170 179 175
168 179 169
167 177 163
154 157 127
164 172 158
166 171 167
167 175 168
163 167 161
164 168 160
161 166 142
163 163 163
158 159 146
155 156 134
156 155 145
152 149 140
156 155 148
148 142 128
152 146 141
143 131 118
147 136 124
141 125 115
141 127 119
138 120 101
142 128 124
134 114 107
141 119 114
131 109 104
135 109 102
130 105 100
127 98 88
123 93 87
125 93 83
119 89 83
123 92 86
117 83 77
112 76 66
106 73 68
110 76 69
109 74 73
98 65 62
92 60 53
137 98 86
150 108 96
151 109 102
156 113 100
154 111 97
156 113 104
158 115 105
155 113 91
158 114 107
158 113 106
163 117 110
155 112 107
156 113 99
159 115 102
157 112 99
159 115 98
160 115 102
160 116 110
158 115 101
158 115 103
156 113 95
158 114 106
161 116 106
157 114 95
158 114 96
158 115 108
161 117 107
159 115 113
161 117 109
162 117 107
156 113 94
160 115 99
159 115 104
161 116 107
160 117 104
158 115 103
160 116 106
161 116 105
161 116 106
160 116 108
159 115 106
157 113 100
160 117 103
159 115 104
160 115 106
162 117 112
160 116 105
160 116 102
159 115 99
160 116 98
162 117 108
161 117 100
163 117 107
163 118 113
158 115 99
160 116 107
161 116 107
161 116 105
160 116 103
166 119 119
161 116 103
162 117 108
162 117 107
161 117 103
160 115 102
157 114 95
159 115 104
158 115 103
161 116 102
159 115 103
162 117 106
163 118 113
160 116 107
160 116 110
157 114 95
162 118 113
160 116 104
164 118 112
161 116 107
160 115 107
158 115 101
161 116 103
160 116 104
159 114 101
162 117 110
156 113 93
161 116 107
161 115 110
160 116 101
162 117 108
162 117 109
163 118 112
160 116 110
161 116 104
158 114 96
160 116 103
162 117 109
160 115 105
161 117 106
161 116 107
162 117 105
161 115 103
159 115 102
159 116 102
163 117 108
158 114 99
160 115 103
160 115 106
159 114 103
156 112 99
157 113 99
159 114 105
156 112 103
155 111 91
156 112 96
156 113 105
158 113 104
157 114 105
156 111 95
157 113 102
156 111 98
158 113 105
157 111 97
156 109 92
131 86 65
104 51 18
108 54 21
109 56 24
115 61 30
116 62 27
115 62 27
114 62 24
122 67 29
118 65 29
125 69 31
123 72 32
124 70 32
130 76 34
130 76 37
133 78 39
129 76 34
130 77 35
134 80 41
133 80 40
134 80 38
137 82 40
137 82 41
138 86 42
143 95 50
152 111 63
154 118 63
156 122 67
159 129 68
167 140 76
171 149 81
177 157 88
174 157 85
182 165 95
182 169 91
185 171 97
181 168 94
184 172 95
187 175 99
188 176 102
186 174 98
186 175 99
188 176 101
188 176 101
184 173 93
186 174 97
186 174 98
187 175 98
186 174 97
186 174 98
186 174 99
186 174 97
182 172 93
189 177 104
184 173 94
187 174 100
188 176 101
187 175 99
185 173 96
187 175 99
182 172 91
184 172 95
189 176 103
187 175 101
183 172 92
189 177 103
183 172 95
185 173 96
186 174 98
187 175 99
186 174 97
186 174 98
186 174 99
185 173 95
185 174 96
185 173 95
186 174 98
184 173 94
188 175 99
186 174 98
186 174 97
188 175 101
185 174 97
190 177 104
187 174 99
185 173 95
186 174 97
184 173 94
188 176 102
186 174 98
188 176 101
188 176 102
185 173 96
187 175 98
187 175 98
188 175 100
186 174 97
187 175 99
189 177 104
187 175 99
188 176 101
187 174 98
185 173 96
190 177 105
185 174 96
186 174 97
189 176 102
189 176 103
188 176 101
188 176 102
188 176 101
190 177 104
185 174 97
186 174 97
188 176 102
186 174 97
186 174 97
188 176 101
187 175 99
187 175 101
187 175 100
185 174 95
186 174 97
189 176 103
191 178 105
188 176 101
184 173 94
189 177 103
188 175 100
184 173 95
186 174 97
165 182 165
165 182 165
163 180 158
170 187 175
174 192 183
170 188 168
168 186 165
163 179 156
172 190 174
169 187 178
171 189 171
169 187 161
173 190 171
169 186 168
168 186 160
169 188 158
173 190 166
173 191 172
170 189 161
172 191 169
173 191 177
173 191 168
175 193 178
172 190 178
172 190 172
169 187 158
173 190 181
170 187 171
173 190 172
177 194 180
175 193 181
171 190 171
173 190 171
173 190 169
175 193 177
170 189 160
174 191 177
174 192 174
170 188 163
173 191 168
174 192 168
176 194 177
170 187 160
173 192 168
171 189 168
173 191 174
176 193 174
173 190 166
173 191 172
170 188 155
175 193 174
174 192 172
173 191 168
170 188 165
175 193 178
168 185 155
174 192 171
176 193 174
172 190 166
172 189 168
174 192 166
173 190 171
175 192 176
172 190 161
173 191 163
174 189 171
168 185 150
174 191 169
173 190 173
169 185 162
175 190 173
172 189 160
176 192 182
170 188 171
172 189 166
169 183 158
174 192 175
170 185 166
173 189 169
171 186 172
173 188 174
173 188 178
171 186 170
168 179 164
169 181 165
167 179 154
170 182 169
167 180 163
166 174 162
160 168 143
167 177 160
163 172 150
168 179 165
160 166 131
165 172 152
161 168 145
161 166 154
158 163 141
162 169 157
159 158 155
154 149 132
150 141 136
153 150 128
149 142 122
155 154 140
153 147 138
148 135 127
140 131 105
143 128 115
141 124 113
141 126 114
139 120 110
132 117 100
136 119 104
133 108 97
126 100 97
121 92 86
126 100 88
123 93 84
121 91 74
116 84 73
115 82 74
113 80 75
110 74 72
106 74 66
106 74 64
102 69 63
100 68 62
97 63 57
134 94 84
151 109 97
151 108 98
157 112 103
154 112 98
155 112 100
156 113 97
157 114 103
156 113 102
157 114 103
160 115 105
161 116 102
155 112 98
162 118 110
157 113 99
156 113 97
157 114 99
161 117 107
156 113 101
160 116 107
161 116 107
159 115 107
159 115 109
157 114 101
161 117 109
154 112 91
160 115 103
163 117 105
161 116 107
159 115 100
160 116 105
158 114 102
163 118 110
161 117 116
162 117 107
161 117 106
160 116 104
161 116 110
163 118 114
158 114 98
158 115 101
159 116 101
158 114 97
161 116 104
161 117 103
163 117 108
158 115 103
159 116 102
159 116 104
161 117 110
161 116 106
165 119 118
161 117 103
158 116 103
163 118 113
158 115 97
163 117 111
157 113 102
159 115 105
159 116 103
159 115 98
161 117 108
157 114 95
158 115 102
159 116 103
160 117 107
164 118 113
159 115 107
162 117 104
159 115 102
161 117 104
160 116 103
161 116 103
163 118 111
159 116 102
159 116 102
161 117 111
159 114 104
162 117 108
158 114 98
162 116 106
157 114 102
156 114 97
163 117 111
160 115 103
158 114 102
158 115 103
160 116 104
161 117 111
160 115 106
161 116 108
161 116 109
158 115 103
161 117 106
159 116 103
160 116 105
160 116 103
161 117 109
160 116 105
158 114 97
157 113 102
160 115 103
159 115 98
155 112 97
159 115 99
163 117 112
158 113 100
158 115 106
160 115 104
163 117 105
159 115 105
161 116 110
157 112 94
158 114 102
161 115 106
159 114 101
157 112 98
157 112 99
158 112 99
155 109 85
158 113 100
154 111 96
153 107 89
151 106 91
139 91 81
99 47 17
107 54 21
110 56 24
111 59 21
115 59 23
120 66 27
118 63 26
122 68 30
121 67 29
123 68 31
125 70 32
124 68 28
128 74 36
127 75 35
128 74 35
131 78 37
128 75 35
132 77 36
131 77 36
134 80 39
133 79 36
138 84 41
138 88 45
141 96 46
142 99 47
153 113 60
159 124 71
162 133 71
163 137 72
171 147 85
173 155 80
170 150 79
181 164 92
182 170 91
180 167 88
182 171 92
185 173 95
185 174 97
184 173 94
184 173 95
183 172 93
185 173 95
183 172 90
186 174 97
188 176 100
179 169 84
183 172 93
183 172 94
184 172 94
185 173 93
184 172 94
182 171 90
183 172 93
188 175 100
185 173 95
183 172 92
184 173 93
184 173 93
184 173 93
186 174 98
182 171 89
182 171 90
183 172 92
185 173 94
183 172 92
186 174 96
185 174 97
183 172 92
183 172 90
185 173 96
184 172 93
184 173 93
183 172 91
181 170 87
184 173 93
184 173 93
188 175 99
183 172 93
185 174 95
183 172 93
185 173 95
181 170 88
185 173 95
187 175 99
183 172 93
189 176 101
188 175 99
184 173 95
186 174 97
187 175 98
182 171 90
184 173 95
187 175 100
185 173 95
184 172 93
182 171 90
187 175 99
186 174 97
184 173 95
187 175 98
184 173 94
185 174 96
187 175 99
188 175 99
184 173 94
188 175 99
187 175 97
183 171 93
184 173 93
183 172 90
185 174 97
185 173 95
185 173 95
185 173 95
181 171 89
190 177 103
187 175 99
186 174 96
188 175 99
185 174 95
182 171 90
186 174 97
187 175 98
187 175 99
186 174 97
181 171 87
183 172 93
182 171 89
183 173 94
187 175 98
166 183 165
164 182 161
171 188 174
167 186 150
168 185 160
171 188 165
172 190 177
176 194 175
167 185 156
173 191 175
172 190 177
166 183 156
170 187 166
167 185 156
168 186 172
169 187 153
170 188 171
172 190 171
171 190 174
170 188 171
172 190 160
173 191 174
171 189 171
170 188 165
172 190 168
164 183 144
169 186 165
170 188 161
172 190 166
174 191 175
175 193 172
170 187 158
170 189 165
171 189 160
172 190 153
176 193 183
173 191 166
169 187 158
173 190 169
175 193 166
173 192 168
172 190 171
173 191 169
176 194 180
176 193 178
174 193 172
171 189 161
174 192 169
173 191 180
176 195 181
170 188 151
172 190 169
175 192 171
178 195 184
175 193 180
174 192 168
173 191 171
173 189 172
168 185 153
172 189 166
171 189 163
174 192 171
171 188 156
173 190 172
171 187 163
172 190 163
176 192 170
171 188 166
175 192 178
170 187 163
171 188 156
171 188 164
170 187 160
171 186 169
172 188 170
178 193 184
172 188 164
171 186 168
171 188 167
172 186 167
168 182 149
165 178 152
166 178 163
169 181 164
169 182 162
169 182 163
164 173 148
168 180 158
169 180 164
166 177 150
160 168 136
161 166 134
165 173 150
163 169 148
159 165 141
162 171 151
159 164 138
160 164 151
155 157 131
151 150 128
156 157 136
154 151 131
151 150 128
152 146 121
145 138 126
147 137 111
151 140 131
144 135 119
145 136 116
142 131 119
138 124 100
137 121 111
134 115 100
139 120 107
132 115 104
127 103 93
138 112 101
126 95 87
121 89 79
120 94 93
121 89 82
122 90 84
112 74 69
109 77 61
109 73 63
99 69 66
95 66 54
103 68 62
93 61 52
123 87 77
149 107 99
151 109 98
157 114 98
154 111 97
153 110 99
158 114 108
153 111 97
154 111 96
157 113 103
155 112 101
158 115 108
160 115 106
159 115 106
157 114 99
157 114 97
158 114 102
158 115 107
159 115 103
159 115 105
158 114 103
161 116 103
159 114 101
160 116 103
161 116 103
158 115 104
157 114 103
159 115 103
162 116 106
158 116 106
157 114 102
158 114 101
159 116 102
158 114 100
160 116 104
161 116 103
158 115 100
159 116 103
157 114 101
160 116 102
161 116 111
159 116 107
158 115 101
160 117 103
159 114 98
159 115 98
159 115 105
163 117 111
159 114 103
155 113 97
159 115 99
161 117 108
161 117 103
158 114 97
161 116 110
162 117 113
161 117 104
161 117 105
160 116 105
161 116 103
161 117 103
161 116 105
162 117 108
162 117 112
162 117 108
163 117 112
161 117 113
161 115 107
162 117 109
160 116 100
162 117 104
163 117 113
161 116 107
158 115 103
163 118 111
158 115 100
164 119 111
161 116 107
158 115 102
161 117 103
159 115 106
160 116 106
160 116 103
162 117 109
160 116 106
161 116 107
160 115 103
161 116 106
159 114 106
158 114 102
161 116 107
158 114 97
158 114 98
160 117 105
159 114 101
158 114 101
160 115 102
160 115 103
160 115 105
157 113 98
160 116 108
160 115 99
159 115 104
160 115 102
161 117 107
158 114 100
163 118 113
158 113 100
155 113 94
163 116 106
162 115 105
155 111 91
155 112 87
157 112 98
159 114 105
155 110 100
158 114 104
158 113 98
157 112 97
159 113 102
155 109 96
157 111 97
152 108 87
151 105 86
143 94 80
93 43 17
107 54 23
108 55 19
109 57 21
117 63 23
112 58 26
118 63 25
115 62 26
120 66 26
121 68 30
125 71 31
125 70 29
128 74 31
130 75 36
129 74 35
131 76 35
130 77 36
134 80 38
136 81 41
132 79 38
134 81 40
136 82 41
140 88 41
139 91 42
148 104 53
143 103 50
154 125 60
161 134 70
158 136 62
164 140 70
161 142 66
171 152 78
177 163 84
176 163 80
175 162 79
178 168 83
179 168 84
178 168 82
182 170 88
177 167 80
181 170 87
179 169 84
181 171 89
182 171 90
180 170 87
176 167 79
178 169 85
176 167 79
179 169 83
182 171 90
181 170 87
181 170 87
180 170 86
182 172 90
181 170 87
182 171 89
179 169 87
182 171 89
181 171 87
183 172 93
179 169 84
178 169 84
181 170 87
182 171 91
186 174 96
181 171 87
182 171 89
184 172 93
185 173 94
183 172 93
183 172 93
182 171 87
182 171 90
185 173 94
181 170 87
184 173 93
182 171 90
179 169 84
185 174 96
179 170 85
182 171 89
185 173 95
183 172 91
183 172 91
185 173 95
181 170 87
185 174 96
185 173 95
182 172 90
182 171 89
185 173 93
183 172 90
182 171 89
181 171 88
184 173 93
184 172 93
183 172 92
185 173 93
186 174 96
183 172 91
183 172 92
184 173 94
181 170 88
184 173 93
184 173 95
186 173 95
186 174 95
184 173 95
186 174 97
184 173 93
182 171 89
183 172 90
180 170 87
184 172 92
186 174 95
183 172 91
184 173 93
185 173 95
181 171 87
184 173 93
180 170 87
182 171 90
186 174 97
186 174 97
186 174 95
185 173 95
180 170 85
186 173 96
187 175 97
184 173 94
161 179 153
167 185 166
165 183 165
169 186 174
165 182 160
172 190 165
166 183 160
164 180 160
172 189 171
170 188 156
160 177 155
172 189 165
170 187 166
165 184 151
172 190 166
177 194 177
169 187 168
173 190 172
173 191 165
172 189 169
170 187 166
175 193 177
172 190 161
168 186 156
174 191 183
174 190 172
170 188 165
174 191 171
169 187 166
165 184 156
172 190 155
167 185 150
172 190 163
171 189 163
174 191 163
173 191 178
173 190 161
175 193 175
170 187 158
172 190 163
170 187 158
175 193 178
172 189 161
174 193 169
175 193 171
173 191 172
169 186 158
173 191 172
173 191 165
172 191 161
173 192 171
171 189 161
177 194 172
173 191 166
175 193 175
176 192 175
174 191 169
173 191 168
171 189 158
176 193 175
171 187 163
174 191 172
171 188 163
172 190 169
174 192 169
168 184 152
175 192 178
171 188 156
175 191 173
169 185 155
170 186 159
170 186 160
169 184 165
172 187 162
177 193 181
167 183 150
173 189 162
167 181 155
166 181 148
172 186 163
169 182 154
172 186 168
169 182 166
168 183 157
166 179 159
166 177 151
166 179 149
163 171 145
159 169 136
162 172 139
163 172 138
162 174 145
166 172 162
167 178 161
158 161 132
155 158 129
157 161 143
156 157 131
156 156 131
160 165 139
154 154 128
158 161 146
147 143 118
153 153 138
148 146 128
145 137 114
143 135 118
140 127 105
144 132 116
143 135 113
145 135 114
140 124 113
130 108 92
133 110 93
126 105 82
124 103 90
126 102 86
124 101 84
123 99 86
121 89 71
108 80 57
108 74 63
112 84 70
113 79 60
104 72 66
101 68 50
102 68 58
100 66 61
88 56 44
128 89 76
154 111 101
155 112 102
151 109 95
153 110 99
153 112 97
160 117 108
158 115 101
159 115 105
156 112 99
158 115 98
158 115 106
163 118 113
158 115 95
158 114 103
157 113 102
153 111 97
157 114 107
160 116 106
163 116 108
156 112 99
156 113 92
156 112 100
159 116 101
158 115 103
161 116 108
161 116 109
157 113 92
160 115 108
155 113 91
158 115 109
160 115 103
161 117 105
161 116 104
161 116 107
161 117 106
161 117 104
159 115 99
161 116 105
159 115 101
160 116 107
159 116 106
158 115 106
158 115 98
159 115 100
160 116 109
159 115 106
158 115 104
160 115 107
158 114 96
159 116 104
160 116 109
159 115 104
160 116 106
160 116 105
163 118 110
158 114 96
162 118 110
159 115 98
161 116 108
162 116 108
160 116 103
163 117 107
157 113 98
159 116 102
161 117 110
157 114 96
159 115 103
161 116 103
163 117 112
163 117 109
161 117 109
162 117 110
160 115 105
161 116 101
161 116 103
160 115 102
159 115 101
158 114 100
162 116 105
158 115 102
160 115 103
158 114 98
161 116 106
158 114 105
161 117 106
160 115 107
160 116 101
161 115 100
161 116 104
162 117 107
158 114 101
164 117 107
159 115 102
159 115 106
158 114 98
160 115 101
160 115 105
159 115 105
161 117 106
159 114 95
160 115 106
162 116 103
155 112 94
159 114 106
159 114 98
160 116 106
158 114 95
159 114 105
154 112 91
158 113 107
157 112 94
161 117 105
160 114 104
157 112 101
160 115 102
156 112 100
158 112 95
156 111 98
156 111 101
155 109 94
157 112 97
154 109 89
149 104 79
131 84 70
101 52 21
103 51 20
110 56 23
109 56 21
111 59 26
119 65 29
112 62 25
117 64 27
118 65 28
120 65 28
125 71 33
129 74 34
126 72 33
126 73 31
127 73 33
128 75 32
131 77 36
132 78 34
133 78 37
133 80 38
131 78 36
136 83 38
137 87 39
140 92 43
142 103 45
151 116 55
154 124 57
158 131 63
164 137 69
160 141 63
164 143 66
173 159 76
168 154 67
182 170 89
177 165 81
175 166 78
179 168 85
180 170 87
175 166 75
176 167 79
178 168 81
176 167 76
180 170 86
179 169 84
174 165 72
179 169 84
178 168 82
180 170 87
181 170 87
179 169 85
179 169 84
180 169 84
176 166 79
181 170 86
183 172 90
185 173 93
180 170 83
177 168 78
181 171 88
179 168 82
180 170 86
173 165 73
179 169 84
177 167 79
180 169 84
178 168 80
183 172 90
179 169 84
179 169 82
179 169 83
179 169 83
180 170 84
180 170 87
184 172 92
181 171 88
181 170 87
180 170 85
178 169 84
180 170 84
178 169 83
185 173 94
181 171 88
179 169 84
181 170 87
177 168 82
184 172 91
179 169 83
182 171 88
181 170 86
183 172 92
181 170 87
182 171 87
178 168 81
182 171 89
177 167 80
180 169 85
179 169 84
184 172 91
181 171 88
180 170 87
186 174 95
183 172 90
180 170 85
181 171 88
184 173 94
179 169 83
179 169 84
185 173 94
181 171 87
182 171 87
185 173 93
184 172 93
185 173 93
178 169 84
179 169 84
183 172 90
179 169 83
184 173 94
182 171 90
178 168 81
184 172 91
184 173 92
181 170 87
182 171 89
184 173 93
181 170 87
184 173 93
186 174 96
182 171 90
185 173 94
167 184 161
170 187 171
166 184 158
165 183 151
174 192 175
168 185 160
162 180 148
161 178 146
168 186 165
170 188 158
170 187 168
168 186 156
173 190 165
169 186 146
171 189 172
167 184 156
168 185 160
168 187 151
168 186 155
170 188 168
169 186 158
164 182 156
174 192 172
171 189 165
163 181 146
168 186 160
170 188 161
174 192 168
173 190 169
173 189 169
172 190 160
175 192 180
168 187 150
172 190 169
168 186 151
175 194 174
172 189 158
175 192 174
169 187 161
173 191 163
176 193 175
172 190 156
169 187 161
171 189 161
178 195 181
173 191 165
174 192 169
175 192 168
176 193 171
175 193 172
172 189 158
171 189 166
173 190 165
170 187 146
173 191 172
170 187 160
174 191 172
174 191 168
171 188 169
172 188 165
172 189 168
173 190 168
176 194 177
172 189 165
171 188 167
172 188 174
175 192 163
174 191 165
171 187 162
170 187 160
169 186 152
172 189 167
171 188 163
167 183 151
169 185 155
170 186 152
172 185 170
170 185 168
163 178 144
167 181 152
168 184 152
167 182 157
172 188 168
165 180 156
169 182 155
163 173 144
167 178 154
171 182 168
167 178 153
165 175 148
163 170 157
164 170 145
162 166 148
157 160 130
159 168 144
159 164 144
157 162 132
155 155 129
157 156 139
155 156 128
151 152 122
157 152 130
153 152 131
153 151 129
148 140 113
145 136 111
140 132 108
139 131 104
139 123 106
141 128 112
140 125 114
137 121 90
133 113 89
135 116 99
128 110 83
129 105 80
124 100 87
124 98 73
117 90 73
120 91 76
121 90 74
113 81 64
110 81 64
106 73 58
102 70 47
97 67 52
94 64 43
94 61 52
105 73 72
122 86 74
150 108 95
151 109 95
152 110 90
151 109 91
152 109 93
155 113 98
154 112 98
158 115 98
155 113 97
154 111 96
161 117 112
161 116 108
158 114 102
158 115 102
156 112 98
159 115 105
157 114 100
160 116 103
159 115 100
154 111 93
157 114 96
162 117 109
157 115 98
161 116 104
160 116 99
154 111 96
160 115 109
157 114 101
161 116 106
159 114 98
158 114 103
156 114 91
160 116 102
158 115 98
160 115 103
159 115 106
157 114 98
161 117 110
160 116 104
163 118 109
161 117 106
159 115 104
161 115 103
159 115 98
158 115 103
160 115 106
159 116 101
160 116 105
163 117 108
159 115 99
163 118 114
159 115 104
162 117 106
161 117 104
161 116 104
160 116 103
160 115 104
158 115 103
157 113 100
158 115 96
158 115 103
160 115 103
162 117 109
160 116 104
160 115 109
161 116 104
161 116 107
160 116 99
161 116 103
159 115 98
160 115 103
158 114 99
162 117 107
164 119 113
160 114 101
161 117 103
162 117 104
159 114 103
163 118 110
160 116 103
159 115 100
157 114 97
155 113 89
161 116 106
162 118 108
161 116 102
160 116 101
159 114 97
160 115 100
163 118 110
160 115 106
158 115 106
161 116 105
158 114 99
160 115 103
160 115 106
156 114 98
156 112 97
164 118 112
157 114 95
163 117 104
161 115 105
159 115 100
155 111 95
160 115 101
161 115 105
159 114 101
157 112 98
160 115 105
160 115 102
160 115 104
159 115 98
154 111 94
156 113 98
154 110 91
157 114 96
155 110 93
159 113 102
156 112 104
152 108 89
156 110 99
159 113 103
153 109 91
131 84 68
103 50 20
99 49 18
115 61 26
115 61 26
111 57 21
118 65 25
120 67 26
114 60 28
119 66 31
121 68 24
126 73 34
125 70 30
127 72 35
126 74 30
130 75 37
130 77 36
129 75 35
129 75 33
131 79 37
134 80 36
134 81 39
132 81 35
134 86 37
141 98 41
140 104 42
149 112 53
150 114 48
148 120 44
157 131 60
162 139 63
164 147 66
167 153 69
167 151 69
166 154 63
173 161 75
173 163 71
174 165 75
176 165 77
173 164 73
173 164 75
173 165 73
174 165 71
171 162 67
174 164 72
174 165 72
176 167 78
175 166 75
171 163 69
178 169 82
174 165 72
177 167 79
175 166 75
176 167 76
173 164 71
178 168 81
179 169 85
174 165 72
171 162 67
174 165 72
176 167 77
172 163 67
176 167 78
176 167 78
177 167 79
176 167 77
176 167 78
175 166 75
177 168 79
175 166 76
178 168 80
176 167 78
176 167 78
178 168 81
179 169 84
179 169 82
177 167 78
184 172 91
177 168 80
177 168 80
178 168 81
178 168 81
181 170 84
177 167 80
178 168 80
180 170 84
180 170 86
180 170 85
179 169 84
179 169 82
181 170 86
181 170 87
175 166 77
178 169 82
179 169 84
175 166 74
180 169 85
175 166 76
179 169 83
181 171 87
182 171 90
183 171 89
176 167 80
186 174 95
184 172 93
179 169 84
179 169 84
183 172 91
180 169 85
180 170 86
181 171 87
179 169 83
184 172 91
183 171 90
180 170 86
180 170 86
181 170 87
185 173 94
182 171 88
179 169 84
182 171 87
182 171 89
181 170 87
180 170 85
179 169 83
180 170 85
180 170 85
181 170 87
181 171 89
183 172 91
182 171 88
168 185 168
167 185 142
164 182 144
168 186 160
167 185 151
166 183 153
167 185 153
171 187 174
166 184 165
166 184 155
174 192 169
171 188 166
164 181 153
169 186 151
170 187 166
172 189 165
167 184 150
171 188 168
172 190 161
171 188 156
172 190 169
170 188 160
167 185 148
172 190 165
170 188 156
174 192 163
173 190 168
173 191 168
171 189 172
174 192 175
174 191 171
169 187 153
168 187 142
173 191 172
165 182 141
168 186 150
169 187 156
168 186 146
168 185 146
167 185 144
172 189 165
173 191 166
172 189 155
171 189 160
170 189 153
169 186 156
172 188 156
172 190 156
167 185 139
175 192 171
171 189 163
172 192 169
172 191 163
172 191 161
171 190 161
172 189 169
170 187 151
172 189 162
175 192 177
170 186 153
174 190 165
173 190 163
168 183 148
169 186 147
170 187 153
172 189 165
171 188 165
168 188 148
167 185 142
168 184 139
173 190 157
165 181 137
165 179 144
175 192 167
168 183 145
172 188 165
170 184 152
171 186 165
167 183 148
164 178 134
167 180 148
163 175 145
172 185 166
163 173 138
168 183 151
162 171 148
164 178 141
167 178 158
161 169 148
163 174 139
160 172 139
161 169 136
161 168 139
163 170 144
160 166 137
159 165 134
156 158 136
154 154 132
153 153 127
151 154 118
154 154 128
148 148 110
148 140 120
146 138 122
144 137 109
151 150 128
143 135 92
141 134 102
139 127 93
138 122 96
137 122 100
140 123 108
129 109 73
126 105 76
127 110 87
123 96 80
123 98 79
128 97 87
119 91 61
116 89 67
117 88 63
114 85 74
116 84 68
106 74 63
114 79 62
102 70 61
104 72 58
93 61 51
95 67 40
127 88 68
149 108 95
149 108 89
156 113 101
155 111 96
158 114 101
154 111 105
157 113 100
157 112 94
157 113 96
155 112 91
158 114 97
157 113 100
158 115 103
158 113 101
161 117 108
156 113 92
157 114 97
158 114 99
158 114 99
159 114 103
160 116 103
155 111 93
159 116 107
156 112 99
158 114 103
159 115 102
158 115 100
158 115 101
159 116 102
160 116 104
162 117 108
159 115 107
158 115 104
159 115 103
156 113 100
155 113 96
161 117 106
159 115 103
158 115 101
156 113 94
158 115 104
162 116 106
156 112 96
159 115 100
159 115 95
157 114 98
162 117 106
161 116 104
158 114 100
158 114 102
162 117 103
157 114 93
164 118 108
161 117 107
162 117 107
159 116 103
159 115 103
159 115 97
157 114 95
161 116 106
159 115 101
159 116 101
159 115 99
158 114 101
161 115 104
161 116 111
157 114 96
161 116 105
159 114 97
157 113 96
163 117 107
165 118 116
159 114 101
159 116 101
161 115 106
157 113 103
160 116 106
161 117 103
164 118 115
160 114 101
160 115 103
158 114 100
158 114 101
162 117 108
162 117 107
159 115 99
160 115 103
159 114 101
159 115 101
158 115 97
158 114 96
161 116 106
160 115 99
160 114 100
164 118 111
156 112 99
158 115 102
160 115 102
159 114 99
158 115 98
156 112 94
158 113 101
158 114 98
160 114 104
159 115 100
159 115 103
157 112 93
160 115 107
159 113 103
155 112 94
162 117 108
156 112 96
159 114 98
157 114 99
155 110 94
160 114 104
155 111 96
159 113 103
157 112 95
155 111 98
155 109 90
155 109 99
153 108 90
127 79 57
105 54 19
105 53 17
111 57 22
115 61 23
112 60 24
115 63 23
119 66 27
116 64 29
119 67 29
122 70 26
124 70 27
122 70 29
125 72 32
124 71 30
125 73 34
129 75 36
125 74 32
127 74 33
133 80 39
133 80 38
131 80 35
137 86 40
134 88 40
140 93 38
144 104 41
142 109 38
146 116 44
153 127 54
151 129 48
160 144 59
161 148 58
164 151 65
162 150 59
167 157 58
172 161 72
169 162 64
173 164 70
167 160 62
171 163 67
171 162 70
168 161 62
171 162 66
169 160 64
170 162 63
174 165 74
168 160 64
168 160 58
173 165 70
177 168 79
172 164 72
176 167 75
174 165 75
169 162 61
171 163 68
176 167 78
170 161 68
174 165 74
174 165 70
170 162 65
173 164 74
174 166 75
175 166 74
176 166 80
177 168 80
176 167 77
172 163 67
170 163 65
173 165 71
176 166 78
171 163 68
175 167 78
173 165 70
172 164 66
172 164 68
175 165 75
176 167 76
179 169 83
175 166 76
173 165 73
173 165 74
175 166 75
175 166 75
179 169 83
175 166 75
174 165 74
176 166 75
177 167 80
177 167 80
175 167 75
176 167 76
178 168 79
174 166 75
179 169 84
177 167 77
179 169 84
178 168 80
177 167 80
177 167 78
179 169 83
179 168 83
179 169 83
176 166 76
178 168 81
177 167 78
177 167 78
180 169 85
180 170 86
177 168 82
180 170 84
179 169 82
177 168 78
178 168 83
179 169 82
177 168 80
177 167 80
181 170 86
182 171 88
180 170 85
180 170 84
179 169 82
183 172 88
181 170 86
176 166 75
180 169 84
182 171 89
179 169 84
180 170 85
179 169 81
182 170 89
180 170 86
168 184 163
162 179 146
166 183 151
168 186 150
169 186 168
170 188 163
169 187 161
169 186 158
165 183 155
170 188 161
168 186 156
170 187 161
165 183 153
168 186 160
168 185 150
168 186 155
170 187 156
173 190 174
169 187 161
171 189 158
171 188 160
166 185 139
164 182 133
171 188 155
168 186 153
169 186 161
168 186 150
172 189 169
169 186 158
169 186 156
169 187 158
169 188 144
173 191 160
168 185 151
167 184 146
174 191 165
170 189 155
171 189 156
168 185 146
170 187 156
169 187 153
171 189 148
171 188 151
174 191 163
167 186 133
172 189 161
173 190 163
171 188 163
173 189 160
171 187 156
172 190 155
169 187 151
173 191 166
175 193 166
173 190 171
175 192 168
169 185 144
175 192 174
171 188 155
172 189 165
168 186 151
170 187 153
168 186 146
169 185 158
171 187 152
172 189 160
174 192 171
169 185 157
172 189 162
171 188 150
172 188 166
176 191 169
169 185 156
170 186 159
167 182 147
169 185 147
169 184 153
168 184 153
165 181 142
163 180 142
164 181 135
164 177 145
167 178 156
162 175 143
168 178 158
161 173 142
160 169 143
161 171 138
160 170 128
162 171 136
157 165 119
161 172 123
157 164 126
160 165 127
156 163 133
150 150 112
157 156 136
155 153 132
154 155 126
155 159 127
152 151 112
146 142 109
154 152 129
152 146 119
146 139 108
146 142 111
136 127 90
140 126 94
143 132 103
139 127 100
138 121 101
130 114 85
133 113 91
132 110 89
130 109 93
131 106 78
130 107 78
122 94 79
119 91 70
117 85 69
120 92 81
114 84 64
110 78 61
106 74 60
108 80 57
101 71 44
95 66 49
100 69 46
91 60 48
122 86 75
148 107 95
153 111 99
144 105 83
154 111 96
154 111 97
155 113 99
157 114 105
156 114 99
160 116 108
156 112 91
158 114 104
159 114 99
160 116 106
157 114 97
158 115 93
156 113 98
155 112 99
159 114 104
157 115 102
161 117 104
159 115 105
164 118 115
155 113 94
160 116 106
159 114 102
158 115 104
158 114 99
157 113 94
157 114 105
164 117 108
161 117 104
161 115 104
162 117 112
161 116 104
162 117 111
157 114 96
158 114 95
160 116 103
162 117 102
161 117 103
160 116 103
160 116 105
158 115 102
157 114 100
161 116 100
161 115 106
159 116 100
159 116 102
160 116 107
160 116 105
157 114 102
159 115 100
160 116 101
158 114 99
158 115 100
158 115 102
163 117 103
160 116 103
160 116 103
160 115 105
156 113 104
161 116 102
160 116 110
156 112 89
162 117 112
158 114 99
159 115 104
163 118 107
158 114 95
162 117 109
159 116 100
160 116 105
157 115 98
159 115 107
159 114 105
160 116 104
164 119 113
160 114 101
160 116 105
160 115 100
158 115 97
158 115 98
157 114 94
156 113 99
160 116 103
157 114 102
161 117 108
157 113 93
158 115 97
163 118 112
157 113 96
159 114 103
162 116 108
158 114 98
161 115 100
156 113 96
158 113 100
159 115 103
158 114 96
160 116 106
158 114 98
159 115 102
161 116 103
159 114 99
155 111 88
161 115 106
158 113 94
157 113 99
154 110 97
159 114 100
157 113 99
155 111 90
158 113 97
160 116 105
154 111 99
160 115 106
157 113 97
157 112 100
156 110 95
151 108 84
155 110 91
154 109 95
155 108 92
116 70 45
97 48 17
104 54 20
104 51 16
108 57 22
116 61 22
112 61 21
112 59 20
120 67 27
120 66 26
123 70 27
120 67 28
120 67 28
127 72 31
126 74 29
120 67 24
128 74 30
127 74 30
127 74 31
135 81 39
131 77 37
135 82 39
135 83 39
136 87 39
140 95 39
144 109 40
142 110 36
144 116 35
150 125 48
155 136 47
158 142 55
159 142 56
163 149 57
162 153 54
164 154 53
165 156 57
164 157 53
165 158 54
171 163 67
162 155 49
164 157 54
169 162 64
165 159 54
169 161 60
171 163 67
163 157 51
170 163 65
167 161 58
166 159 57
165 159 54
166 160 57
168 161 62
171 162 66
169 162 62
170 162 64
168 161 63
174 164 75
169 162 64
172 163 63
168 161 59
171 163 70
168 160 62
170 162 63
164 157 52
167 160 57
171 163 65
172 163 68
171 163 65
170 163 64
169 162 64
167 160 57
171 164 66
176 167 78
176 166 75
170 163 62
167 160 61
174 165 72
169 162 63
174 165 73
171 163 65
172 164 68
171 163 68
176 166 75
175 166 73
171 163 65
174 165 71
172 164 69
174 165 75
178 167 80
173 164 70
174 165 74
172 164 68
173 164 69
172 164 68
175 166 78
174 166 74
177 168 78
179 169 83
176 167 78
172 164 70
174 165 71
177 167 77
175 167 75
177 167 80
176 167 76
171 163 64
173 164 70
177 168 80
176 167 77
177 168 80
174 165 75
176 167 77
179 169 84
178 168 80
178 169 81
181 170 86
174 165 71
178 168 80
175 166 75
178 168 80
176 166 76
176 167 75
176 167 78
178 168 80
180 170 85
181 170 87
180 169 84
180 170 84
180 169 83
180 170 87
177 168 79
170 187 169
169 185 171
165 183 146
169 187 166
167 185 158
166 183 151
170 187 161
166 183 153
168 186 163
166 183 146
165 183 151
173 190 169
164 182 146
166 183 146
160 178 142
166 185 156
169 187 151
168 185 156
171 189 166
167 185 156
164 182 142
168 185 158
165 182 161
171 189 156
171 188 163
172 190 161
170 189 158
164 183 133
169 187 155
171 189 148
169 188 146
168 186 146
173 192 166
173 189 172
171 189 161
173 190 169
170 188 151
176 193 177
165 182 135
172 190 161
172 190 158
168 187 142
163 182 127
172 189 158
170 187 155
166 184 137
172 189 163
170 188 158
170 188 153
166 184 139
168 186 142
171 186 160
169 187 151
167 185 137
171 188 151
169 188 150
168 184 144
173 190 153
171 188 156
167 185 142
170 187 150
170 187 151
167 184 146
168 185 139
167 184 148
166 182 135
169 186 152
171 187 161
168 185 148
172 189 171
167 185 141
166 182 143
166 181 140
169 188 153
170 186 148
167 183 152
166 182 148
164 178 144
163 177 138
167 181 147
164 177 139
169 186 157
168 184 157
158 168 121
165 177 150
165 174 146
163 176 142
159 168 127
158 167 129
161 168 142
161 169 133
159 167 127
161 170 142
156 160 124
155 157 127
158 164 129
152 158 123
155 157 130
148 149 97
152 151 117
147 143 108
148 147 105
152 148 113
145 144 103
149 147 112
145 140 104
137 128 89
141 132 86
138 122 90
137 123 88
142 122 103
133 116 91
126 111 75
126 108 81
122 96 74
123 100 70
125 96 73
124 97 81
116 87 61
113 83 65
112 83 59
110 85 54
109 76 62
104 78 61
106 75 59
110 79 59
100 69 42
93 67 46
93 61 42
109 77 58
139 100 78
150 108 94
148 107 90
156 112 103
153 111 94
155 111 101
156 113 99
157 113 103
154 111 98
155 112 97
155 114 97
155 112 99
155 113 99
162 117 111
161 117 107
155 113 97
158 114 101
158 114 98
155 112 96
159 114 102
158 114 100
157 113 98
154 111 92
158 115 105
160 116 100
157 113 98
159 115 101
155 112 94
160 115 103
158 114 101
158 114 97
159 115 100
157 114 100
158 114 97
158 113 96
160 115 102
159 116 101
159 114 101
155 113 89
158 114 102
160 116 102
159 114 96
160 115 104
154 111 88
159 115 102
161 116 112
158 114 101
159 115 101
154 112 93
160 115 105
161 116 104
161 117 106
159 115 105
163 116 109
159 114 100
160 116 102
159 115 102
161 116 107
160 115 104
156 113 93
160 116 100
160 116 101
156 114 95
158 114 103
157 112 95
158 114 97
160 117 105
157 113 101
161 117 103
159 115 101
159 115 98
159 115 106
161 116 103
158 115 103
159 114 95
160 116 103
156 112 96
160 115 103
160 116 104
163 117 109
157 114 95
159 116 100
159 115 100
158 113 97
160 115 100
161 117 107
158 113 99
159 114 99
160 115 103
160 116 105
157 113 97
161 116 103
156 113 91
157 114 93
158 114 100
158 115 100
157 113 104
159 114 95
159 115 102
162 116 106
157 112 95
155 111 98
158 114 101
160 115 101
157 112 96
158 113 99
158 113 98
160 115 101
155 112 98
160 115 105
157 112 104
158 113 97
161 115 104
159 115 99
157 112 98
151 108 86
160 113 103
154 109 93
157 111 93
155 110 89
152 108 92
147 104 84
147 101 79
113 66 41
104 53 18
102 50 20
105 53 21
107 55 21
109 58 21
114 62 23
117 64 24
112 62 23
117 64 21
115 62 21
123 70 33
120 68 27
126 72 32
129 76 33
123 70 26
129 74 31
129 77 35
131 78 35
130 77 34
125 73 32
131 79 34
134 85 34
136 89 37
136 92 34
138 100 34
141 108 38
138 107 35
149 125 38
148 124 37
153 136 41
156 142 49
156 144 49
163 152 59
160 152 44
161 153 51
161 154 51
160 153 44
162 157 44
163 156 48
162 156 47
163 157 51
164 156 51
161 155 48
160 155 45
168 160 60
162 156 44
164 156 53
162 157 45
170 162 64
170 163 65
167 158 58
166 159 58
168 161 59
169 162 62
163 157 49
169 162 61
165 158 54
167 160 56
167 160 57
165 159 52
171 164 65
170 162 63
168 161 61
168 161 58
168 161 58
164 158 49
169 162 61
164 159 48
168 161 58
170 163 63
164 158 53
168 161 63
168 161 61
172 164 68
166 160 56
171 163 65
169 162 62
168 161 57
167 160 57
168 161 59
167 160 60
170 162 61
168 161 60
172 163 69
170 163 67
175 166 74
168 161 61
170 163 64
172 164 68
173 164 71
172 164 67
167 161 58
171 163 66
171 164 66
170 163 65
171 163 67
172 163 69
172 164 68
167 161 60
172 164 69
173 165 70
175 166 74
173 164 69
174 165 71
172 164 72
173 165 72
175 165 76
171 164 67
173 164 69
172 164 66
173 165 72
175 166 75
179 169 81
177 168 77
178 168 78
177 167 77
175 166 75
175 166 75
177 168 79
174 165 74
175 166 74
173 165 73
182 171 86
177 167 80
175 166 75
175 165 74
179 168 81
177 167 77
178 168 80
179 169 83
164 181 156
167 184 166
162 180 141
167 184 158
165 183 144
165 183 165
160 178 139
164 181 142
167 183 156
164 181 155
168 185 161
165 183 151
167 185 155
169 187 158
164 180 155
167 185 144
174 190 168
170 188 156
171 189 163
166 183 160
168 187 142
166 184 141
167 185 137
168 186 151
168 186 151
169 187 165
171 189 155
173 191 166
172 189 163
169 187 155
165 182 135
166 184 142
169 187 146
167 185 144
167 185 148
174 191 166
170 187 155
174 191 166
166 183 141
168 185 155
173 190 166
168 186 148
170 188 160
169 188 146
170 187 151
170 188 148
173 192 171
168 186 141
172 189 155
169 188 151
171 189 155
169 186 146
169 186 152
175 192 171
170 189 158
170 187 163
168 187 142
169 186 144
171 188 153
164 183 129
171 189 156
167 185 144
173 190 160
169 184 150
167 185 142
170 187 158
165 181 135
166 183 139
167 182 151
167 183 145
168 182 156
170 188 150
168 182 144
163 178 132
168 185 148
163 178 121
168 182 149
166 179 143
165 179 139
164 178 144
166 179 139
160 170 133
159 171 124
164 178 144
161 171 124
159 170 120
160 168 135
162 171 143
164 174 136
163 172 129
163 171 139
152 159 116
161 168 139
154 160 111
157 164 119
155 161 126
151 150 111
149 144 107
156 160 124
152 154 104
146 144 103
143 140 109
146 148 103
145 141 100
146 142 99
144 137 100
142 130 103
138 125 84
138 125 99
138 131 97
133 116 81
130 112 70
131 112 82
134 117 94
120 99 70
130 110 76
125 102 81
121 96 72
126 101 83
115 88 51
112 80 58
114 89 49
110 81 50
110 79 58
109 79 49
107 75 42
99 68 51
103 74 48
96 67 48
103 74 42
147 105 97
151 109 95
154 112 97
156 113 106
158 114 104
156 112 101
153 111 93
154 111 99
150 109 86
158 114 100
162 117 110
156 113 98
158 114 97
156 113 97
155 112 93
156 113 99
159 114 102
157 114 98
157 114 102
160 116 106
157 113 97
158 113 97
160 116 104
153 112 91
157 113 100
161 115 103
160 117 111
158 115 99
161 117 105
157 114 95
157 113 95
156 114 96
160 116 104
156 113 94
159 114 103
159 114 103
158 114 95
154 112 89
156 113 98
158 114 103
161 116 104
160 117 104
157 113 97
158 115 99
159 114 98
159 116 105
160 114 102
163 118 106
156 113 93
160 115 111
157 113 98
161 117 111
157 114 103
160 116 101
161 116 99
155 113 94
158 115 99
156 113 97
157 113 96
160 116 106
160 116 102
161 116 105
157 113 94
159 115 103
161 116 103
156 113 95
158 115 89
157 115 94
161 116 103
160 116 106
157 113 95
160 115 100
159 115 101
161 116 100
161 116 104
163 118 103
159 115 99
161 116 103
160 116 104
157 113 96
159 116 97
157 114 97
160 115 104
158 114 102
157 114 89
157 114 99
156 112 97
155 111 93
158 114 100
157 113 95
157 113 94
159 114 103
159 115 103
160 115 104
156 112 97
159 114 100
156 112 88
160 115 102
160 115 106
160 115 102
158 114 96
155 112 99
158 113 100
156 113 99
158 113 96
158 114 99
156 112 97
157 113 96
155 111 92
156 112 94
156 112 96
157 112 101
160 114 102
157 112 96
156 111 94
159 114 105
158 113 95
151 108 85
156 110 96
155 110 93
152 108 87
149 105 86
151 104 82
104 57 31
103 52 20
105 55 18
111 58 25
107 54 17
111 59 21
111 60 20
116 62 24
117 65 24
118 66 26
117 64 27
117 65 24
118 66 26
121 70 26
120 70 27
125 73 31
127 75 31
121 68 22
129 77 32
133 79 36
128 77 31
131 80 31
133 85 37
139 93 39
135 97 30
141 108 34
136 101 27
144 117 27
149 125 40
147 129 27
151 136 36
151 137 35
150 139 33
160 151 52
156 147 40
158 151 43
161 154 48
156 151 34
162 154 47
158 151 44
160 153 44
160 155 42
159 153 36
158 153 37
162 156 45
159 153 41
161 155 44
165 159 52
163 157 49
158 153 37
162 156 45
165 158 53
166 159 53
161 154 44
162 156 45
166 159 51
162 157 44
165 158 53
165 158 56
162 156 42
163 157 45
163 157 49
163 157 49
162 156 44
162 156 44
164 158 47
165 158 53
165 160 53
163 157 48
167 159 56
163 157 48
163 156 48
167 160 54
160 155 39
165 158 51
164 158 52
167 160 58
165 159 53
168 160 56
164 158 53
166 159 53
167 160 53
165 160 52
164 158 48
169 162 59
170 162 64
170 162 63
172 164 69
165 158 54
170 163 62
170 162 63
170 162 64
173 164 70
167 161 57
169 162 64
171 163 65
170 162 63
172 163 65
173 165 71
168 160 58
171 163 65
168 161 59
173 164 71
173 164 68
171 163 65
170 163 64
172 164 67
170 163 61
177 167 78
173 165 69
172 164 69
174 165 71
174 166 72
174 165 74
173 164 70
176 167 76
173 165 71
170 163 63
176 166 75
172 164 69
178 168 80
172 164 70
177 167 77
173 165 72
173 164 73
172 163 69
175 166 75
172 164 70
177 168 79
175 166 75
175 166 75
159 175 142
162 180 142
165 182 156
162 178 151
164 182 148
162 180 133
167 185 148
163 181 150
162 178 142
169 186 158
169 188 158
163 181 142
171 187 160
168 186 156
169 187 153
166 184 146
169 186 160
169 187 158
168 187 139
165 184 142
168 186 150
169 186 163
172 189 166
165 184 139
170 187 153
169 187 163
170 188 161
172 189 155
164 181 141
168 186 153
170 189 151
167 185 146
166 183 139
169 186 142
166 184 144
169 187 158
165 183 139
173 191 165
166 184 141
164 182 131
165 183 141
166 183 139
168 185 153
165 183 144
169 187 148
173 190 165
167 185 142
168 186 146
169 186 150
176 192 172
167 185 137
168 185 144
170 187 158
174 190 160
169 187 146
164 183 123
170 188 155
168 185 133
165 182 133
167 185 135
170 188 144
169 186 153
166 182 139
170 186 146
165 182 125
168 185 141
163 180 131
164 178 123
166 183 131
169 185 144
172 189 155
164 177 137
163 179 127
170 186 149
165 181 145
166 182 136
165 180 142
161 176 132
164 179 137
163 178 133
163 180 125
165 180 142
163 172 134
163 178 134
167 180 154
162 177 135
162 173 127
164 177 137
160 171 128
160 170 131
160 168 133
155 158 125
156 164 107
156 162 119
153 160 108
158 163 134
157 162 132
151 155 116
152 151 126
150 152 106
147 144 99
156 157 138
148 146 102
146 141 97
140 129 99
141 131 99
142 137 87
138 136 77
137 122 97
132 117 80
140 132 104
130 111 79
128 104 74
122 99 73
124 105 74
121 94 65
122 92 61
119 95 67
119 90 64
117 88 57
114 85 47
112 81 59
113 85 54
114 85 62
106 77 54
100 74 40
97 74 42
101 71 47
98 70 41
102 76 38
153 109 97
147 106 88
148 106 92
150 107 94
154 111 92
158 115 101
159 114 103
156 113 106
150 109 90
161 115 108
159 115 105
158 114 96
156 113 94
160 115 108
159 115 100
154 110 94
156 113 102
155 112 98
158 114 99
157 113 96
158 115 101
160 116 99
156 113 90
158 113 100
163 118 110
162 117 107
161 116 107
157 113 98
161 116 113
160 116 104
159 114 99
160 116 103
160 116 101
159 115 105
159 114 98
161 116 103
161 117 109
160 116 101
162 116 106
160 116 103
159 114 104
161 116 103
162 117 109
153 111 89
157 114 98
161 116 102
158 114 102
160 116 101
160 116 106
158 114 102
158 114 100
159 114 103
159 115 105
156 114 95
159 114 98
161 117 105
158 114 99
158 114 95
161 116 105
155 113 88
158 114 98
159 114 99
158 114 95
161 115 106
159 114 102
160 116 106
156 113 94
159 115 100
162 116 104
159 115 100
160 116 103
156 114 91
159 115 100
160 116 107
162 116 109
158 114 96
160 116 101
159 114 98
155 111 91
160 116 106
156 113 91
159 115 104
157 114 99
155 113 90
158 114 98
158 114 98
162 116 105
158 114 94
158 115 99
157 113 97
157 114 88
162 116 106
157 114 85
159 114 97
157 112 94
158 114 101
159 114 100
159 114 96
158 114 96
155 111 94
157 113 94
159 115 103
155 112 92
156 112 98
159 114 99
157 113 97
159 114 97
161 116 106
159 114 99
154 111 91
157 112 94
156 111 96
155 111 94
161 115 106
151 106 86
158 113 99
154 110 100
155 110 90
156 111 97
154 110 95
153 109 96
151 106 87
154 108 90
97 49 14
98 49 14
104 55 14
101 51 20
106 54 21
102 52 13
104 54 18
111 60 21
114 64 20
118 66 22
121 68 27
123 69 28
123 70 28
123 71 30
117 66 24
126 73 29
126 74 31
125 74 27
128 76 27
128 76 30
127 76 29
130 79 31
135 88 33
130 87 27
139 101 32
139 96 34
141 115 26
140 113 31
143 123 26
148 128 37
150 133 36
151 136 32
151 140 25
153 144 33
152 144 23
157 151 30
157 151 34
153 146 25
157 150 42
157 150 36
154 147 30
158 153 36
154 150 25
157 151 34
158 154 32
157 151 37
161 155 44
159 154 41
158 152 39
159 154 37
161 157 37
160 156 36
159 152 37
159 153 36
160 155 36
159 154 42
158 152 34
160 155 39
157 153 34
162 156 42
163 157 45
159 154 34
164 158 42
163 158 44
163 156 48
160 155 39
160 154 39
159 154 37
158 153 32
165 158 48
162 156 41
160 156 37
161 157 42
164 158 52
165 158 53
164 158 49
163 157 44
166 159 53
161 157 39
164 158 48
163 158 49
167 160 56
165 159 51
162 157 45
166 159 54
165 158 56
166 159 52
169 160 60
167 159 57
165 159 53
167 161 58
164 157 47
167 161 58
166 159 56
168 161 58
167 160 54
164 158 48
162 156 44
167 160 57
164 157 52
167 160 54
169 162 63
169 162 60
175 165 75
167 160 59
170 162 62
168 161 58
167 159 58
166 160 56
168 161 58
165 159 48
170 162 63
170 162 64
170 163 64
172 164 65
175 165 73
169 162 60
170 163 64
174 165 72
170 162 64
173 164 69
170 163 63
174 166 73
173 165 72
172 164 66
172 164 68
169 162 61
173 164 73
172 164 67
170 163 63
175 165 73
164 181 150
166 183 158
167 185 153
170 188 160
165 183 156
164 181 153
168 184 158
168 185 163
166 184 155
170 187 163
166 182 148
161 177 153
165 182 148
166 184 146
165 183 137
168 186 139
170 188 151
170 187 158
167 185 146
168 186 146
164 182 142
172 190 163
162 180 133
166 185 133
168 185 156
163 180 139
159 177 116
169 187 146
166 184 141
171 188 161
171 188 151
162 179 123
170 188 151
167 185 139
174 191 168
170 187 158
168 186 141
163 180 131
170 187 155
168 185 142
168 187 139
167 184 139
167 185 146
171 189 161
169 186 141
169 186 144
169 186 153
165 184 133
161 180 127
164 182 133
168 186 151
171 186 158
167 186 133
172 189 156
168 184 142
167 185 137
165 182 123
168 185 137
167 184 135
168 185 141
165 181 135
165 183 139
167 182 145
168 185 144
165 183 137
169 185 150
167 185 148
164 180 135
164 180 133
161 177 124
168 184 147
164 180 121
166 182 136
162 176 134
163 178 131
169 185 152
162 177 123
165 179 135
167 181 151
160 172 122
161 178 125
166 181 135
153 166 105
160 172 124
162 173 139
154 162 106
165 177 140
167 178 144
159 165 125
160 170 125
157 166 124
159 168 124
154 158 119
156 162 121
154 159 120
155 161 122
159 163 131
149 152 90
148 148 100
153 154 120
150 152 108
142 142 80
156 157 124
139 135 87
140 133 83
136 124 87
141 134 100
140 133 94
140 129 98
137 124 87
131 117 80
132 119 78
129 111 78
129 103 74
124 107 68
120 101 57
122 98 70
118 95 55
111 83 57
114 87 54
115 90 57
112 85 56
107 82 48
108 81 51
102 69 51
99 74 42
95 65 39
102 74 46
98 79 38
91 67 41
142 101 83
153 110 103
147 105 80
152 108 92
155 112 97
153 111 93
156 113 102
156 113 100
156 113 100
151 109 91
152 110 93
152 110 91
154 110 94
154 112 94
158 114 95
158 114 101
157 114 98
154 112 98
155 112 97
158 114 100
157 114 97
160 116 106
157 113 102
154 112 87
157 113 103
157 113 95
153 111 88
158 115 99
159 116 100
159 115 99
161 116 98
159 115 102
161 116 103
159 116 102
156 113 92
156 113 90
157 113 99
156 113 94
157 113 93
161 115 103
160 115 101
161 115 100
158 114 97
159 115 100
160 116 103
157 113 98
159 115 102
162 117 104
159 115 103
161 116 107
160 115 100
158 114 98
159 114 104
157 112 98
160 115 104
159 115 100
158 114 98
161 116 108
157 113 88
159 114 102
157 114 94
165 118 110
160 116 104
157 113 96
160 115 103
160 116 100
160 116 107
160 115 103
159 114 103
161 116 104
158 113 103
157 114 98
159 115 103
156 113 102
161 117 104
160 115 103
159 114 102
159 115 97
158 115 99
163 117 110
160 115 103
158 115 98
160 116 105
157 113 99
159 115 99
158 115 102
159 114 101
160 115 99
157 114 96
163 118 107
160 114 103
157 114 95
158 115 102
161 116 103
159 114 97
158 113 104
159 115 105
160 115 103
158 112 97
160 115 103
161 116 99
157 113 95
159 114 100
160 115 108
160 115 99
159 115 102
157 112 95
156 113 96
155 111 94
157 113 91
152 110 89
156 112 94
158 113 98
158 113 102
152 108 95
158 112 100
155 110 93
156 110 98
157 112 98
155 111 96
154 108 88
151 105 90
140 95 77
104 52 18
100 51 15
108 54 15
103 53 14
110 58 19
106 55 21
105 54 19
110 59 21
114 62 22
115 65 23
120 68 27
118 66 22
122 70 29
120 66 25
124 72 29
127 74 31
128 75 32
127 74 32
125 73 29
129 76 32
129 78 34
131 82 34
131 83 36
131 90 29
133 99 27
138 111 23
142 113 30
140 113 31
144 123 26
146 125 26
144 127 19
150 136 25
149 141 18
150 139 27
151 144 27
152 145 19
152 145 16
151 145 25
152 147 16
155 149 32
155 150 28
153 148 19
154 149 22
153 148 19
156 152 28
152 147 25
155 150 28
159 154 34
153 150 16
155 150 25
157 152 34
156 151 25
159 153 30
159 154 36
156 151 30
158 153 34
158 154 36
157 151 32
159 154 32
162 156 42
159 153 37
159 154 36
163 156 45
162 156 44
159 154 37
160 155 36
158 152 34
162 156 41
160 154 36
161 156 37
159 155 39
163 156 41
164 157 47
161 156 44
163 157 47
161 156 39
161 156 42
162 157 45
163 158 47
162 155 44
168 162 58
159 155 34
161 156 41
167 160 57
166 159 56
163 158 45
164 159 52
164 158 48
161 156 44
161 155 41
164 157 48
162 157 42
164 159 51
167 161 54
165 159 47
165 158 56
168 161 60
167 159 52
164 158 49
162 156 44
164 157 49
167 160 56
165 159 49
164 158 47
163 158 47
170 163 62
167 160 59
164 159 49
168 161 60
167 160 57
166 159 53
166 159 58
171 163 65
165 159 56
168 161 58
168 161 60
167 160 58
171 163 67
168 161 60
170 163 65
173 164 69
171 163 68
169 162 59
174 165 75
172 164 64
170 162 61
172 164 67
173 165 71
168 161 57
174 166 74
174 166 74
162 179 142
164 182 137
163 181 155
163 180 137
162 179 142
166 184 142
163 180 137
163 181 131
163 180 141
168 185 160
167 185 151
161 179 133
168 185 150
165 183 148
166 184 137
162 181 133
173 190 161
171 189 163
166 184 160
164 182 127
169 187 146
169 188 141
168 186 142
165 181 142
165 183 118
168 185 151
169 187 144
169 187 141
167 186 133
168 187 150
164 184 133
171 188 158
164 184 133
165 183 133
166 184 135
164 181 142
160 178 116
165 184 139
165 184 125
170 188 148
166 183 139
167 184 135
168 186 148
168 186 139
167 184 144
165 183 131
161 177 127
167 184 142
171 189 155
170 188 150
170 187 142
166 183 129
170 188 153
171 188 158
167 183 135
163 181 125
166 183 135
166 182 137
167 184 144
168 184 144
165 181 137
166 183 137
167 184 137
171 186 153
162 178 128
165 181 123
160 176 112
166 183 136
169 186 139
163 180 129
164 181 139
166 183 135
165 181 132
162 178 127
162 178 126
163 178 123
164 180 124
165 180 134
165 180 134
162 180 128
160 169 131
158 168 120
163 176 125
161 171 133
157 168 119
157 167 113
158 168 123
156 167 118
160 170 124
159 170 119
156 166 116
158 165 126
159 169 123
157 165 125
152 158 100
157 160 113
147 149 103
149 155 100
154 159 120
151 151 117
147 144 101
145 138 98
152 152 114
147 144 103
145 139 89
143 136 104
143 134 86
135 123 80
140 132 88
129 116 61
135 119 90
135 119 75
133 114 72
119 101 48
125 106 68
126 101 77
121 99 69
114 91 57
115 89 61
115 97 59
112 85 55
110 88 42
112 84 47
115 87 54
103 73 46
100 76 35
102 73 48
102 75 44
94 70 25
101 73 43
133 97 78
146 105 88
149 108 89
150 108 98
153 109 95
152 108 96
150 108 88
154 111 94
151 109 91
157 113 106
156 112 99
155 112 100
156 113 95
158 113 100
152 110 97
159 115 94
153 110 91
158 114 102
157 113 99
158 113 100
153 111 86
158 114 98
161 117 107
155 111 96
157 114 94
155 113 96
158 114 98
158 114 100
156 113 93
159 115 95
157 113 95
157 114 94
157 114 94
158 114 103
157 114 97
157 114 94
159 115 102
158 114 98
158 114 103
160 115 103
163 116 104
162 116 108
160 116 103
162 117 111
161 116 102
155 112 96
158 113 95
158 115 97
157 114 94
161 116 103
161 116 103
157 114 93
163 117 107
157 114 96
159 115 103
159 114 99
158 114 98
162 117 108
159 116 100
157 114 93
159 115 97
158 114 101
160 115 104
158 115 101
156 112 90
158 115 97
155 113 87
163 118 112
159 115 99
159 114 104
157 113 93
156 113 99
160 116 104
159 115 103
158 114 99
159 114 91
157 114 94
160 116 103
159 115 96
161 116 103
161 116 106
157 114 96
155 112 96
160 115 103
160 115 105
160 115 102
158 114 95
161 116 108
155 111 94
155 112 90
157 114 93
159 114 99
157 113 95
157 113 93
157 113 100
156 113 102
157 113 100
160 116 101
162 115 101
156 113 94
159 114 101
154 111 92
160 115 99
160 115 98
153 110 88
155 111 88
160 114 101
156 111 95
160 114 103
158 113 100
161 115 101
157 113 97
155 111 94
157 112 97
158 114 94
155 111 92
156 111 92
152 107 90
153 109 84
151 107 90
156 110 92
151 106 89
130 85 61
99 49 13
101 50 12
105 55 17
101 53 13
108 56 19
108 57 18
114 61 22
107 58 20
116 63 24
109 57 21
119 66 22
117 66 22
116 65 23
121 69 26
124 72 29
122 70 26
126 74 27
126 75 29
127 75 30
128 77 31
130 79 31
128 82 28
130 89 29
135 96 30
134 102 27
138 109 26
138 108 30
137 107 23
141 122 20
145 127 19
143 129 20
146 134 16
149 141 13
148 139 13
146 139 11
152 145 16
152 145 19
153 147 22
152 145 16
154 148 16
153 148 16
152 145 11
155 150 11
153 148 19
152 146 0
156 152 22
154 149 16
153 149 19
156 151 22
154 149 0
152 146 25
155 151 11
154 150 16
156 151 19
155 149 22
154 149 22
154 150 11
153 149 11
157 152 25
155 153 25
156 152 19
155 150 28
159 154 28
157 153 25
156 151 32
157 152 32
156 150 22
159 155 32
156 151 30
159 155 36
156 153 25
157 153 32
160 155 34
159 154 28
161 155 36
161 155 41
160 156 32
160 155 34
160 154 36
161 156 41
160 156 34
160 154 37
160 154 41
160 154 37
162 157 45
158 153 37
156 152 30
160 155 37
161 155 39
161 155 39
164 158 47
162 157 44
162 157 41
159 155 37
163 157 42
160 156 39
167 160 51
165 159 53
163 158 47
164 159 48
168 161 59
167 160 52
163 157 49
165 159 49
162 156 37
164 158 49
163 157 44
166 160 51
167 160 56
162 157 47
166 159 58
166 160 53
164 159 49
168 161 56
164 158 47
165 159 48
165 159 51
168 161 59
167 160 58
171 163 65
165 159 52
172 164 67
167 160 57
167 161 59
171 163 65
167 160 57
169 161 61
171 163 63
171 163 64
174 165 71
169 162 60
162 179 146
163 180 135
164 182 141
161 178 135
163 181 141
163 180 137
168 185 151
162 180 144
164 182 139
164 182 148
166 184 146
161 178 139
160 178 123
168 186 161
164 181 131
168 186 141
165 183 135
167 185 144
170 188 151
168 184 150
167 184 144
165 182 142
165 182 141
163 182 123
163 181 121
164 180 133
164 182 131
169 187 163
165 184 127
165 183 137
165 182 137
169 188 151
163 180 142
166 184 139
167 185 144
167 184 148
164 180 131
167 183 139
166 183 125
169 186 146
168 186 141
170 188 156
166 184 141
168 185 142
162 180 118
167 185 135
169 186 142
169 187 142
164 182 127
172 189 153
166 183 135
168 185 142
168 185 139
166 183 133
172 189 155
166 184 137
168 184 146
164 183 116
164 182 127
168 185 137
166 185 139
159 176 115
166 183 141
160 176 125
164 182 123
167 183 137
162 179 123
162 177 123
163 178 123
163 177 125
166 182 131
166 183 137
164 180 131
162 178 125
166 181 132
154 168 93
160 175 117
166 179 142
155 169 109
163 178 131
156 169 108
166 180 141
158 169 122
159 171 125
161 173 124
155 166 104
159 172 118
152 161 98
158 165 123
159 173 114
160 170 116
153 163 92
148 155 108
148 152 104
147 153 90
147 146 104
152 155 100
145 147 91
145 151 82
151 151 111
146 145 97
143 136 88
145 143 93
144 138 99
139 131 84
138 131 93
137 131 95
134 122 68
134 121 78
129 116 73
132 116 73
135 126 78
126 105 63
129 109 68
128 115 63
127 108 62
128 107 65
124 102 65
115 92 52
116 95 62
113 92 49
109 82 46
108 83 49
103 79 43
110 88 43
107 78 48
102 76 45
93 69 30
100 78 32
96 76 36
126 93 73
152 110 100
145 105 93
154 111 96
150 109 87
151 109 96
154 111 95
154 110 93
157 113 103
151 109 98
157 114 102
158 114 97
156 112 96
157 114 95
156 112 95
157 112 100
156 113 93
159 115 109
157 112 99
155 113 94
159 115 105
155 112 98
160 116 107
162 116 107
159 115 101
153 110 94
158 114 99
154 112 91
159 116 102
157 113 95
158 115 100
158 115 102
156 113 100
157 114 96
158 114 101
156 113 91
156 113 94
159 114 98
158 114 94
159 114 101
157 113 100
159 115 103
158 115 97
159 114 102
159 115 105
158 114 97
160 116 106
162 117 104
159 114 103
163 118 109
162 116 103
156 112 95
158 114 93
159 115 101
160 115 100
158 114 99
161 116 105
157 113 88
156 112 91
156 113 101
160 115 98
163 117 106
160 115 102
158 114 98
158 114 99
157 114 97
159 115 103
162 117 104
160 115 102
158 114 100
159 115 100
160 115 106
162 117 103
161 117 103
158 114 96
162 117 102
163 117 109
157 114 100
154 110 90
162 117 104
156 113 87
160 116 104
159 113 103
163 117 113
156 112 95
159 114 99
156 113 97
157 113 96
161 116 103
156 112 88
161 115 104
157 113 95
161 116 101
160 113 104
158 113 98
155 111 93
160 115 101
160 115 98
160 115 103
153 111 82
155 112 93
157 112 100
158 114 100
155 112 92
158 113 99
159 114 104
158 114 98
160 115 102
162 116 107
153 108 92
159 114 95
154 110 96
157 113 98
155 111 95
152 107 78
154 109 84
154 110 93
153 108 97
152 107 88
155 109 88
151 108 88
154 109 90
126 81 58
101 50 10
108 59 16
106 57 18
110 59 17
104 53 16
110 58 16
113 62 19
116 64 20
116 63 24
116 65 25
118 66 23
121 69 25
118 67 24
123 71 29
122 70 25
121 68 26
125 73 27
126 73 31
127 76 31
122 73 25
127 77 27
134 90 31
130 87 30
132 92 30
139 107 23
135 103 28
139 110 27
141 119 20
139 124 6
141 121 17
146 132 18
145 135 10
148 139 10
146 137 11
146 138 6
147 139 11
149 142 0
153 147 0
148 141 0
153 148 0
151 145 0
152 145 0
149 142 0
153 149 11
148 143 0
150 145 0
152 147 0
151 146 0
151 145 11
150 145 0
153 148 11
154 149 11
153 149 0
152 147 16
154 150 0
151 148 0
154 150 11
154 150 22
153 148 22
153 150 16
153 150 19
153 150 16
156 153 22
156 151 22
155 151 22
155 150 19
154 151 16
157 151 28
157 152 32
156 153 19
158 153 25
155 152 19
157 152 19
156 152 22
159 154 28
156 152 16
156 153 25
158 154 28
159 154 34
160 154 32
162 155 39
157 152 28
157 153 16
160 155 36
159 154 34
159 154 36
159 154 34
159 152 32
161 156 41
159 154 34
161 156 41
160 155 36
164 159 48
163 156 44
162 157 39
161 156 41
159 155 37
161 156 36
161 156 37
163 157 45
164 158 49
161 157 39
164 158 51
165 158 53
161 156 42
163 158 45
162 157 39
162 157 44
162 156 44
162 157 45
163 157 49
162 157 45
163 157 49
165 159 53
165 159 48
165 159 52
164 158 52
164 158 47
169 162 61
163 157 48
164 158 51
168 161 59
164 159 52
165 159 52
167 160 54
172 164 64
166 159 52
165 159 54
168 161 57
170 162 62
168 161 59
162 178 144
162 179 139
162 179 139
166 185 148
158 175 135
168 186 155
166 184 139
164 182 144
162 181 141
163 180 141
168 185 144
167 184 150
165 183 129
160 177 131
160 177 131
161 179 131
161 179 125
163 181 135
165 183 141
164 182 133
171 188 156
164 181 139
166 183 144
166 184 133
167 185 142
167 185 146
165 181 131
165 182 137
163 180 133
167 185 148
165 182 133
164 182 131
166 183 133
166 184 137
168 187 144
167 184 137
164 181 133
169 186 153
166 184 133
160 177 121
161 180 121
165 183 127
163 181 125
167 184 144
169 187 141
164 182 129
164 180 125
167 184 142
160 178 118
168 185 139
166 183 141
167 184 133
163 181 121
166 182 131
163 181 123
165 183 131
167 185 127
166 184 135
166 183 139
162 180 118
166 184 123
163 179 127
166 183 137
168 186 139
162 179 121
163 181 125
167 181 144
166 183 141
164 177 127
166 181 148
164 180 126
158 172 110
164 179 123
158 172 112
162 175 128
158 172 121
157 171 112
164 179 136
161 175 123
162 175 130
156 164 116
160 169 136
163 176 121
157 169 114
158 171 113
162 176 118
153 163 94
159 169 110
158 168 120
156 166 124
156 164 115
154 162 98
148 151 102
154 164 102
153 163 100
148 153 96
146 152 97
148 149 103
147 148 88
143 142 96
144 143 96
144 146 90
138 133 76
134 128 66
134 125 80
135 126 83
135 129 84
137 128 84
134 127 82
133 122 74
126 108 62
136 119 74
123 108 58
123 103 55
119 99 54
124 103 74
117 95 53
112 88 48
115 92 45
113 90 50
116 90 57
110 88 45
104 76 42
103 82 45
105 82 30
100 78 27
96 74 29
103 85 31
106 83 32
95 74 27
109 83 52
144 104 85
150 108 96
154 111 99
158 113 104
155 112 96
151 108 88
157 113 93
156 113 100
155 111 95
155 112 95
157 113 104
158 114 103
157 114 103
154 111 95
157 114 98
155 112 91
155 113 89
156 113 98
156 112 95
158 114 99
161 116 102
157 113 101
162 117 109
160 114 100
157 114 100
162 117 110
161 115 103
156 113 98
157 113 91
158 115 106
158 114 99
159 115 100
162 117 106
158 114 97
158 114 102
159 115 100
155 112 91
158 114 97
159 115 103
160 116 103
156 112 94
156 113 94
164 118 110
161 116 105
159 113 102
157 113 94
160 115 103
160 115 103
160 116 102
156 113 93
161 116 105
159 115 102
157 112 96
157 113 103
158 114 95
162 116 104
154 110 93
158 114 101
157 113 95
160 115 103
157 114 95
159 114 102
158 114 99
159 115 100
158 114 96
160 116 100
160 115 100
159 114 98
159 116 97
158 114 95
156 113 91
158 114 102
154 111 91
155 113 85
158 114 100
158 114 95
161 116 107
156 112 94
159 115 103
154 111 89
156 113 98
154 111 99
158 113 96
156 113 101
159 114 103
161 115 98
159 115 101
161 116 105
158 114 96
159 114 97
156 112 93
157 112 100
161 116 104
158 114 98
156 112 90
160 115 98
159 115 102
157 114 101
157 114 94
156 111 95
157 113 98
157 113 98
159 114 101
157 112 93
156 112 91
156 112 99
154 110 87
156 112 95
158 113 95
153 110 95
155 111 90
160 116 106
154 110 90
158 111 97
152 107 86
155 111 91
156 111 99
151 106 86
154 110 92
151 106 84
150 103 87
114 68 46
94 45 7
101 52 10
100 50 12
108 56 19
104 54 17
109 59 18
108 58 22
111 60 21
112 61 20
117 66 22
116 64 24
113 64 21
119 69 24
122 70 23
121 69 27
120 69 24
122 70 23
125 74 28
129 77 31
126 80 30
124 77 26
129 84 25
131 91 27
134 101 25
128 93 24
137 109 21
138 108 26
138 118 20
138 119 18
143 130 10
139 127 8
144 131 10
146 137 0
145 135 8
146 137 6
146 138 0
149 142 0
149 142 0
149 144 0
149 144 0
149 143 0
150 142 0
149 143 0
152 148 0
149 142 0
150 144 0
151 146 0
150 146 0
152 146 0
152 147 0
150 145 0
153 149 0
153 149 0
154 151 0
153 150 0
151 147 0
153 149 0
154 148 16
153 150 0
153 148 11
154 150 0
155 150 16
154 149 19
155 152 11
153 148 11
153 146 22
155 151 11
153 150 22
154 147 16
156 152 22
153 149 0
157 153 16
156 152 19
156 152 19
154 150 11
155 149 22
155 151 22
152 148 0
156 151 22
155 153 22
158 153 25
159 154 25
159 153 30
158 153 22
158 153 28
157 152 30
158 153 32
156 152 16
158 153 30
158 152 32
161 156 39
159 155 34
155 152 11
161 156 37
160 154 36
160 155 37
157 153 32
161 156 37
161 156 36
161 156 39
158 154 32
163 158 47
160 156 34
164 158 49
162 157 45
160 154 32
161 156 39
161 155 39
162 156 39
168 160 57
159 155 30
163 158 42
162 156 41
159 154 36
163 158 48
165 159 51
166 159 53
162 157 41
163 157 45
164 158 42
166 160 53
160 156 37
165 159 52
166 160 53
164 158 48
165 158 52
169 161 59
164 159 49
165 160 52
168 161 58
170 163 64
156 173 131
163 181 135
161 180 123
159 176 135
165 183 142
163 181 131
163 180 144
160 177 133
164 180 137
165 183 142
169 187 150
168 184 144
159 177 131
163 180 137
167 186 139
164 181 139
160 177 135
164 182 133
167 184 139
162 180 118
163 181 131
162 180 123
165 182 142
165 182 135
164 182 118
169 187 148
164 181 133
165 182 139
165 183 135
167 184 141
163 181 129
163 181 133
166 183 137
169 186 153
169 185 144
165 183 125
160 178 118
165 182 135
170 185 144
160 179 118
169 185 142
163 181 135
167 184 142
161 178 102
164 180 123
167 184 142
167 186 131
163 180 125
165 181 123
163 179 116
160 177 112
166 183 139
165 182 129
164 182 121
164 181 127
160 177 114
166 183 131
164 181 127
161 175 121
165 182 139
168 184 135
165 182 133
164 182 129
164 181 125
160 176 117
161 177 118
161 179 116
159 174 107
161 177 116
166 183 135
162 177 117
157 171 109
163 178 131
165 182 142
159 174 109
161 177 110
161 176 119
159 172 118
155 167 107
162 176 137
160 174 118
157 169 106
163 176 119
155 167 103
153 164 106
158 171 107
159 167 129
154 165 93
151 158 100
156 165 118
158 163 116
154 161 115
147 152 85
147 152 88
146 153 88
152 158 93
146 153 73
152 158 105
150 150 92
144 144 83
144 144 89
145 145 81
137 127 79
139 137 80
140 138 60
141 138 77
133 125 79
133 122 67
132 123 65
128 114 51
126 115 60
126 112 61
123 110 61
128 115 62
128 111 71
127 113 66
121 98 57
120 102 52
122 107 57
117 102 40
114 91 49
114 91 33
105 83 48
111 90 45
112 91 36
97 76 29
105 82 34
101 87 29
98 76 24
98 79 30
96 79 39
150 107 95
149 107 86
152 109 92
149 108 87
148 106 84
157 113 104
154 111 96
153 111 92
155 112 97
160 115 103
153 110 91
155 112 94
159 114 105
155 111 93
158 114 100
155 112 90
157 113 97
155 111 94
154 111 99
152 110 88
156 113 103
157 113 96
159 114 99
153 110 94
157 114 98
158 114 93
158 114 99
160 116 106
161 115 103
158 114 92
160 116 106
160 115 101
156 112 93
159 115 100
153 111 90
159 114 108
157 113 90
155 113 88
158 115 103
159 113 103
157 113 95
158 114 100
159 115 98
161 116 103
160 116 99
156 112 94
157 114 94
159 115 101
161 116 103
161 116 103
158 115 96
160 115 100
157 113 86
160 115 98
157 114 94
158 113 94
162 117 105
161 116 101
161 116 101
158 115 97
156 113 96
157 114 97
160 115 102
156 113 97
159 114 98
156 111 90
161 116 104
155 112 90
158 114 97
160 116 103
159 115 98
159 114 100
160 114 101
158 114 91
158 114 101
159 116 98
158 115 99
159 115 101
157 114 93
160 116 101
160 116 104
157 114 100
161 116 107
156 111 93
157 112 91
163 117 110
155 112 88
159 113 101
158 114 98
159 114 100
160 116 101
156 113 95
159 115 100
160 116 99
159 114 97
154 110 93
160 115 103
157 114 97
153 111 87
156 113 97
157 112 93
160 114 99
155 110 95
157 112 95
155 111 90
161 115 102
156 111 92
154 111 86
159 114 107
152 109 87
158 112 102
152 108 91
149 105 81
158 113 95
153 109 87
155 110 90
152 107 90
156 110 95
155 109 95
153 108 90
152 107 88
100 55 26
103 52 11
100 51 15
101 51 12
108 57 14
111 57 18
102 52 9
109 59 19
109 59 16
113 60 19
111 60 16
115 65 20
115 63 18
115 64 19
114 65 24
119 69 26
122 71 26
121 71 24
123 73 26
126 77 27
123 76 22
128 80 27
129 92 23
130 87 30
129 95 15
133 102 20
134 103 24
135 111 19
136 116 17
143 126 18
137 121 10
141 126 15
142 128 10
142 130 10
143 135 0
149 140 0
147 135 0
147 141 0
148 139 0
147 140 0
149 144 0
148 140 0
147 141 0
148 142 0
149 145 0
149 142 0
148 142 0
152 145 0
153 146 0
150 142 0
151 145 0
152 146 0
150 145 0
153 147 0
152 148 0
152 149 0
151 146 0
152 148 0
152 148 0
152 148 0
153 148 0
153 148 0
154 150 0
150 145 0
153 150 0
152 148 0
153 149 0
153 148 0
153 149 0
153 150 11
154 150 0
155 150 0
154 151 0
152 149 11
154 151 0
153 149 16
155 151 11
155 151 16
154 150 11
156 152 11
154 149 19
154 151 0
155 152 16
156 151 11
155 151 0
154 150 11
155 152 11
153 149 11
157 152 19
158 154 28
155 152 22
158 154 25
155 151 19
161 156 37
154 152 11
157 153 19
157 154 19
156 153 19
157 152 25
156 151 22
155 152 16
158 154 32
157 152 25
159 154 32
159 155 28
159 155 34
158 154 30
159 153 32
160 155 37
162 155 42
159 155 36
162 156 39
163 157 45
160 154 41
158 155 25
161 156 41
160 155 39
161 156 36
163 157 48
162 156 37
162 157 42
166 160 54
162 157 44
162 156 42
160 155 34
162 155 44
162 157 44
166 160 54
166 159 49
168 161 58
165 159 49
164 158 45
161 178 146
161 179 135
157 173 135
160 177 133
160 178 125
163 180 135
161 179 135
161 178 146
160 175 137
163 180 146
162 180 118
166 184 148
165 182 150
165 183 135
167 184 146
164 183 135
162 180 131
165 182 141
166 184 146
158 175 129
158 175 129
164 182 129
166 184 133
164 181 135
168 185 137
159 177 112
161 179 112
167 185 141
165 182 139
164 182 125
161 179 125
171 188 156
162 180 116
161 178 121
160 178 118
166 184 135
166 185 127
168 184 146
163 181 133
158 176 107
163 180 131
165 182 127
163 181 127
161 179 109
160 178 114
168 185 144
165 183 129
163 180 123
159 177 109
163 181 121
166 184 127
164 182 127
167 184 123
163 181 112
162 180 116
166 182 139
167 184 131
165 183 131
165 183 127
164 182 131
160 178 112
157 174 97
160 175 116
164 181 126
163 181 123
162 178 135
160 176 109
162 177 134
161 179 115
158 174 107
161 180 109
158 174 112
162 178 109
157 172 88
162 176 126
162 179 121
158 172 112
159 172 106
159 169 122
156 169 95
158 170 112
153 165 98
160 174 118
154 169 95
154 165 97
152 162 103
154 162 100
157 168 110
155 165 111
155 164 107
150 157 104
154 165 101
152 162 91
150 156 97
150 156 102
149 150 95
145 145 95
143 143 76
146 149 94
140 136 81
141 144 79
141 139 78
141 139 90
141 140 78
138 133 68
129 118 64
135 126 73
134 125 69
127 122 35
130 117 64
128 117 58
132 121 62
125 112 77
123 104 51
116 100 49
125 105 55
117 98 47
119 96 44
117 99 52
114 92 40
113 90 48
110 81 42
110 87 39
102 75 39
100 79 32
106 92 34
96 74 25
111 91 38
104 89 35
96 77 16
106 92 40
142 104 80
148 106 88
154 111 100
154 111 90
151 109 93
153 110 88
157 112 94
155 113 96
155 112 97
156 113 98
157 113 98
154 111 93
153 109 87
156 113 98
152 110 92
154 111 100
162 117 107
156 113 93
154 112 85
158 113 99
159 114 104
160 116 102
158 114 98
156 112 94
159 114 97
158 113 94
159 114 101
155 113 95
155 112 93
160 115 98
156 112 96
161 116 106
157 113 93
153 110 87
158 114 100
158 113 94
156 113 93
161 117 106
160 115 101
159 114 100
157 113 100
161 115 103
154 112 86
160 115 107
160 115 100
162 116 103
159 116 99
155 112 90
155 113 91
160 116 102
152 110 86
160 115 101
154 111 89
159 113 101
153 111 80
156 113 91
158 115 101
158 114 94
160 115 104
160 115 102
158 114 101
160 115 103
159 115 95
157 113 97
158 114 98
155 112 91
156 112 88
160 116 102
158 114 94
152 110 84
156 113 94
157 114 97
159 115 95
161 116 100
156 113 90
154 111 89
157 113 97
160 115 105
161 116 105
160 115 101
160 115 107
155 111 90
160 114 100
156 112 93
161 116 102
159 113 100
157 113 91
159 113 103
160 115 105
155 111 86
157 113 90
160 116 103
157 113 88
157 113 97
159 114 98
158 113 99
156 113 94
152 110 84
159 114 97
155 111 93
154 110 92
157 112 98
151 108 88
153 110 84
158 113 93
156 111 95
155 111 89
155 111 93
155 112 90
154 111 94
157 111 88
151 108 81
157 111 94
151 106 88
152 108 95
155 111 93
154 110 91
155 109 94
154 109 93
152 107 87
142 97 71
106 59 11
104 57 11
103 55 13
104 56 13
101 52 10
107 56 14
112 62 18
106 59 11
112 63 17
120 67 23
114 64 13
117 65 21
120 68 26
119 68 23
116 65 19
123 71 25
115 66 22
121 71 22
123 74 26
123 77 26
126 81 28
130 90 24
129 93 22
129 91 23
133 101 23
131 102 19
135 108 20
139 114 22
142 124 16
135 118 8
140 125 12
135 121 6
140 129 6
144 135 0
142 132 0
142 133 0
147 139 0
148 142 0
147 136 0
148 139 0
148 142 0
148 141 0
150 142 0
150 145 0
149 142 0
150 142 0
148 143 0
151 145 0
150 145 0
149 143 0
152 146 0
151 145 0
149 144 0
151 146 0
149 143 0
152 149 0
150 144 0
152 148 0
153 148 0
152 148 0
151 149 0
154 151 0
155 151 0
153 147 0
151 145 0
152 147 0
154 150 0
152 149 0
155 151 0
153 149 0
153 150 0
153 148 0
152 147 0
152 149 0
152 148 0
153 150 0
152 148 0
151 144 0
155 151 0
153 148 0
154 148 11
154 150 0
155 150 11
154 150 11
154 149 11
156 152 11
155 152 11
154 151 11
156 152 11
154 150 16
156 153 11
154 150 11
156 152 19
157 152 22
157 152 28
157 152 25
155 152 16
156 151 11
157 151 34
155 152 0
157 153 25
158 153 28
157 152 16
159 154 34
157 154 30
156 152 19
157 152 30
159 155 28
158 153 32
160 155 36
159 155 32
158 153 25
160 155 34
161 155 37
158 154 34
160 155 34
162 157 44
159 155 34
160 154 37
159 155 32
159 154 37
160 155 37
161 155 39
164 157 48
162 157 41
159 155 34
160 156 37
163 156 49
160 156 36
166 159 49
165 159 52
165 159 51
163 180 146
156 174 125
164 181 144
158 176 133
160 178 135
162 180 142
161 177 131
161 177 131
159 177 118
159 176 131
161 180 129
163 182 137
160 177 123
163 180 133
164 181 135
162 180 121
164 181 133
164 181 141
164 182 135
161 179 129
161 179 123
166 182 141
161 178 125
160 177 116
159 176 121
161 179 123
161 179 125
165 182 127
163 181 133
166 185 133
165 182 131
169 186 142
166 183 141
163 181 118
167 183 135
160 177 118
157 175 94
161 180 114
157 174 109
161 177 139
162 180 121
159 177 112
163 179 118
160 177 107
165 183 133
166 183 123
162 179 116
164 181 131
161 177 114
160 176 109
164 182 125
159 176 97
159 177 107
159 176 109
158 174 112
162 179 112
165 182 121
163 180 121
164 179 130
160 176 104
162 179 118
167 183 139
163 179 121
168 183 146
161 177 117
163 180 118
162 178 127
163 180 119
161 177 121
161 175 114
161 176 124
160 175 109
158 172 104
160 175 114
160 175 108
156 169 107
154 167 93
157 169 108
161 174 126
160 176 113
164 179 130
153 166 92
160 174 103
157 170 100
155 167 96
152 161 102
150 159 92
150 160 97
159 171 119
159 170 117
148 158 96
142 145 71
145 148 88
148 154 100
142 146 74
144 147 79
146 151 88
142 144 85
141 143 69
147 153 87
142 143 70
142 145 80
143 143 83
137 134 59
139 140 80
132 127 49
136 132 71
132 126 60
136 129 72
133 129 57
130 121 59
126 109 61
130 121 54
128 112 58
121 111 53
120 101 47
122 103 47
119 103 41
117 102 39
115 98 34
113 94 35
109 95 31
111 86 39
110 96 27
103 84 35
106 82 48
102 84 34
110 100 20
100 87 38
105 91 34
99 84 28
124 92 64
149 107 90
149 108 88
147 106 83
154 112 96
151 108 86
152 110 88
151 109 85
153 111 92
156 112 93
156 113 95
157 113 99
157 112 95
156 112 98
157 114 97
155 113 93
158 114 98
151 110 79
154 111 91
160 115 103
157 113 95
158 113 100
157 113 100
159 115 97
154 111 97
158 113 98
160 115 106
159 114 104
156 112 93
159 115 104
157 113 93
157 113 97
159 115 99
154 111 88
157 113 102
160 116 106
157 113 97
158 114 93
158 115 95
157 114 97
160 115 98
156 113 91
159 115 99
158 113 100
160 115 101
161 116 103
157 114 98
159 114 98
154 111 90
161 115 102
156 113 91
159 114 101
156 112 90
160 116 101
159 113 105
156 112 95
159 114 98
156 113 88
159 115 102
158 114 90
157 114 93
157 112 94
156 111 89
151 109 76
158 114 98
156 113 94
158 113 90
160 115 103
158 114 91
160 115 100
158 114 103
161 116 103
155 112 94
155 112 95
158 114 96
158 114 99
160 116 101
155 111 84
157 113 95
160 114 99
159 115 100
159 114 99
155 111 94
154 111 86
156 112 98
159 115 97
157 112 96
161 116 104
161 116 103
159 114 103
158 114 100
159 114 100
156 112 92
151 109 85
159 115 98
156 111 92
158 114 100
161 116 110
157 114 96
156 113 93
157 112 93
154 110 90
157 113 98
159 114 97
161 115 104
156 111 86
154 110 90
151 106 82
157 113 94
158 113 93
154 110 90
154 111 88
154 109 95
152 108 88
155 110 91
153 108 88
152 109 90
150 105 85
151 107 87
152 105 88
130 89 59
101 64 9
106 61 11
106 57 14
102 55 10
105 54 12
104 55 14
104 56 14
116 65 17
112 60 18
107 58 13
111 62 23
109 63 16
117 66 24
114 65 22
119 68 23
117 69 22
124 74 25
120 73 23
121 76 23
122 74 24
129 84 27
123 83 20
128 95 19
131 101 21
131 102 20
125 97 12
136 113 16
135 113 15
135 114 12
144 129 8
140 125 9
139 123 8
140 128 0
145 136 6
144 134 0
142 132 0
139 127 0
143 135 0
146 139 0
143 134 0
146 138 0
146 136 0
147 139 0
149 141 0
147 142 0
149 143 0
148 140 0
148 141 0
148 142 0
150 146 0
152 146 0
151 144 0
150 143 0
151 145 0
152 147 0
151 145 0
152 147 0
152 148 0
153 149 0
154 148 0
153 148 0
151 148 0
151 147 0
151 145 0
154 150 0
153 148 0
152 147 0
153 150 0
153 149 0
153 148 0
152 148 0
153 148 0
151 146 0
151 148 0
153 148 0
153 149 0
152 149 0
154 150 0
153 149 0
153 149 0
153 149 0
154 150 0
153 150 0
154 151 0
154 150 0
155 149 11
154 149 0
154 151 0
153 151 0
154 151 0
154 150 11
155 151 0
155 152 0
155 151 11
152 150 0
155 151 0
156 152 19
155 151 16
154 151 0
156 153 19
158 153 19
156 151 19
158 154 25
157 153 22
155 152 11
158 154 22
157 153 22
156 153 22
155 151 19
157 153 22
159 155 28
157 153 28
158 154 28
158 153 25
158 153 22
158 153 32
159 155 32
158 153 30
158 153 25
157 153 22
161 156 36
161 156 37
162 156 41
160 156 37
160 155 37
159 154 30
160 155 39
160 156 37
161 155 39
166 160 54
163 157 47
160 155 41
164 181 146
157 175 125
163 181 142
161 179 129
159 176 129
163 180 133
163 180 141
159 176 129
164 181 131
162 179 121
162 180 118
156 174 121
162 178 144
158 176 114
163 180 129
161 178 129
161 176 131
164 183 125
159 176 129
167 184 142
163 181 131
165 182 146
163 179 133
159 176 107
160 177 114
160 177 114
163 182 121
165 182 139
161 180 116
163 180 125
163 180 127
157 176 104
161 177 123
157 174 102
162 179 118
165 182 129
166 182 131
161 179 118
163 181 123
164 181 133
164 183 127
161 180 121
162 179 114
160 179 104
167 184 127
162 179 118
162 179 127
158 175 112
166 183 125
165 183 127
161 179 121
163 181 121
160 178 114
160 176 109
163 181 112
155 172 91
161 176 121
162 179 118
160 176 116
164 180 123
165 180 127
160 177 116
160 179 102
161 176 112
160 177 107
155 173 94
162 178 116
155 170 97
162 178 117
158 174 94
154 168 92
158 173 115
160 177 109
153 167 91
162 178 118
161 175 112
155 167 108
160 176 108
153 167 80
150 162 96
155 167 94
156 169 115
149 159 93
149 158 93
153 164 85
153 164 96
152 167 95
148 155 94
152 163 80
149 158 87
149 153 93
148 155 82
153 161 100
147 156 75
150 158 86
143 149 79
144 150 67
141 143 87
145 151 80
136 141 74
138 138 74
146 150 84
138 137 59
134 129 73
136 133 67
136 131 74
132 124 57
129 123 59
130 118 55
132 121 42
122 112 51
128 123 59
120 109 55
124 113 52
123 105 53
120 100 52
118 100 50
120 101 50
118 99 46
116 101 35
111 92 35
114 102 33
106 86 23
112 93 34
104 83 29
100 76 35
106 86 36
107 91 42
102 91 19
116 110 29
105 96 23
113 94 60
146 105 82
145 105 76
149 108 88
153 110 91
154 111 96
151 109 89
154 111 99
155 112 96
149 107 84
153 110 85
150 109 85
149 108 82
156 112 99
156 113 100
155 110 92
157 114 97
159 114 101
156 113 100
158 113 99
156 112 90
156 112 93
157 114 100
155 112 95
158 114 96
162 115 103
157 113 99
161 116 104
158 113 92
160 115 100
157 113 98
155 112 93
157 113 100
155 112 86
155 112 94
158 113 93
160 116 101
159 114 94
162 117 106
159 115 95
160 115 103
156 111 95
159 115 96
153 111 93
155 113 88
160 116 103
154 111 88
156 112 95
160 115 101
154 111 91
161 115 102
161 116 103
160 116 103
160 115 101
157 112 101
156 113 91
157 114 94
158 113 100
155 112 89
154 111 91
156 112 96
159 114 100
159 114 99
162 116 106
157 113 93
158 113 97
156 113 96
160 115 100
163 117 106
157 114 87
158 114 95
157 114 95
157 114 95
155 112 86
158 115 97
161 116 108
161 117 106
156 112 89
161 116 99
159 114 102
155 113 88
155 111 91
159 113 97
158 113 100
160 115 103
153 109 85
158 113 95
154 111 90
155 113 87
160 114 101
156 112 96
158 114 99
154 112 87
161 116 102
153 111 86
158 114 90
156 112 94
157 113 94
156 112 90
157 114 98
155 112 90
159 114 99
156 112 97
157 113 90
157 113 92
159 114 97
157 111 94
152 108 85
157 111 94
153 109 91
158 113 97
154 109 90
156 112 94
152 108 89
154 110 86
155 109 91
153 107 88
152 107 83
154 108 83
144 98 67
125 92 30
115 81 9
111 68 13
112 76 9
106 62 12
110 65 12
108 61 11
106 58 15
111 61 20
112 63 16
115 65 23
110 63 17
119 70 23
116 68 21
117 67 20
114 68 19
123 75 27
117 71 18
121 72 25
123 81 25
119 79 21
119 82 21
128 89 23
122 89 17
126 96 16
130 100 18
129 104 14
132 106 14
139 120 9
138 119 8
135 117 9
139 124 2
140 125 6
141 128 6
139 126 0
141 131 0
144 132 0
142 132 0
146 135 0
144 133 0
147 140 0
143 134 0
149 140 0
148 140 0
146 138 0
147 139 0
148 141 0
145 137 0
149 144 0
149 143 0
148 141 0
149 141 0
147 139 0
147 141 0
147 140 0
152 146 0
149 142 0
149 146 0
151 144 0
153 148 0
150 145 0
153 147 0
151 148 0
151 146 0
152 147 0
151 145 0
149 143 0
150 146 0
154 148 0
152 148 0
153 148 0
153 149 0
152 148 0
151 146 0
151 146 0
152 148 0
152 148 0
152 150 0
153 148 0
152 149 0
151 147 0
155 151 0
152 148 0
155 151 0
154 149 0
154 149 0
152 148 0
154 151 0
152 148 0
155 151 0
154 148 0
153 149 0
152 148 0
155 151 11
155 152 0
154 150 11
156 152 11
154 150 0
153 148 0
152 149 0
154 151 0
157 153 0
155 151 11
155 152 16
154 150 11
156 152 16
154 151 16
154 150 0
156 151 19
155 152 11
154 151 16
155 152 16
157 154 25
156 152 16
155 151 19
156 153 22
155 152 25
160 155 32
157 151 22
157 154 16
156 152 25
157 153 19
159 155 32
161 157 39
160 156 37
160 155 37
163 157 42
160 155 36
161 156 37
160 155 36
161 155 36
160 156 36
157 152 28
162 180 135
163 182 131
163 181 127
157 175 118
156 172 125
157 174 118
166 184 133
156 173 125
154 172 116
160 178 127
157 174 121
160 176 123
156 175 114
163 180 131
162 180 129
159 176 125
168 186 144
162 179 121
157 175 109
156 175 104
158 176 118
162 179 116
163 181 129
164 181 135
160 178 116
156 173 99
160 178 121
164 182 133
159 178 121
162 180 125
161 180 114
161 178 123
165 182 139
166 183 127
162 179 131
161 177 123
159 176 112
165 182 125
164 182 123
162 180 125
161 178 104
165 183 129
162 180 112
164 181 127
165 182 127
161 178 104
164 181 127
161 179 118
158 175 104
163 181 131
165 182 131
163 181 133
161 178 107
157 174 109
165 182 121
160 177 107
161 179 116
163 180 109
161 179 112
159 175 112
160 178 121
160 178 107
162 180 114
158 172 104
162 177 123
157 172 102
162 178 116
157 172 108
155 170 105
155 170 103
153 169 79
156 171 85
156 172 95
155 169 105
158 174 99
157 171 97
154 165 96
154 168 105
155 168 99
150 163 85
156 171 93
149 162 85
155 167 88
152 163 83
152 160 100
150 161 88
149 161 84
149 161 75
150 159 87
149 155 99
152 160 90
146 155 83
146 152 72
138 143 55
144 145 71
143 151 85
142 146 76
152 158 96
145 147 74
140 141 68
139 140 60
143 141 87
135 132 64
139 139 77
131 126 76
137 131 69
134 128 57
136 129 55
129 120 54
131 122 58
130 123 60
122 113 46
121 110 39
122 110 54
119 104 39
117 103 33
111 94 34
117 100 43
115 101 31
105 87 30
111 91 43
108 93 26
114 98 34
102 84 20
109 92 35
109 91 16
103 84 30
104 91 23
109 101 20
110 98 34
114 107 52
120 111 56
146 104 88
146 106 79
153 109 91
146 105 81
151 109 90
158 114 98
152 109 93
152 109 91
153 110 82
155 112 95
154 111 97
156 113 97
154 110 92
149 108 82
159 115 99
155 113 95
157 112 98
153 110 92
152 109 88
155 113 88
154 111 93
155 112 95
155 112 96
157 112 91
157 113 98
160 115 96
158 115 99
158 114 96
156 113 95
160 115 103
157 113 94
157 112 101
159 115 94
154 111 90
158 114 100
154 111 90
156 113 94
156 112 91
157 114 97
157 112 97
154 112 89
155 112 95
157 112 100
153 110 89
159 115 100
158 114 95
160 115 102
157 113 98
159 114 96
159 115 96
156 113 90
157 113 97
155 112 82
156 113 96
158 114 95
155 113 87
160 114 98
157 113 93
157 112 97
157 113 95
159 114 98
155 112 88
157 113 94
160 115 103
159 115 100
161 116 104
159 115 97
161 116 103
160 116 103
156 112 93
158 114 102
156 112 93
156 113 87
160 115 102
158 114 95
154 112 89
159 114 98
156 113 97
158 114 95
160 115 100
156 112 94
157 113 95
156 112 94
158 115 95
156 113 91
159 115 95
158 114 97
154 112 89
152 109 87
157 113 96
154 110 91
153 110 82
159 115 101
150 109 79
156 112 90
156 112 92
156 111 95
158 112 103
162 116 105
155 112 91
155 111 99
157 113 96
156 111 97
157 112 93
149 107 73
158 113 98
155 112 97
154 109 85
153 109 83
152 109 85
156 110 95
158 111 94
155 110 89
153 108 90
154 108 89
151 106 82
155 109 90
150 104 81
145 100 67
131 110 19
127 105 4
113 84 6
117 82 9
109 67 9
116 75 11
106 63 12
108 61 11
111 64 18
109 69 9
112 64 16
115 68 19
111 64 16
112 68 15
110 61 15
114 71 11
114 67 22
115 70 18
118 74 27
122 84 22
121 84 18
120 87 17
122 86 20
127 94 20
129 100 17
128 102 12
125 100 10
131 107 14
137 115 15
134 115 0
134 115 6
136 118 8
138 123 6
145 133 0
134 118 0
143 130 0
142 130 0
144 133 0
139 127 0
140 128 0
145 136 0
150 142 0
143 134 0
147 137 0
146 139 0
147 139 0
149 144 0
148 140 0
152 148 0
147 138 0
150 143 0
148 141 0
149 142 0
150 145 0
144 135 0
149 142 0
148 140 0
151 146 0
149 144 0
151 144 0
150 144 0
151 144 0
151 144 0
150 145 0
151 145 0
152 146 0
150 144 0
152 146 0
151 145 0
151 147 0
155 150 0
153 150 0
153 148 0
152 147 0
153 148 0
150 146 0
152 148 0
153 149 0
150 146 0
154 149 0
152 147 0
152 147 0
154 150 0
155 150 0
153 147 0
154 151 0
153 148 0
154 150 0
154 150 0
152 147 0
154 147 0
153 150 0
154 150 0
153 149 0
152 147 0
153 150 0
153 149 0
155 151 0
154 149 0
154 150 0
155 152 0
154 150 0
154 151 0
156 151 11
154 150 0
154 151 0
153 150 0
154 151 0
154 151 0
153 150 11
155 152 11
154 150 0
155 151 11
156 153 11
157 153 16
155 152 16
157 152 22
155 151 11
156 153 16
156 152 16
159 155 30
156 151 22
156 152 19
157 152 22
159 153 32
158 154 25
157 154 19
158 154 30
157 154 28
160 156 34
157 153 25
161 156 39
159 155 32
155 173 116
156 174 121
157 175 118
158 175 125
162 180 131
159 178 121
155 172 121
158 174 123
160 177 135
159 177 121
160 177 125
161 177 131
157 174 123
158 173 129
163 181 131
158 175 121
163 179 123
160 178 107
157 174 121
161 179 123
157 174 116
161 179 116
160 177 114
160 178 127
161 178 118
161 180 123
162 180 125
156 174 102
161 178 129
157 173 118
162 178 118
167 184 129
156 174 99
162 180 121
164 182 123
163 180 123
160 177 116
157 173 104
162 178 127
160 180 97
162 180 118
161 179 104
161 178 109
163 181 116
161 178 114
157 176 94
158 177 94
162 181 116
162 179 114
160 177 112
158 177 94
160 179 107
158 174 104
162 178 116
162 180 104
159 177 94
154 169 88
157 175 92
156 172 85
164 182 118
158 175 104
154 168 82
160 177 107
162 177 121
153 169 85
155 169 92
154 169 97
162 178 116
157 174 91
153 168 97
163 179 116
161 178 112
158 173 99
155 170 97
153 169 88
153 167 93
157 170 104
153 167 88
160 174 101
157 172 105
153 165 92
156 170 101
152 165 93
157 169 101
151 161 77
150 163 87
153 164 93
150 161 65
151 160 93
151 160 94
146 155 91
146 152 76
140 148 56
143 148 71
145 151 82
143 147 73
133 133 71
142 145 57
140 143 69
142 143 70
140 138 76
134 129 66
128 126 42
137 136 69
137 131 73
127 124 36
133 130 54
127 116 48
130 125 49
129 122 45
125 117 54
126 115 49
134 128 60
120 105 47
122 106 45
117 103 45
116 100 36
123 109 44
108 90 34
121 105 40
115 100 35
112 94 34
109 88 41
110 97 27
106 92 25
106 89 29
103 92 26
112 103 26
103 93 29
106 91 30
105 93 39
117 113 49
134 104 75
149 106 86
149 107 91
147 106 83
152 109 87
147 105 89
154 112 98
152 109 92
153 111 93
148 107 80
152 109 94
155 112 90
154 111 90
154 111 88
152 111 81
153 110 85
154 111 91
155 112 90
154 112 90
155 112 89
160 116 98
158 114 102
157 113 98
155 112 91
161 116 103
154 111 96
152 109 82
155 111 94
158 113 98
158 113 95
157 113 91
154 112 82
157 113 96
158 114 97
159 114 99
154 112 88
155 113 89
155 112 94
161 116 102
159 114 98
159 114 104
161 115 101
160 115 103
155 110 94
156 111 95
157 112 94
157 114 100
156 113 86
158 114 98
157 114 97
156 113 89
157 113 95
158 113 98
157 113 104
159 114 99
158 113 96
161 115 99
156 112 96
156 113 91
157 113 96
155 111 91
155 112 89
159 115 100
158 114 100
159 115 100
155 112 94
154 110 94
156 112 98
157 114 97
158 114 98
157 114 99
158 113 98
158 114 95
160 116 99
157 113 96
156 113 93
156 112 95
156 112 91
160 116 106
161 115 97
156 112 89
154 110 92
155 112 91
159 114 91
158 114 95
153 111 79
158 113 97
158 114 99
154 110 94
157 112 88
161 116 102
157 113 95
156 112 91
158 113 99
156 112 93
156 113 94
158 114 98
158 114 96
158 112 98
154 109 91
155 110 95
157 112 96
154 112 93
155 111 90
158 113 105
160 114 103
152 108 85
157 111 97
156 111 90
156 111 93
152 109 86
156 112 94
152 109 82
154 108 90
148 104 83
150 106 91
154 109 89
153 107 84
144 108 55
132 116 6
129 105 9
122 98 7
119 87 11
115 78 11
116 81 14
113 71 17
111 68 8
110 66 18
111 65 10
103 61 11
107 62 13
112 65 13
117 74 16
111 68 18
115 70 15
118 77 19
121 84 17
118 77 21
120 85 19
121 82 20
118 80 13
119 89 9
120 90 8
129 101 16
129 102 12
128 105 8
129 106 14
130 109 10
135 118 8
134 117 0
138 125 0
133 115 0
139 126 0
138 124 0
142 129 0
143 132 0
140 127 0
139 126 0
145 135 0
143 133 0
144 134 0
144 133 0
146 137 0
146 136 0
142 130 0
145 137 0
149 141 0
150 142 0
145 136 0
147 138 0
146 138 0
146 137 0
147 140 0
151 145 0
147 141 0
148 142 0
150 143 0
152 148 0
148 141 0
151 146 0
152 147 0
151 147 0
153 147 0
154 147 0
151 147 0
149 143 0
152 148 0
149 144 0
151 147 0
151 147 0
151 147 0
150 145 0
151 147 0
153 147 0
153 148 0
153 149 0
154 150 0
151 147 0
153 148 0
151 147 0
153 149 0
152 148 0
152 147 0
153 148 0
152 149 0
152 147 0
153 149 0
154 149 0
154 151 0
154 151 0
153 150 0
154 150 0
154 150 0
153 148 0
155 151 0
154 149 0
154 150 0
155 151 0
154 149 0
153 149 0
153 149 0
153 147 0
154 150 0
155 151 0
152 148 0
156 152 0
152 149 0
152 148 0
154 151 0
152 150 0
155 152 0
155 151 11
156 153 11
156 152 16
155 150 16
155 152 11
156 151 11
155 152 0
154 150 11
155 151 19
158 153 22
154 151 11
155 152 16
158 153 22
158 153 28
157 153 19
158 154 22
156 152 22
159 155 34
159 155 30
158 153 34
158 154 32
154 171 123
157 174 123
155 173 121
155 172 125
163 180 141
160 177 131
151 168 112
155 170 116
156 173 116
164 183 129
160 175 131
159 177 118
162 179 123
160 176 137
161 179 121
156 173 114
155 172 116
165 182 129
160 177 125
160 177 116
161 178 125
160 178 116
160 179 123
160 178 99
165 183 121
159 176 107
161 179 123
160 177 112
163 179 121
159 176 123
163 180 125
161 179 114
160 177 116
163 180 127
165 183 129
162 179 129
160 179 109
160 176 116
162 179 118
162 178 121
160 177 102
156 173 102
164 182 121
158 176 102
162 181 116
163 182 118
153 169 97
161 178 109
164 181 112
161 176 121
164 181 133
161 179 107
158 175 109
158 175 99
162 179 118
158 176 97
158 173 99
161 179 109
160 177 102
162 179 116
155 170 94
157 173 97
156 172 97
161 178 116
157 173 102
158 175 91
155 171 85
157 172 102
151 160 94
153 167 99
156 172 97
162 177 107
160 175 110
155 166 87
153 167 79
154 169 91
155 169 93
156 170 91
151 163 100
155 168 93
156 171 97
149 162 79
152 165 91
155 167 106
151 164 88
150 162 83
150 160 94
150 157 89
145 152 91
147 152 69
145 156 71
139 147 60
148 157 80
143 152 61
148 157 69
139 140 67
135 135 54
144 146 85
144 147 82
133 133 59
141 146 55
141 142 71
130 126 51
136 136 57
135 133 66
134 132 59
128 124 54
134 132 58
131 124 44
124 115 47
120 111 42
120 110 39
122 112 36
123 114 29
119 101 46
118 106 30
116 106 16
115 101 39
107 93 24
112 98 34
116 106 25
115 101 27
111 96 31
105 92 23
115 111 19
111 94 38
115 105 23
101 92 30
109 101 16
104 94 26
116 108 42
116 114 58
124 106 64
151 107 85
151 108 91
145 104 82
155 112 97
154 111 91
149 107 87
154 111 97
155 111 98
158 114 104
149 108 88
154 112 92
155 111 89
155 111 97
156 112 99
151 110 84
152 111 88
155 111 89
160 114 103
157 114 97
155 113 93
156 112 89
156 112 93
157 112 98
152 110 85
157 113 94
156 112 94
157 113 94
158 114 101
158 115 97
153 111 88
158 113 94
158 113 89
158 114 93
155 113 89
159 114 98
156 114 96
153 110 90
158 113 91
156 112 93
156 112 97
158 113 98
158 114 97
157 114 91
158 113 96
155 112 89
155 111 88
154 111 88
161 116 103
160 115 103
159 114 96
160 115 105
156 112 94
158 114 103
158 114 100
161 116 98
158 114 95
154 112 88
155 111 90
163 117 106
156 112 97
152 109 84
157 114 96
158 114 96
157 113 93
160 115 100
161 116 106
156 112 90
155 112 88
159 114 101
158 114 98
155 112 99
152 110 76
156 112 94
155 112 91
156 112 91
156 112 88
158 113 100
163 116 109
159 114 96
158 113 95
155 111 87
158 113 97
160 114 105
154 110 88
156 112 93
154 111 87
153 110 89
151 108 80
157 114 90
156 111 96
153 110 78
156 112 96
155 112 93
158 114 97
153 110 89
155 111 97
157 112 99
159 115 97
157 111 91
157 112 97
157 112 95
160 115 101
156 112 94
154 110 87
151 107 85
156 112 93
156 110 92
154 110 87
153 110 94
155 109 91
152 107 86
150 105 76
150 106 81
152 108 82
152 107 84
146 102 73
146 101 80
144 122 42
139 128 0
139 123 6
126 104 0
122 100 0
126 94 8
119 86 2
119 87 12
118 83 9
108 68 16
111 63 15
112 72 15
108 61 11
113 70 20
111 67 19
107 65 12
113 71 18
114 76 14
118 78 19
115 75 15
118 86 14
122 91 11
113 77 14
122 93 11
122 89 15
123 94 14
124 97 14
127 102 10
126 101 6
135 115 2
134 118 6
140 124 0
139 125 0
139 125 0
139 121 0
139 125 0
139 125 0
144 132 0
141 128 0
140 130 0
145 136 0
146 138 0
144 134 0
141 129 0
148 140 0
146 137 0
145 138 0
144 135 0
146 136 0
143 134 0
152 145 0
149 143 0
145 136 0
149 141 0
151 144 0
147 139 0
146 138 0
147 139 0
150 144 0
149 143 0
153 147 0
151 144 0
152 147 0
152 148 0
153 147 0
151 146 0
151 146 0
153 147 0
152 146 0
153 148 0
149 144 0
151 145 0
152 147 0
151 147 0
154 150 0
152 148 0
153 148 0
151 146 0
153 148 0
153 149 0
152 146 0
151 145 0
152 147 0
150 146 0
153 150 0
152 147 0
152 148 0
151 147 0
153 149 0
153 149 0
152 148 0
152 147 0
152 148 0
154 150 0
154 150 0
152 148 0
153 150 0
155 151 0
154 151 0
154 150 0
153 148 0
154 150 0
152 149 0
154 150 0
153 150 0
155 152 0
155 151 0
153 149 0
153 149 0
153 148 0
155 152 0
153 150 0
156 152 0
152 148 0
154 150 0
155 152 0
156 152 0
153 150 0
153 148 0
154 152 0
156 153 16
155 151 0
156 153 16
155 150 16
154 151 16
156 152 11
154 151 11
155 152 11
156 152 19
157 153 25
158 154 25
156 152 16
155 153 25
157 153 19
158 177 114
161 179 131
160 177 127
164 181 144
157 174 123
157 174 109
159 177 116
158 175 121
163 180 133
158 176 121
158 175 118
158 175 121
160 176 135
158 175 104
157 172 129
159 174 137
157 175 109
156 174 114
162 179 127
162 179 135
161 179 129
162 178 121
162 179 127
159 176 118
165 182 123
159 176 109
161 178 114
160 178 121
163 180 123
160 178 114
162 180 112
163 181 102
158 177 99
162 179 118
159 178 109
159 179 85
164 181 123
163 180 127
161 179 123
160 177 112
160 177 118
162 181 107
161 177 107
157 173 99
159 178 102
159 178 94
160 178 104
164 181 112
161 179 112
157 175 94
161 177 102
157 173 99
161 179 112
154 172 88
157 174 91
157 174 85
156 175 88
160 176 109
154 171 91
158 174 94
161 179 102
152 166 80
159 174 107
155 172 99
153 169 82
156 172 94
153 169 89
152 166 91
157 173 88
160 175 114
151 165 64
159 174 91
153 168 86
155 168 97
154 169 82
151 164 97
156 167 98
153 167 92
153 168 92
152 165 88
150 161 82
146 154 66
153 168 94
149 162 58
151 163 86
148 159 81
150 160 80
149 159 73
142 151 75
148 157 75
146 153 85
144 150 76
149 155 76
137 139 63
142 147 74
145 151 74
131 134 33
139 144 46
140 139 69
139 145 57
139 141 55
138 135 62
134 135 61
130 128 59
132 132 58
127 124 52
135 135 52
131 126 57
126 122 40
131 125 48
120 112 27
128 118 52
122 114 38
122 115 35
117 105 34
111 102 16
119 105 36
109 95 24
119 108 34
120 106 35
115 107 23
116 105 36
112 101 29
108 91 29
109 97 32
108 95 30
111 100 28
110 101 47
108 106 22
109 109 25
114 110 33
121 120 58
119 119 14
144 103 83
145 104 78
150 107 84
143 103 72
154 111 90
153 110 90
151 110 87
153 111 90
147 106 82
154 112 93
150 108 87
154 111 88
157 112 100
154 111 87
155 112 94
162 117 104
156 112 100
153 110 84
155 111 100
155 113 91
152 110 88
159 113 96
157 112 96
154 111 87
153 111 93
159 115 102
156 112 94
153 109 86
157 113 96
153 111 88
158 115 99
157 112 91
155 111 99
153 111 90
156 111 91
154 112 93
152 110 89
156 111 91
157 113 99
157 113 91
156 111 93
159 115 95
155 112 93
156 113 97
156 111 87
158 114 100
162 116 106
159 114 97
157 113 89
158 114 94
158 114 97
160 115 103
160 115 99
159 114 94
156 112 91
159 115 100
156 112 89
157 112 100
158 114 95
155 113 90
157 113 97
156 112 97
154 110 88
159 115 98
159 114 94
156 113 97
159 113 98
158 113 91
162 116 103
153 111 85
157 113 91
158 115 98
158 113 101
154 111 84
157 114 98
158 113 100
159 113 103
156 113 93
157 112 90
155 111 93
156 112 89
155 111 95
158 113 103
157 112 98
158 113 96
157 113 96
155 111 96
157 113 93
157 114 93
157 112 93
155 111 92
157 112 91
158 112 100
159 114 99
157 114 102
154 111 83
153 110 91
153 109 92
155 110 93
157 113 96
155 111 91
155 111 92
155 111 94
155 110 85
157 112 93
158 113 97
153 110 86
154 111 90
156 111 93
151 107 79
154 109 91
155 110 93
155 109 91
155 109 98
150 105 76
150 105 86
147 103 74
145 133 24
138 125 0
135 118 0
130 111 6
125 101 0
119 94 6
118 88 8
129 104 12
109 74 12
112 76 6
114 80 6
108 68 9
106 66 10
110 73 6
113 76 13
111 76 15
112 74 14
115 78 16
115 83 11
111 75 11
115 84 6
119 90 12
117 85 14
124 99 9
125 98 12
121 94 10
123 101 8
124 101 6
124 102 8
128 111 0
134 116 0
127 106 0
138 125 0
133 116 0
137 120 0
138 122 0
136 123 0
144 133 0
139 127 0
141 128 0
141 131 0
143 132 0
147 138 0
141 131 0
144 135 0
145 134 0
147 137 0
144 133 0
149 140 0
150 144 0
146 135 0
143 134 0
146 137 0
146 138 0
150 145 0
147 139 0
149 142 0
147 141 0
149 143 0
147 141 0
150 145 0
149 143 0
150 144 0
149 144 0
152 146 0
151 143 0
151 146 0
150 145 0
149 144 0
151 146 0
150 143 0
151 147 0
147 139 0
151 147 0
149 144 0
152 146 0
152 147 0
151 146 0
149 145 0
152 148 0
150 146 0
151 145 0
151 144 0
152 148 0
154 149 0
151 147 0
154 148 0
150 145 0
153 149 0
152 148 0
153 148 0
153 149 0
153 150 0
150 145 0
155 151 0
154 151 0
154 150 0
154 151 0
152 148 0
152 148 0
152 146 0
154 150 0
155 151 0
154 151 0
153 150 0
154 150 0
153 149 0
155 151 0
154 150 0
153 151 0
154 150 0
154 150 0
152 150 0
153 149 0
154 150 0
153 148 0
153 150 0
155 152 0
154 150 0
155 152 11
155 152 0
153 150 0
154 151 0
156 152 16
155 151 11
155 151 0
156 152 0
157 153 19
153 149 11
156 151 16
156 152 19
155 151 16
155 151 11
156 151 19
155 172 109
148 166 102
159 175 125
160 176 133
161 178 121
149 165 107
161 178 141
160 177 125
160 177 116
159 175 118
164 181 139
162 180 114
157 174 109
154 171 114
159 177 114
156 172 112
153 171 102
150 168 88
161 176 129
158 175 121
160 177 114
157 174 116
160 177 102
164 181 125
161 180 121
161 178 123
157 174 104
157 176 99
158 177 99
163 181 118
165 183 123
157 175 107
158 177 102
158 176 104
152 170 91
158 174 107
160 178 109
158 176 114
163 180 116
156 173 107
161 179 114
157 175 94
161 179 114
150 167 75
157 175 97
156 173 88
158 173 107
155 173 88
157 173 102
161 179 104
154 171 88
157 174 91
158 175 99
155 172 97
158 175 94
157 172 104
154 171 91
155 171 82
154 171 75
155 172 75
156 174 91
155 172 88
156 171 97
157 173 97
157 174 102
158 175 99
158 173 88
153 167 89
158 171 113
156 173 94
156 173 88
155 169 82
154 168 83
150 160 95
154 169 88
156 170 95
149 161 76
152 167 91
153 168 75
147 159 72
153 166 77
147 161 72
151 164 64
146 159 72
150 162 80
151 160 90
142 152 70
147 158 81
142 152 52
147 156 65
140 148 57
149 158 74
142 146 54
143 150 38
144 151 76
142 148 67
141 147 74
147 151 86
138 143 57
130 128 59
136 138 58
135 138 46
129 127 31
134 131 51
130 127 54
135 133 50
130 127 54
123 120 24
129 126 44
126 120 43
130 128 44
124 115 21
116 107 27
120 114 38
122 115 20
116 106 42
115 102 36
113 96 26
112 102 26
112 95 33
108 93 28
111 95 34
109 98 28
122 120 26
110 97 28
115 107 29
112 105 24
110 107 47
114 109 26
117 111 35
109 108 45
116 120 45
120 125 72
133 109 62
144 103 69
146 105 78
144 103 72
147 106 84
154 110 98
151 109 82
147 106 78
151 109 93
161 116 102
152 108 89
151 109 85
153 111 88
152 108 85
151 109 88
155 112 94
153 110 88
156 112 91
156 113 93
155 112 88
154 111 89
156 113 90
155 112 88
158 114 95
158 113 98
157 112 96
158 113 99
159 114 95
157 113 97
155 113 88
157 112 95
157 114 89
160 115 106
157 113 94
161 116 103
154 111 91
159 115 98
156 112 100
155 112 90
160 115 100
158 113 97
153 112 87
156 112 90
159 115 96
156 112 93
156 113 97
157 113 93
155 113 87
157 113 93
160 116 100
152 109 87
154 112 85
158 113 97
152 110 81
157 114 93
155 112 93
156 112 97
159 114 98
155 111 93
156 111 88
153 109 86
154 110 89
158 115 101
154 111 85
155 112 93
155 112 87
156 111 90
153 110 86
159 115 101
157 113 96
157 113 93
158 114 95
159 114 106
157 114 94
159 115 94
153 110 89
153 110 87
156 113 94
151 108 80
158 114 94
155 111 90
155 111 93
154 111 88
156 111 95
157 113 94
155 112 95
159 115 97
163 117 104
160 114 103
152 109 89
159 114 99
153 108 85
156 112 91
158 113 90
151 108 87
156 112 95
156 112 91
155 111 79
156 112 96
156 112 92
158 113 93
158 114 96
155 111 85
155 110 85
159 114 97
155 112 90
150 107 84
155 110 88
157 111 95
152 106 88
151 107 86
152 106 83
151 106 79
152 107 83
147 101 78
149 105 85
144 109 67
143 133 0
143 132 0
133 115 0
138 125 0
128 110 6
129 104 9
121 95 7
124 99 8
122 92 10
116 85 6
112 77 9
109 73 9
111 80 6
111 76 6
119 87 14
109 73 6
114 77 12
109 75 8
115 84 11
113 82 8
108 75 10
119 94 10
118 91 8
121 95 9
121 100 6
122 98 6
128 103 0
132 114 6
129 110 0
136 119 6
132 113 0
136 119 0
135 118 0
135 122 0
135 119 0
135 121 0
135 122 0
137 124 0
146 133 0
144 129 0
143 130 0
141 129 0
145 135 0
146 136 0
145 135 0
144 135 0
142 132 0
145 135 0
149 142 0
147 138 0
144 133 0
146 138 0
148 140 0
148 141 0
151 145 0
147 138 0
150 143 0
150 144 0
151 142 0
150 145 0
146 137 0
146 137 0
148 141 0
149 142 0
150 142 0
147 140 0
148 141 0
151 146 0
151 145 0
149 142 0
149 143 0
151 147 0
150 143 0
151 145 0
149 144 0
150 145 0
151 146 0
152 147 0
150 145 0
153 148 0
152 147 0
150 145 0
153 147 0
151 146 0
155 150 0
149 145 0
153 148 0
151 147 0
154 149 0
153 149 0
153 149 0
153 150 0
152 148 0
154 148 0
154 150 0
153 150 0
152 149 0
152 149 0
153 150 0
153 147 0
151 146 0
154 150 0
155 149 0
153 149 0
155 150 0
153 150 0
153 148 0
151 147 0
152 148 0
154 150 0
154 150 0
154 150 0
153 149 0
154 150 0
153 150 0
153 150 0
154 151 0
153 150 0
153 150 0
154 150 0
154 150 0
156 153 0
153 149 0
154 150 0
155 152 0
155 152 0
155 150 11
156 153 11
154 150 0
155 151 0
155 151 11
155 151 11
154 150 0
154 150 16
163 180 123
154 170 121
155 172 118
158 175 102
154 171 118
156 173 112
151 170 97
154 172 91
155 173 112
157 175 112
154 171 107
159 175 123
161 179 125
158 175 107
157 174 123
153 170 109
164 182 131
158 176 123
164 180 133
160 179 109
160 176 114
162 180 112
158 175 104
159 175 107
161 180 104
160 178 107
161 178 125
157 176 91
154 172 91
159 178 97
153 170 94
158 176 102
156 174 97
159 177 99
158 175 104
159 175 114
154 172 99
161 180 109
160 177 112
158 176 107
157 174 91
158 175 91
155 173 88
152 166 64
157 174 99
157 175 94
161 178 114
156 174 97
163 179 116
155 172 91
159 176 104
157 174 94
154 173 75
157 173 97
156 172 102
159 177 94
156 174 97
154 168 85
157 172 94
153 170 82
153 169 79
159 176 97
152 168 85
150 164 75
156 170 99
157 173 97
155 172 97
156 173 102
157 173 102
149 163 75
153 169 75
150 165 72
155 172 64
153 168 68
153 167 75
149 162 79
152 166 75
151 163 69
151 165 69
150 163 76
149 160 79
146 158 76
147 158 49
148 160 68
145 156 68
149 163 76
148 157 82
145 153 76
150 161 96
149 159 87
142 150 63
141 147 66
147 154 78
137 143 61
145 153 60
136 143 44
138 140 61
133 139 41
136 140 47
132 135 50
133 135 46
137 136 51
135 136 52
137 140 49
129 128 43
125 120 52
123 112 36
130 120 46
129 131 40
125 118 47
128 121 41
112 100 27
121 113 33
115 101 44
109 98 33
116 105 26
117 108 29
115 104 20
111 98 22
113 103 23
119 108 31
111 100 24
106 92 20
120 115 38
112 97 17
109 103 17
113 107 34
109 96 33
122 124 47
118 118 34
120 123 46
122 127 52
118 121 51
123 113 63
146 105 76
145 104 81
148 107 82
146 105 84
151 109 87
150 107 86
153 110 94
156 112 94
148 107 78
150 108 89
149 107 85
152 109 89
155 112 88
155 112 90
150 107 85
150 108 87
154 110 95
153 111 89
157 113 95
156 112 87
157 113 93
156 111 98
154 110 96
155 111 88
155 112 89
157 113 91
155 112 85
156 111 101
155 112 87
152 110 86
151 109 85
156 113 86
156 112 94
157 113 95
156 113 90
154 111 87
154 111 90
153 110 87
155 112 88
160 115 100
157 113 93
158 114 97
152 111 88
158 114 94
158 114 95
156 112 88
159 115 101
154 110 86
159 114 99
160 115 100
156 112 93
155 113 86
157 112 94
156 112 85
156 112 95
157 112 94
158 114 93
157 113 94
157 113 91
154 111 88
158 114 90
159 114 99
157 112 94
159 115 103
154 112 84
157 113 91
159 114 99
153 111 82
157 113 95
158 114 93
155 110 89
155 112 96
156 112 91
157 112 95
153 109 82
155 111 93
157 113 99
156 112 96
159 114 103
156 112 86
154 111 87
154 111 88
160 115 96
153 109 88
153 110 82
154 111 85
159 114 97
156 113 92
153 109 90
155 110 93
154 111 85
153 111 89
154 110 88
159 113 96
157 112 91
157 113 97
158 113 98
154 110 91
160 115 99
154 110 89
152 108 86
157 113 92
157 111 93
154 109 81
157 113 91
152 107 89
154 109 90
155 110 93
149 105 85
150 106 83
149 104 83
149 105 74
148 104 78
147 103 80
151 107 83
143 125 41
144 132 0
139 124 0
136 121 0
132 116 0
136 121 0
131 112 0
125 106 0
119 97 0
127 103 0
111 85 0
119 91 6
113 79 8
112 83 6
119 91 10
114 88 6
115 85 9
112 78 14
114 85 8
112 79 10
114 85 0
115 84 9
116 89 6
123 96 6
119 96 1
116 90 0
125 101 0
127 104 0
126 103 0
128 107 0
126 106 0
131 110 0
137 119 0
127 109 0
138 121 0
136 122 0
131 118 0
135 120 0
140 126 0
136 122 0
140 125 0
137 125 0
136 118 0
139 125 0
141 127 0
141 132 0
143 130 0
143 134 0
145 135 0
148 139 0
147 136 0
143 132 0
145 135 0
144 135 0
145 135 0
145 135 0
149 139 0
149 140 0
148 139 0
149 143 0
147 140 0
148 142 0
148 140 0
149 144 0
148 139 0
146 138 0
151 146 0
147 140 0
151 145 0
149 142 0
149 142 0
149 142 0
151 146 0
151 146 0
152 148 0
153 148 0
151 144 0
152 145 0
150 147 0
151 145 0
152 147 0
150 144 0
148 143 0
152 145 0
151 145 0
154 149 0
150 145 0
152 147 0
150 145 0
154 149 0
153 147 0
153 146 0
152 149 0
151 145 0
153 149 0
153 147 0
153 148 0
152 147 0
153 146 0
152 147 0
151 147 0
152 148 0
154 150 0
154 149 0
151 147 0
151 146 0
154 149 0
154 149 0
155 151 0
152 148 0
153 150 0
152 147 0
155 150 0
153 150 0
151 149 0
153 150 0
154 150 0
153 148 0
152 147 0
155 152 0
155 152 0
153 150 0
153 149 0
155 151 0
154 150 0
153 150 0
154 151 0
153 150 0
154 148 0
154 151 0
154 151 0
154 150 11
156 152 11
153 150 0
157 153 11
155 171 127
161 178 125
153 171 114
156 174 112
152 169 109
159 176 125
162 180 125
155 173 104
155 172 102
157 176 99
155 172 107
155 172 107
157 175 109
162 179 118
163 180 123
161 178 121
153 171 91
155 173 107
161 178 104
160 177 112
165 183 137
155 172 94
152 169 104
161 178 121
161 178 112
155 172 102
157 174 107
161 178 109
159 176 109
163 181 116
154 172 104
158 175 99
158 175 107
158 177 99
157 171 104
161 179 114
155 174 97
155 173 99
160 179 99
156 172 88
158 177 97
161 178 102
158 176 102
160 177 107
157 174 91
154 172 79
158 175 99
156 174 102
159 175 109
157 171 102
156 174 91
157 175 88
150 167 85
155 172 97
154 171 102
157 170 104
156 172 85
155 171 88
156 173 91
152 168 72
157 173 102
152 170 82
154 169 85
153 168 85
154 170 79
156 172 88
149 166 72
152 166 82
156 171 99
154 169 94
151 166 82
148 163 56
153 168 75
152 165 75
152 164 91
154 169 79
153 167 89
150 162 68
149 161 79
147 160 67
143 152 61
151 164 79
144 155 60
151 162 61
145 158 63
145 155 75
141 149 69
144 156 56
146 155 77
144 153 68
134 141 28
144 152 57
139 146 65
132 137 51
141 149 58
146 152 74
139 145 58
134 137 58
137 141 53
134 136 44
135 138 54
135 136 23
123 123 33
131 132 41
128 121 42
128 123 32
129 124 47
131 130 27
129 123 52
130 125 35
120 119 28
117 103 39
124 114 37
117 110 26
112 101 25
115 108 24
116 112 18
114 104 25
113 101 29
112 103 17
114 108 27
108 99 17
121 116 24
109 96 23
110 108 28
107 103 12
108 104 14
114 110 52
121 122 49
114 115 32
118 120 50
113 116 51
125 132 75
123 130 65
134 101 70
147 105 81
144 103 79
152 109 88
148 106 74
152 109 87
153 110 89
155 111 90
154 111 91
154 111 93
151 110 82
149 106 74
146 104 83
156 112 100
152 108 85
157 113 97
154 110 93
156 112 97
158 114 97
157 112 92
151 109 81
156 112 87
155 112 90
159 114 98
158 112 100
155 112 87
156 113 94
156 112 91
156 112 93
155 111 88
160 115 104
157 113 90
157 112 96
155 112 93
154 111 88
158 114 99
154 111 94
155 111 90
153 111 87
158 113 100
158 114 88
160 115 101
159 115 95
159 115 96
160 115 99
158 114 98
157 112 93
159 115 94
156 112 90
159 114 96
158 114 97
158 113 96
158 114 93
151 109 86
157 113 91
151 110 89
154 110 86
159 115 100
158 114 88
159 115 98
154 111 85
154 109 88
156 112 91
160 115 98
156 112 94
153 110 88
153 111 84
155 112 84
157 112 96
153 110 88
156 112 93
156 112 96
156 113 91
159 114 98
159 114 95
160 115 102
156 112 88
160 115 102
151 109 85
155 112 88
159 115 95
154 111 88
154 111 92
155 111 91
158 113 94
156 111 90
157 113 96
154 110 97
155 111 87
159 114 100
154 111 87
157 112 94
155 111 89
152 108 84
154 110 85
158 113 91
157 113 98
154 109 88
155 111 91
153 110 85
152 109 84
158 113 96
156 112 90
155 110 90
153 108 79
155 111 83
157 111 93
152 108 81
155 111 88
151 106 80
149 104 77
147 104 73
147 104 73
147 103 81
142 104 65
142 135 0
143 135 0
141 128 0
141 129 0
133 115 0
130 113 0
130 114 0
131 112 0
125 105 0
118 94 6
118 92 0
121 94 6
118 88 6
115 86 0
112 81 8
117 90 6
115 87 0
113 85 3
116 90 2
113 85 6
118 94 8
122 99 6
119 91 8
123 100 6
115 91 6
119 96 2
122 101 0
126 107 0
129 109 0
127 109 0
135 116 0
133 116 0
131 114 0
135 121 0
136 122 0
137 120 0
139 126 0
137 121 0
137 123 0
138 123 0
142 129 0
140 127 0
144 132 0
147 138 0
145 134 0
143 131 0
140 127 0
146 135 0
140 130 0
145 136 0
147 136 0
146 138 0
147 137 0
146 139 0
146 138 0
145 136 0
145 137 0
146 137 0
145 136 0
147 139 0
151 144 0
149 142 0
144 136 0
148 141 0
147 139 0
149 142 0
149 142 0
151 145 0
149 144 0
152 144 0
151 147 0
150 143 0
147 139 0
151 144 0
150 145 0
152 147 0
146 140 0
151 146 0
151 146 0
151 145 0
153 149 0
152 148 0
151 145 0
154 148 0
149 142 0
151 146 0
151 145 0
151 145 0
153 147 0
152 148 0
153 148 0
151 144 0
150 146 0
149 142 0
154 149 0
151 144 0
155 150 0
151 148 0
150 146 0
152 146 0
153 148 0
152 148 0
153 148 0
152 148 0
155 151 0
152 148 0
155 150 0
153 148 0
152 148 0
151 147 0
154 150 0
154 149 0
153 149 0
152 149 0
153 150 0
155 150 0
152 148 0
155 152 0
153 150 0
156 152 0
152 148 0
153 150 0
156 152 0
153 150 0
154 151 0
154 150 0
154 151 0
154 151 0
153 148 0
152 149 0
155 151 0
153 148 0
153 149 0
155 151 11
153 149 0
155 173 99
155 172 127
153 171 109
151 168 114
147 164 107
153 170 102
148 164 94
160 178 118
153 171 102
151 167 102
153 170 109
149 166 94
148 163 97
157 174 114
159 176 112
155 173 97
160 176 102
158 175 97
151 168 99
161 178 127
156 173 102
156 172 99
156 172 104
156 174 109
154 170 91
157 174 112
154 171 114
156 174 88
152 169 72
159 178 118
157 175 88
154 172 104
160 175 114
160 179 102
160 177 114
153 168 94
157 174 104
160 177 97
161 178 112
160 178 104
156 173 94
155 174 79
152 166 91
158 175 107
155 172 72
153 171 85
155 172 85
156 171 102
153 170 94
157 174 109
153 170 91
154 170 75
153 170 91
153 170 64
149 167 68
155 171 82
150 165 79
152 169 64
152 169 82
155 172 94
152 168 72
149 163 82
156 175 88
155 173 79
150 167 68
151 165 82
155 170 94
149 164 65
153 167 102
155 170 75
146 162 39
149 164 60
148 164 72
152 169 72
149 163 68
151 165 68
146 161 56
147 157 82
142 153 51
149 163 72
146 157 64
147 161 64
152 165 82
141 153 41
146 160 60
146 158 51
140 149 38
143 154 54
140 149 51
136 143 36
141 150 66
139 147 57
143 150 57
139 146 61
139 141 65
138 143 49
138 144 50
134 133 41
132 136 34
125 127 32
129 129 46
129 131 43
132 129 47
127 125 40
127 127 34
126 122 48
124 119 28
134 131 54
125 117 22
121 114 36
119 117 17
121 115 24
125 121 27
123 118 18
123 118 21
110 98 26
114 105 34
122 118 29
112 103 35
103 93 16
111 101 20
104 95 11
109 103 23
116 116 0
107 102 20
117 111 36
112 111 41
111 110 44
113 115 32
116 116 39
109 111 26
120 123 41
114 121 46
122 134 64
126 112 80
148 106 82
144 104 74
149 106 82
154 111 93
146 104 76
145 105 87
150 108 87
152 108 88
154 111 88
156 112 88
154 111 88
149 107 80
156 112 93
151 109 86
154 111 89
155 111 96
156 112 86
154 112 86
154 110 85
152 109 90
153 109 89
153 110 90
152 109 88
155 111 90
157 112 98
154 111 87
155 112 88
153 110 89
155 111 93
158 114 102
152 108 87
156 112 96
154 111 86
158 114 96
153 110 82
152 110 85
155 110 93
155 111 88
154 111 86
153 110 95
158 113 98
157 112 93
157 113 96
155 111 94
159 115 99
160 115 95
156 112 90
157 112 94
160 114 102
157 113 87
155 111 90
157 113 93
160 115 100
159 115 100
155 112 93
159 115 101
158 114 96
157 113 99
157 114 90
158 114 101
155 112 91
159 115 98
156 112 85
159 114 100
154 111 84
156 113 93
158 114 91
156 113 94
157 113 94
153 111 85
157 113 95
158 113 94
156 113 89
155 112 89
155 111 81
155 111 90
153 109 90
157 112 90
154 111 88
157 113 94
153 110 84
159 113 100
156 111 95
150 108 74
157 113 94
160 115 100
155 112 88
156 112 84
157 113 93
158 113 95
154 109 90
155 111 91
151 108 79
155 111 88
156 113 92
152 109 85
155 111 92
158 113 93
151 108 81
151 108 81
155 110 89
158 112 93
155 110 89
154 109 86
155 111 92
154 108 87
155 110 92
148 104 78
151 107 81
148 105 76
151 107 88
150 106 86
146 101 73
138 119 40
140 134 0
144 134 0
146 138 0
138 125 0
141 127 0
132 113 0
135 117 0
133 116 0
134 116 0
127 106 0
119 95 0
119 98 0
119 93 2
115 90 0
114 89 6
117 94 0
117 92 0
122 99 6
122 97 8
118 93 6
121 98 0
124 101 6
120 94 1
123 100 0
111 87 0
121 96 6
122 100 0
125 104 0
123 103 0
136 116 0
131 115 0
129 109 0
135 116 0
134 115 0
129 112 0
137 122 0
136 121 0
135 120 0
141 125 0
136 123 0
138 122 0
142 129 0
137 122 0
142 131 0
145 133 0
144 133 0
142 130 0
147 136 0
141 129 0
142 131 0
143 134 0
144 133 0
143 135 0
145 137 0
143 133 0
146 137 0
144 135 0
149 141 0
149 139 0
147 136 0
147 141 0
147 138 0
149 143 0
149 143 0
148 141 0
148 141 0
146 138 0
149 142 0
149 142 0
147 141 0
151 144 0
146 137 0
146 139 0
150 145 0
150 144 0
150 143 0
150 144 0
147 140 0
146 140 0
150 145 0
150 144 0
150 145 0
151 146 0
151 146 0
149 144 0
151 146 0
153 148 0
151 147 0
153 148 0
152 146 0
154 149 0
150 145 0
152 146 0
154 149 0
153 148 0
153 149 0
153 147 0
153 149 0
150 146 0
154 150 0
152 146 0
150 145 0
153 150 0
153 147 0
151 145 0
154 149 0
153 148 0
152 148 0
153 149 0
153 148 0
153 149 0
152 147 0
154 149 0
153 149 0
153 149 0
152 148 0
152 149 0
152 147 0
153 149 0
156 152 0
153 149 0
153 149 0
153 149 0
155 150 0
154 149 0
155 151 0
153 148 0
154 150 0
152 148 0
153 148 0
155 151 0
155 151 0
155 151 0
155 151 0
155 152 0
157 173 121
158 175 121
156 174 112
156 174 94
152 169 109
158 174 139
156 173 97
154 171 109
152 168 109
153 171 97
152 170 97
154 171 97
166 182 131
156 174 107
154 171 104
156 173 121
157 174 104
156 174 107
159 177 112
154 171 99
158 175 114
157 175 102
160 177 109
160 177 109
157 175 112
154 171 91
151 170 97
157 173 97
155 173 97
154 172 94
155 174 94
158 175 99
156 173 94
158 175 102
156 173 94
159 176 107
154 171 85
159 175 94
157 174 99
160 179 94
155 172 88
155 173 82
157 172 112
158 176 85
150 165 64
158 175 99
153 169 79
155 173 91
156 172 99
154 172 79
154 170 75
154 170 79
155 171 99
156 172 82
152 167 75
159 176 99
151 167 75
152 168 82
157 173 97
154 171 72
151 166 79
151 167 82
151 168 68
149 164 72
150 164 82
150 165 68
153 168 97
151 163 76
155 170 82
149 164 91
144 159 22
145 158 72
149 163 45
149 163 75
146 158 64
151 165 83
146 158 61
149 165 56
146 159 51
149 165 60
146 159 60
141 151 57
146 155 56
150 162 65
140 152 40
142 152 53
142 154 47
145 152 69
140 147 34
141 148 60
135 142 20
137 143 54
139 150 32
141 149 47
138 145 36
138 145 46
132 135 36
133 134 41
131 133 28
133 136 28
133 138 26
135 136 46
126 127 12
127 126 12
126 127 20
123 120 28
125 123 27
121 119 36
120 119 11
116 115 12
120 116 17
123 120 33
123 118 26
119 114 20
115 109 16
112 112 12
115 104 22
115 112 31
114 106 15
118 115 17
111 106 18
104 99 26
116 111 40
115 112 26
115 111 38
114 110 50
122 120 40
118 117 47
118 120 34
121 125 60
127 130 85
111 117 51
102 105 45
115 124 72
164 181 40
145 109 77
148 106 81
149 106 81
152 108 90
152 109 82
149 106 86
152 109 82
149 108 86
151 109 85
152 108 90
151 108 86
155 111 93
153 109 90
153 109 88
153 108 89
157 113 93
146 105 84
156 113 94
152 109 90
153 110 89
154 111 84
154 110 92
157 113 99
157 113 95
153 110 84
158 114 101
156 112 91
154 111 81
157 111 93
157 113 94
155 111 85
155 111 89
156 112 89
156 112 90
153 110 87
157 113 98
156 111 89
159 114 102
153 109 85
157 112 96
154 111 89
155 111 89
157 114 96
159 114 97
152 110 81
154 112 84
158 114 96
160 115 104
155 111 91
158 113 98
159 115 103
155 112 90
154 111 89
155 111 91
160 114 100
154 112 82
154 111 85
158 113 100
160 115 100
156 112 97
155 111 89
157 112 94
156 112 94
160 115 100
154 111 84
152 109 81
155 112 86
154 111 86
158 114 93
158 114 94
157 112 95
156 113 91
154 111 88
157 114 91
159 114 96
154 111 84
155 110 91
154 110 91
156 113 93
158 114 92
158 113 94
156 111 88
154 111 90
156 112 96
159 113 101
161 115 101
150 108 78
152 108 86
156 112 88
155 112 92
155 111 85
157 113 92
152 108 87
150 106 86
155 111 91
156 111 95
154 110 87
158 113 94
156 113 95
152 108 84
154 109 92
154 109 86
154 110 88
154 110 88
156 110 90
150 106 76
153 108 89
156 111 97
154 108 85
151 107 85
153 107 85
152 106 83
147 107 68
160 176 14
134 129 0
142 131 0
143 131 0
138 125 0
138 125 0
140 126 0
131 112 0
129 107 0
131 111 0
122 99 0
120 100 0
120 98 0
123 101 0
115 88 0
117 92 0
117 92 0
121 99 0
118 99 0
110 81 0
115 89 0
115 93 0
118 96 0
124 99 0
122 99 0
124 100 0
125 105 0
123 101 0
126 105 0
126 105 0
128 108 0
130 112 0
129 111 0
126 106 0
133 116 0
134 119 0
138 123 0
130 113 0
141 127 0
137 119 0
138 122 0
141 127 0
142 130 0
144 130 0
140 127 0
136 121 0
141 128 0
145 133 0
145 135 0
144 134 0
142 131 0
145 136 0
145 135 0
143 133 0
147 139 0
145 136 0
144 134 0
143 133 0
147 137 0
147 141 0
146 136 0
147 139 0
146 138 0
148 139 0
151 143 0
148 143 0
150 144 0
146 136 0
149 142 0
146 140 0
149 142 0
148 141 0
146 139 0
150 144 0
151 146 0
151 144 0
150 141 0
148 139 0
150 144 0
149 141 0
150 143 0
151 144 0
152 145 0
150 142 0
149 142 0
150 143 0
154 149 0
151 146 0
151 146 0
151 145 0
151 145 0
150 145 0
153 148 0
150 145 0
150 146 0
153 148 0
152 148 0
151 145 0
151 143 0
152 147 0
153 149 0
149 145 0
153 148 0
153 148 0
152 147 0
151 148 0
152 146 0
150 145 0
153 148 0
153 148 0
151 144 0
154 149 0
153 151 0
154 150 0
152 146 0
152 148 0
151 146 0
153 149 0
152 149 0
156 152 0
154 149 0
152 147 0
154 150 0
153 150 0
154 151 0
154 151 0
153 149 0
152 147 0
155 151 0
154 149 0
157 154 0
153 150 0
155 151 0
152 148 0
155 150 0
155 151 0
163 181 118
151 169 102
151 167 104
150 167 91
151 168 97
155 172 114
154 172 104
148 166 82
158 176 114
153 172 94
153 171 94
156 174 112
152 168 104
155 172 107
156 173 114
153 170 91
151 168 102
154 171 109
151 168 94
158 176 102
160 177 104
157 174 97
155 172 102
145 163 82
152 168 97
153 170 97
162 179 116
156 172 94
155 173 97
159 176 109
158 175 97
152 170 91
155 173 91
147 163 79
158 174 116
152 168 79
158 175 109
152 169 94
155 171 91
153 170 85
154 169 88
153 170 75
154 172 85
162 179 104
156 173 91
151 168 75
152 168 85
153 171 64
146 162 60
152 169 68
151 168 68
151 168 75
158 175 82
149 165 64
151 167 75
156 172 82
150 165 79
152 166 72
151 166 75
153 170 72
151 167 72
151 166 79
146 161 64
153 167 68
151 167 72
148 159 91
154 169 82
152 168 79
151 166 56
147 162 64
149 164 64
151 165 82
149 164 56
149 163 68
148 161 69
147 161 64
141 154 32
143 158 51
150 164 73
149 161 76
144 156 61
149 163 73
138 148 34
145 156 64
141 153 56
142 154 51
146 159 60
141 149 34
145 156 63
143 153 53
143 153 45
144 154 52
136 141 54
138 144 53
133 138 17
132 139 45
135 140 41
134 141 26
130 134 23
139 146 49
134 136 16
133 131 46
134 138 12
127 128 36
128 127 38
125 123 31
129 125 20
126 122 35
124 122 29
117 114 33
113 106 29
124 126 19
117 113 20
114 108 25
116 115 12
108 105 6
113 110 12
111 104 24
114 110 11
109 102 17
112 107 16
113 106 21
119 118 0
113 108 16
110 107 28
118 123 39
119 120 47
113 118 34
119 124 41
116 120 32
113 120 39
114 123 68
121 130 68
147 165 45
170 193 0
159 163 44
146 105 74
144 103 77
146 105 83
148 107 80
156 111 93
153 111 91
150 108 89
155 112 95
151 108 85
152 109 90
156 112 86
156 113 90
154 111 92
150 108 80
151 108 80
150 107 84
153 111 88
156 111 92
155 111 87
155 111 90
159 113 103
155 110 93
156 112 90
155 111 87
153 110 87
152 110 90
159 114 97
157 112 94
156 111 93
157 113 98
158 114 93
159 114 101
155 111 89
154 111 86
152 110 84
152 111 86
156 112 96
157 113 93
154 112 85
156 112 89
159 115 94
156 113 95
154 112 85
157 112 96
157 113 98
158 113 90
157 113 92
156 113 89
155 111 88
155 111 87
160 115 99
159 115 90
154 111 88
158 113 91
154 110 88
155 112 91
155 112 89
153 110 89
153 109 87
156 112 94
156 112 91
158 113 96
158 114 93
158 113 96
155 111 87
153 110 80
156 112 88
153 110 93
158 113 93
152 110 80
153 109 86
159 115 89
153 109 85
160 114 96
154 111 89
158 114 98
158 113 96
157 113 91
159 114 98
154 110 87
154 109 90
154 110 85
159 113 98
155 110 91
152 109 79
159 113 100
153 109 88
152 108 85
154 110 91
154 110 87
156 111 92
155 111 86
151 108 80
158 113 91
155 112 90
153 110 88
154 109 89
156 111 90
154 110 86
153 108 89
153 110 86
152 108 86
154 109 89
154 109 86
150 106 85
147 104 73
151 106 88
154 107 87
151 105 81
151 107 78
149 105 90
159 151 56
170 192 0
155 168 11
135 126 0
136 124 0
140 129 0
138 124 0
133 118 0
132 113 0
134 115 0
135 119 0
134 114 0
125 105 0
128 106 0
119 94 0
119 96 0
119 95 0
120 99 0
123 102 0
115 88 0
112 87 0
115 89 0
119 95 0
118 98 0
123 101 0
124 103 0
121 99 0
121 99 0
129 109 0
129 106 0
131 113 0
133 111 0
135 117 0
133 116 0
134 117 0
138 121 0
133 114 0
131 114 0
137 117 0
138 122 0
134 120 0
137 121 0
139 127 0
139 125 0
141 127 0
137 124 0
146 136 0
142 129 0
144 132 0
140 127 0
144 134 0
141 130 0
143 130 0
143 131 0
144 134 0
141 129 0
142 133 0
146 139 0
148 141 0
144 135 0
145 135 0
143 133 0
146 134 0
148 139 0
144 136 0
147 139 0
148 141 0
147 138 0
146 139 0
148 140 0
148 139 0
150 142 0
149 141 0
149 141 0
149 143 0
146 138 0
147 140 0
150 144 0
147 141 0
148 142 0
151 144 0
147 141 0
151 145 0
148 145 0
151 145 0
151 144 0
150 143 0
149 141 0
151 146 0
152 147 0
150 143 0
151 145 0
153 148 0
151 146 0
153 149 0
151 148 0
150 145 0
150 144 0
154 150 0
152 147 0
152 148 0
152 146 0
152 147 0
154 149 0
154 149 0
151 145 0
151 147 0
152 149 0
152 147 0
154 147 0
152 149 0
152 147 0
152 148 0
152 147 0
152 147 0
153 149 0
152 149 0
153 148 0
152 148 0
154 148 0
154 149 0
155 150 0
153 148 0
154 151 0
152 148 0
154 150 0
153 148 0
154 149 0
153 150 0
153 149 0
153 149 0
155 149 0
155 151 0
154 150 0
155 150 0
154 149 0
152 147 0
159 177 112
152 170 99
149 165 97
152 168 109
151 169 102
149 166 112
146 164 91
152 168 107
153 170 97
159 175 121
150 168 94
155 171 104
155 172 99
153 169 99
156 174 102
153 170 109
149 166 79
155 172 99
152 169 91
151 168 112
151 167 85
155 173 97
161 178 107
155 173 114
158 175 102
154 171 102
148 164 68
155 172 88
149 164 91
155 172 107
158 175 104
154 172 79
152 169 85
149 164 88
154 171 97
152 169 82
156 172 102
155 173 97
158 175 102
155 172 85
154 170 75
158 175 91
150 167 68
157 174 104
157 174 97
157 174 88
158 176 91
155 171 85
155 171 82
151 168 82
150 165 68
153 171 64
151 164 85
154 172 72
148 163 51
150 167 72
150 167 64
153 169 75
152 170 72
153 168 82
158 175 88
152 169 75
150 168 79
152 168 64
149 164 68
151 167 85
149 166 51
144 159 51
149 163 72
146 161 32
149 167 51
145 157 41
148 163 51
146 159 60
146 159 56
147 159 62
144 158 39
146 161 39
150 164 52
141 155 51
145 157 39
146 158 60
141 153 47
148 162 58
145 154 60
146 158 55
136 141 51
143 156 47
138 147 41
141 150 34
132 138 34
141 150 51
137 148 32
131 139 22
134 139 45
138 148 45
138 147 22
132 138 32
124 123 20
128 129 21
137 139 37
132 137 25
125 126 16
128 131 34
132 130 21
131 132 21
125 126 0
123 123 0
123 122 22
128 129 28
116 113 12
118 115 23
118 112 29
120 119 11
113 103 26
118 114 21
111 104 0
118 117 31
114 110 31
110 109 12
111 102 15
118 114 0
111 110 0
114 113 22
113 116 27
111 110 16
110 116 22
106 106 41
125 135 68
125 133 64
107 112 64
120 127 75
126 140 32
172 195 0
167 189 0
167 186 0
142 109 66
149 107 79
147 105 81
144 103 72
148 107 83
152 109 87
149 107 80
154 109 94
152 109 82
148 106 83
154 111 86
152 109 86
151 108 81
151 108 81
152 110 81
155 111 86
151 108 84
153 110 85
152 110 90
156 112 89
153 109 87
155 112 91
155 111 87
154 110 85
157 112 93
152 109 86
155 112 87
157 112 90
154 111 87
157 113 95
150 106 80
155 112 91
156 112 90
156 112 89
159 114 99
154 111 86
155 112 90
155 111 90
158 114 94
153 111 84
152 110 81
155 110 88
157 113 97
154 110 86
154 110 85
156 112 84
156 112 87
158 114 91
155 111 87
158 115 96
154 111 87
160 115 99
153 111 89
154 111 90
154 112 91
155 112 90
155 112 87
154 111 87
155 111 87
156 113 88
157 112 88
156 112 97
157 112 90
156 112 94
156 113 89
154 111 85
153 109 78
153 110 85
153 111 79
155 112 90
157 112 93
155 112 93
157 113 96
158 113 96
159 114 95
155 110 89
156 112 89
156 111 91
158 113 99
157 112 91
155 111 86
156 113 94
154 110 91
153 110 79
158 113 94
153 109 84
156 112 90
151 108 77
155 111 90
153 109 87
156 111 95
155 112 92
156 112 91
154 110 93
155 111 93
151 108 80
156 111 92
151 108 78
150 107 77
154 109 86
150 107 80
149 105 78
152 107 85
153 110 85
153 108 86
154 110 88
151 106 84
151 106 88
148 104 86
150 103 81
147 105 67
170 189 0
170 191 0
169 188 0
145 151 11
131 120 0
137 125 0
138 123 0
137 121 0
132 114 0
138 120 0
131 114 0
129 109 0
119 98 0
124 100 0
125 105 0
117 91 0
119 97 0
123 100 0
119 95 0
120 98 0
119 97 0
121 97 0
116 93 0
121 96 0
126 102 0
118 95 0
118 92 0
122 102 0
126 106 0
126 103 0
124 104 0
125 103 0
128 111 0
132 114 0
129 112 0
134 116 0
133 115 0
134 116 0
139 125 0
134 118 0
132 115 0
142 130 0
139 124 0
137 122 0
138 123 0
139 127 0
138 125 0
139 125 0
138 124 0
144 133 0
138 128 0
140 127 0
144 135 0
144 135 0
146 136 0
138 124 0
145 136 0
146 137 0
143 133 0
143 129 0
149 140 0
145 135 0
143 131 0
143 132 0
147 138 0
145 134 0
147 137 0
144 136 0
146 137 0
144 137 0
144 135 0
147 138 0
147 139 0
149 142 0
146 139 0
148 141 0
144 135 0
148 141 0
147 139 0
151 144 0
148 141 0
152 146 0
151 145 0
149 141 0
151 146 0
149 142 0
151 145 0
147 141 0
149 143 0
154 149 0
148 141 0
152 147 0
149 144 0
150 144 0
152 150 0
151 146 0
150 143 0
151 145 0
153 150 0
152 147 0
154 149 0
149 143 0
153 148 0
150 144 0
151 144 0
150 146 0
149 143 0
152 146 0
153 149 0
152 147 0
152 148 0
151 147 0
152 149 0
154 149 0
153 148 0
150 146 0
153 148 0
154 149 0
153 148 0
152 147 0
154 149 0
155 149 0
152 147 0
154 150 0
153 150 0
153 149 0
152 148 0
155 151 0
153 149 0
152 147 0
155 150 0
155 150 0
153 149 0
154 150 0
153 151 0
154 150 0
155 151 0
155 172 121
153 170 104
154 171 104
155 172 102
156 174 116
150 165 91
157 173 127
153 170 107
150 166 97
153 171 91
148 166 88
155 171 114
152 169 88
158 176 107
154 172 94
149 165 102
158 176 102
152 170 82
154 172 82
153 172 85
160 179 99
154 171 88
153 171 94
153 169 82
152 169 88
153 169 97
157 174 97
146 163 56
150 168 82
154 172 85
155 172 88
152 168 88
156 172 85
150 168 79
153 169 91
156 174 91
152 169 72
157 174 85
148 165 56
155 173 82
154 172 88
152 168 91
152 168 60
150 166 79
153 170 82
154 171 75
150 167 56
154 171 82
153 170 94
151 168 75
147 163 56
146 163 56
148 163 64
147 163 60
152 170 68
149 164 56
144 160 45
149 165 56
148 162 56
144 157 56
147 162 51
151 167 56
148 162 60
147 162 51
148 163 82
147 163 64
149 164 64
147 162 32
143 158 56
147 160 51
144 158 39
143 157 39
146 162 65
146 159 47
151 166 68
146 159 52
145 161 22
139 150 32
147 163 60
141 152 39
139 149 45
137 149 36
139 148 0
146 157 60
143 153 51
140 151 49
139 149 41
137 146 34
139 147 39
135 145 26
134 145 39
140 148 69
129 137 32
131 139 22
137 143 43
132 138 32
129 129 28
137 143 30
130 139 34
127 129 34
131 134 16
134 140 32
130 128 33
133 137 39
124 124 15
129 132 0
127 127 17
126 129 31
115 112 11
122 119 0
124 124 0
120 121 17
114 111 12
112 106 21
115 113 12
120 125 28
116 114 20
104 97 12
114 112 28
112 114 12
112 110 31
113 110 36
109 109 25
119 116 28
107 107 34
113 115 36
116 117 64
112 117 39
110 115 45
115 125 39
121 131 64
123 136 39
165 185 22
171 192 0
169 190 0
168 189 0
157 156 48
144 103 74
147 106 78
150 107 84
149 106 83
153 110 93
145 105 68
155 112 93
152 108 93
152 109 86
148 106 71
154 110 92
157 112 95
155 111 91
149 106 80
151 107 83
145 104 75
158 113 102
154 110 91
151 109 84
155 111 90
153 110 90
154 110 86
159 115 94
150 108 80
154 110 91
155 111 91
157 112 96
156 112 89
151 108 89
155 111 91
155 111 93
154 111 88
156 112 91
153 110 84
155 111 84
158 114 98
153 111 88
153 110 85
153 110 80
154 111 84
154 111 88
156 110 88
153 111 84
151 109 88
157 113 97
154 111 90
151 109 78
156 114 88
155 111 84
160 116 95
157 113 89
156 113 97
154 111 89
157 112 89
158 113 94
153 110 79
155 111 93
157 113 93
160 115 101
155 111 86
158 114 93
153 110 84
155 110 89
157 113 95
151 107 85
157 112 95
152 110 79
153 110 86
150 108 78
153 110 84
157 112 99
154 110 86
158 114 94
150 107 78
158 114 98
156 112 90
155 112 88
154 110 85
155 111 85
154 111 87
150 106 82
154 110 97
156 111 89
155 111 91
155 110 87
155 110 88
154 110 86
155 111 90
152 108 79
155 111 91
149 106 74
155 111 93
151 108 82
157 112 91
151 107 80
158 112 89
158 113 95
154 110 88
150 106 83
153 109 82
152 108 83
153 109 85
152 108 89
150 106 85
149 104 77
148 104 77
146 104 76
148 104 80
146 100 74
158 151 56
171 189 0
166 185 0
166 185 0
164 184 0
136 132 0
139 128 0
137 121 0
135 120 0
131 113 0
130 113 0
135 119 0
128 109 0
126 107 0
130 110 0
129 109 0
124 104 0
119 96 0
116 94 0
117 96 0
121 98 0
120 96 0
124 101 0
122 100 0
116 93 0
132 112 0
119 99 0
126 109 0
117 95 0
122 102 0
128 108 0
125 103 0
131 111 0
129 108 0
126 107 0
127 111 0
137 121 0
133 118 0
131 114 0
133 116 0
138 120 0
138 122 0
137 119 0
135 121 0
135 121 0
137 123 0
138 123 0
139 124 0
142 128 0
142 131 0
141 131 0
144 135 0
143 132 0
140 129 0
142 128 0
138 126 0
141 130 0
143 133 0
145 136 0
144 134 0
146 138 0
142 129 0
144 135 0
146 137 0
144 132 0
145 136 0
148 140 0
147 139 0
142 132 0
145 136 0
145 138 0
148 140 0
150 142 0
148 142 0
150 141 0
147 140 0
147 137 0
150 142 0
146 139 0
148 141 0
151 145 0
150 142 0
147 140 0
150 144 0
146 139 0
148 141 0
152 144 0
149 141 0
148 140 0
149 142 0
150 144 0
149 142 0
149 144 0
150 143 0
150 143 0
152 147 0
151 145 0
151 145 0
149 142 0
151 146 0
149 143 0
151 146 0
153 147 0
149 145 0
153 147 0
150 145 0
150 144 0
151 146 0
153 148 0
151 146 0
151 144 0
152 147 0
150 143 0
154 148 0
150 146 0
154 150 0
153 150 0
154 149 0
152 147 0
151 146 0
152 147 0
153 149 0
154 150 0
150 145 0
152 148 0
152 148 0
151 147 0
152 147 0
154 148 0
153 149 0
155 149 0
153 147 0
154 148 0
154 150 0
153 148 0
153 149 0
154 150 0
153 148 0
145 161 85
147 164 85
147 164 88
153 171 88
155 173 97
149 164 99
151 168 85
145 162 72
150 165 88
155 174 109
152 168 104
154 171 102
155 173 97
148 166 88
152 169 118
153 170 99
149 164 91
151 167 97
158 175 112
157 173 104
159 176 107
143 161 75
153 171 104
150 165 79
149 166 99
156 174 94
151 168 82
154 171 97
153 171 82
155 172 82
152 171 82
154 172 88
155 173 99
159 176 94
151 167 79
150 166 85
152 168 79
153 170 75
154 171 91
151 167 75
155 172 88
150 168 64
152 170 88
156 173 94
151 168 75
147 164 56
153 170 72
151 168 85
151 168 60
144 160 56
154 170 88
150 164 79
149 167 51
153 172 64
150 166 79
152 169 72
153 171 75
153 170 88
150 168 60
149 164 64
145 161 32
145 160 60
146 159 60
144 159 68
144 157 56
145 157 45
143 158 22
146 161 56
143 154 39
146 160 51
148 163 39
143 156 56
147 163 56
138 148 45
142 156 56
146 159 39
138 148 45
147 162 39
140 152 52
141 155 45
140 150 39
147 159 68
136 149 39
146 156 45
140 151 41
137 150 45
136 146 32
141 149 51
138 146 34
138 149 39
133 141 17
137 145 32
134 139 41
134 139 46
133 138 22
132 138 41
134 139 41
130 134 0
132 133 34
125 130 26
133 138 26
122 118 36
128 129 15
128 129 20
127 127 26
120 118 12
124 126 11
121 120 18
124 126 0
121 115 18
119 119 0
124 121 21
119 120 17
122 120 17
115 107 24
109 105 21
111 105 17
113 115 0
117 119 0
109 108 22
111 109 12
114 111 22
103 101 0
112 112 26
110 115 34
109 110 39
111 112 32
111 115 60
111 115 32
115 123 56
114 123 45
161 181 22
166 186 0
169 191 0
167 187 0
167 187 0
169 187 19
144 111 70
144 103 72
145 104 71
148 106 83
152 108 87
151 108 87
150 108 79
150 107 82
148 105 76
150 108 85
147 104 77
151 109 85
149 107 81
150 108 87
154 110 90
154 110 85
152 109 79
153 111 89
155 111 88
155 111 86
153 111 88
152 111 82
150 107 82
157 112 97
157 113 96
153 109 92
158 113 98
154 111 81
158 113 94
156 113 93
156 111 93
151 109 80
157 112 98
153 109 80
155 111 85
152 109 88
154 110 87
157 112 94
153 110 85
158 113 96
158 114 98
160 115 101
155 111 93
158 113 98
155 110 89
152 110 84
156 112 93
157 112 98
154 111 91
152 109 85
152 110 82
151 109 79
155 112 91
156 112 89
155 111 91
152 110 84
156 111 96
155 113 91
153 110 84
151 108 89
157 112 91
153 110 81
153 110 87
153 110 81
152 110 76
154 111 85
152 110 85
153 110 89
158 113 93
157 113 91
153 110 85
151 109 72
156 112 91
155 111 91
155 111 88
154 109 87
153 110 89
155 110 93
158 114 95
156 113 94
153 109 85
150 107 78
156 112 95
153 108 87
153 110 84
156 111 91
152 109 78
155 111 96
153 109 85
154 109 90
150 108 79
151 107 83
148 105 82
151 109 81
154 110 92
154 111 88
153 109 78
152 107 80
153 109 81
148 104 73
152 108 77
153 109 85
148 104 78
148 104 81
148 105 73
149 106 75
147 103 79
148 103 76
147 109 68
163 178 6
170 190 0
168 187 0
168 186 0
167 184 0
165 184 0
127 117 0
134 120 0
135 121 0
136 121 0
127 112 0
129 109 0
130 112 0
130 115 0
119 95 0
128 109 0
124 107 0
121 98 0
121 100 0
119 95 0
124 105 0
120 97 0
125 103 0
130 110 0
122 100 0
120 96 0
123 103 0
131 114 0
123 104 0
126 107 0
122 103 0
132 112 0
128 107 0
128 107 0
132 114 0
133 118 0
127 110 0
133 114 0
137 123 0
130 113 0
134 119 0
130 111 0
136 122 0
135 123 0
137 123 0
140 129 0
135 121 0
139 127 0
141 129 0
142 130 0
142 130 0
138 126 0
142 131 0
145 134 0
144 133 0
145 135 0
140 127 0
141 129 0
138 126 0
143 131 0
142 131 0
146 136 0
144 135 0
147 138 0
144 133 0
147 138 0
145 137 0
146 140 0
145 136 0
148 139 0
142 132 0
147 138 0
148 140 0
145 136 0
147 139 0
149 140 0
148 140 0
147 140 0
146 138 0
149 140 0
147 139 0
146 139 0
150 143 0
151 146 0
150 142 0
152 147 0
147 140 0
148 143 0
150 143 0
150 145 0
150 144 0
152 144 0
148 140 0
149 143 0
151 144 0
150 144 0
149 141 0
151 144 0
151 144 0
152 146 0
150 145 0
148 142 0
151 146 0
154 149 0
150 144 0
150 145 0
149 143 0
152 147 0
150 146 0
148 143 0
154 148 0
153 148 0
155 150 0
152 147 0
153 150 0
151 146 0
152 147 0
151 147 0
151 147 0
152 147 0
150 144 0
153 149 0
151 145 0
153 148 0
154 149 0
153 150 0
154 148 0
153 150 0
154 149 0
154 150 0
153 149 0
154 150 0
154 148 0
152 148 0
153 148 0
153 148 0
155 152 0
151 147 0
147 162 97
150 166 114
146 163 102
157 174 112
151 168 107
145 162 94
151 169 102
147 163 82
147 164 91
152 169 104
153 169 94
153 170 107
153 171 91
152 169 104
154 171 97
146 163 64
151 166 97
152 171 85
152 169 91
149 166 97
154 171 88
154 172 107
152 169 88
157 174 91
152 168 88
148 164 85
151 168 94
156 173 102
153 172 82
148 167 72
150 168 79
150 168 72
150 167 75
148 163 94
151 169 64
152 167 75
153 169 75
152 171 72
155 173 75
152 169 72
143 160 68
148 164 68
152 169 68
154 171 82
150 165 51
152 169 79
151 166 72
148 166 64
149 165 79
148 163 60
149 166 64
151 168 60
147 162 60
149 165 75
149 164 60
151 169 68
153 169 56
154 172 75
148 163 68
147 163 45
152 167 68
147 163 56
147 161 72
146 160 39
145 160 56
147 162 51
141 151 32
142 157 22
146 158 51
143 154 64
144 155 45
142 154 39
148 161 60
150 163 68
146 159 51
138 149 45
144 155 52
145 161 51
142 155 47
146 158 51
142 153 51
141 150 0
137 148 45
139 151 41
146 154 52
142 152 43
140 150 0
145 154 52
137 143 41
132 138 22
132 141 32
135 143 32
138 144 43
132 136 28
133 139 34
135 143 32
131 135 41
134 143 0
133 139 12
132 138 26
128 134 12
120 123 12
124 127 22
117 117 12
125 124 28
124 120 21
125 129 0
120 120 24
117 115 12
114 113 5
122 121 11
122 118 11
120 120 12
119 121 26
119 120 0
118 114 11
117 114 11
103 97 25
124 125 25
116 116 47
113 118 39
114 116 22
119 123 30
120 121 22
115 118 49
109 111 46
123 130 60
116 121 51
109 111 51
104 112 51
155 173 32
165 184 0
167 187 0
167 189 0
168 188 0
169 189 0
166 185 0
157 155 41
143 102 80
140 99 70
151 110 84
151 108 83
152 109 85
148 107 79
149 108 80
152 109 84
151 109 81
154 111 93
152 110 80
152 108 90
153 109 90
154 109 89
156 113 89
152 109 86
149 106 75
149 106 84
157 113 93
154 109 88
153 110 81
156 113 90
152 109 80
152 109 79
156 112 93
153 111 85
154 110 84
155 112 84
154 111 94
156 112 95
153 109 85
156 112 88
153 111 88
151 108 76
151 107 82
157 113 94
152 111 81
155 111 85
153 110 87
157 112 90
154 110 87
152 109 87
159 113 99
157 113 95
155 111 88
156 112 91
159 115 99
155 111 82
154 111 84
155 113 82
156 111 100
157 114 90
155 112 85
158 114 89
151 109 84
153 110 86
149 107 81
157 113 89
155 110 88
155 112 86
151 108 82
154 110 84
155 110 88
150 107 76
149 107 85
156 111 88
154 110 87
155 112 90
157 113 91
152 108 88
154 110 89
154 110 82
158 113 90
152 107 84
154 110 86
155 110 91
158 114 87
155 112 89
154 110 93
152 109 85
156 111 92
153 109 88
152 109 80
156 113 91
150 107 75
150 106 81
151 109 79
151 107 84
148 106 78
152 109 81
153 110 85
153 110 84
151 108 78
153 109 82
152 107 81
154 109 87
151 107 87
150 107 72
153 109 84
151 107 83
150 106 78
149 105 72
153 109 86
155 110 91
148 103 76
152 107 78
145 100 67
158 163 37
167 184 0
168 186 0
170 189 0
167 184 0
167 184 0
167 185 0
159 173 0
129 121 0
137 125 0
135 119 0
133 116 0
129 111 0
126 109 0
131 113 0
127 108 0
122 104 0
127 106 0
128 109 0
123 102 0
117 95 0
123 102 0
116 93 0
124 102 0
122 104 0
125 104 0
115 91 0
125 105 0
130 110 0
125 102 0
126 105 0
121 100 0
131 112 0
121 99 0
124 102 0
129 111 0
128 107 0
133 114 0
132 115 0
134 120 0
133 114 0
135 118 0
132 117 0
134 120 0
137 125 0
138 124 0
137 121 0
138 122 0
139 124 0
135 122 0
143 129 0
137 125 0
142 130 0
141 128 0
137 123 0
142 131 0
142 129 0
146 133 0
143 132 0
141 130 0
142 130 0
146 136 0
142 133 0
144 133 0
143 133 0
145 136 0
140 130 0
142 132 0
147 139 0
144 134 0
147 139 0
144 133 0
144 135 0
147 138 0
147 139 0
148 141 0
144 133 0
148 139 0
149 140 0
148 142 0
147 139 0
148 141 0
149 141 0
147 136 0
149 143 0
149 142 0
147 139 0
150 141 0
149 142 0
151 144 0
149 140 0
152 145 0
149 141 0
149 142 0
151 146 0
150 143 0
150 145 0
151 145 0
152 146 0
152 147 0
153 146 0
150 143 0
149 145 0
152 146 0
150 145 0
152 146 0
153 146 0
150 144 0
151 145 0
151 144 0
153 149 0
153 148 0
153 148 0
153 146 0
152 146 0
151 146 0
153 148 0
153 149 0
152 147 0
153 148 0
152 149 0
155 150 0
151 145 0
154 149 0
151 145 0
151 148 0
152 147 0
152 149 0
153 147 0
152 146 0
153 148 0
153 148 0
154 149 0
154 149 0
154 150 0
153 150 0
153 149 0
153 149 0
154 150 0
146 163 82
147 164 88
145 160 85
148 163 112
151 168 91
152 170 99
149 165 94
153 170 102
151 168 91
144 161 72
154 170 97
146 162 82
152 169 99
148 166 72
148 165 75
149 165 99
152 169 88
158 175 107
157 174 112
150 167 94
154 172 102
153 169 88
148 164 79
154 172 88
154 169 97
149 165 79
154 171 99
154 172 94
153 171 82
150 167 82
155 170 88
151 167 82
153 169 79
151 168 79
148 165 72
150 169 68
147 164 72
151 167 64
149 167 56
157 173 82
152 170 79
145 162 56
149 164 88
151 167 72
151 167 82
150 165 79
151 168 56
144 159 56
155 171 85
151 167 68
145 159 60
148 164 51
151 166 60
148 163 60
147 165 45
146 163 22
148 163 75
142 158 39
147 162 51
149 163 72
143 157 45
145 161 45
148 163 56
147 163 39
140 153 51
144 158 45
145 160 39
144 158 32
147 163 56
142 156 22
139 153 32
142 156 22
142 155 39
142 154 32
142 155 45
145 157 32
142 154 22
138 148 32
138 149 39
140 149 22
137 149 22
143 154 51
139 146 51
137 146 34
140 151 45
139 149 47
139 149 34
131 137 0
138 148 45
131 139 26
131 139 45
134 143 22
137 149 26
125 129 28
133 141 26
134 139 41
127 131 20
125 130 22
123 129 12
122 124 0
132 134 22
131 137 31
126 132 0
120 121 12
123 125 12
121 118 25
118 117 17
118 120 0
110 104 0
118 119 0
124 126 0
117 120 0
118 114 6
112 110 12
123 123 11
107 106 17
115 112 16
113 107 22
110 107 32
120 121 22
113 113 0
111 112 34
109 106 32
115 120 32
121 127 39
115 120 0
98 100 22
117 124 39
116 124 72
149 166 0
165 184 0
167 187 0
167 188 0
164 185 0
165 184 0
169 187 0
166 188 0
168 187 0
147 126 58
140 100 63
146 105 81
149 106 81
147 105 77
147 105 84
149 105 73
149 107 81
150 107 90
151 109 78
151 108 87
152 108 82
152 110 81
152 110 77
154 110 85
150 108 83
153 109 83
150 108 86
152 109 81
150 107 80
152 109 84
152 109 79
153 110 85
156 112 91
150 109 81
153 110 89
151 109 82
152 109 87
157 113 88
152 110 81
159 115 94
156 113 89
156 113 94
156 112 89
154 110 80
156 111 91
159 114 99
151 108 85
153 111 86
156 113 96
151 107 82
152 110 80
154 110 89
152 109 82
153 110 81
154 110 87
153 109 91
155 111 85
156 112 90
156 111 91
155 110 86
156 113 89
152 108 88
159 113 98
155 111 91
158 114 96
155 111 89
153 109 86
156 111 90
158 114 91
153 110 86
155 111 90
153 110 90
156 112 91
153 110 85
151 109 84
157 112 99
154 110 88
156 111 90
160 115 103
154 110 91
155 111 87
157 113 95
156 111 95
152 109 86
152 109 81
153 110 88
152 108 81
155 111 89
156 111 94
156 113 89
153 109 87
149 107 72
150 108 78
157 113 89
157 112 93
152 109 90
153 109 79
156 111 90
154 110 81
147 105 76
155 110 87
151 108 78
150 108 78
156 110 98
153 109 82
154 111 81
147 104 77
150 106 80
145 103 70
153 108 88
149 107 78
151 106 79
147 103 76
147 103 74
146 103 76
150 128 59
166 183 0
167 185 0
165 180 0
166 184 0
165 180 0
165 181 0
164 181 0
164 181 0
156 165 0
131 121 0
135 122 0
128 113 0
136 118 0
138 119 0
129 109 0
134 119 0
127 104 0
125 102 0
128 109 0
120 98 0
127 108 0
122 101 0
127 106 0
123 100 0
121 101 0
126 108 0
127 105 0
123 98 0
130 108 0
130 111 0
128 108 0
133 112 0
127 107 0
129 109 0
129 109 0
135 120 0
126 105 0
131 112 0
132 110 0
135 120 0
135 120 0
134 120 0
138 121 0
135 117 0
129 114 0
139 125 0
134 118 0
137 123 0
137 123 0
139 125 0
140 128 0
140 125 0
136 125 0
139 128 0
139 124 0
146 137 0
142 131 0
140 130 0
144 130 0
146 136 0
143 131 0
145 132 0
144 132 0
142 131 0
144 134 0
145 134 0
143 133 0
144 132 0
138 129 0
145 135 0
145 137 0
143 135 0
142 133 0
145 135 0
145 136 0
149 138 0
146 135 0
146 138 0
148 143 0
148 142 0
149 143 0
142 133 0
151 143 0
147 139 0
150 143 0
148 140 0
147 141 0
147 139 0
148 142 0
149 141 0
150 144 0
149 143 0
150 145 0
151 143 0
147 140 0
148 143 0
150 145 0
149 142 0
151 144 0
150 143 0
151 145 0
148 141 0
152 146 0
151 146 0
152 147 0
151 144 0
151 144 0
152 146 0
152 146 0
150 142 0
151 145 0
151 146 0
153 148 0
149 145 0
150 145 0
152 147 0
152 145 0
153 148 0
152 147 0
151 147 0
152 147 0
152 148 0
151 145 0
153 147 0
150 144 0
152 148 0
152 147 0
152 148 0
153 150 0
155 151 0
152 148 0
150 145 0
154 149 0
154 150 0
151 146 0
153 149 0
153 150 0
153 149 0
152 147 0
149 167 97
142 158 79
156 173 104
155 172 99
149 166 99
152 171 75
147 164 82
144 160 79
150 167 97
151 167 99
151 167 97
150 168 88
146 162 85
152 169 91
156 174 91
145 161 85
148 164 75
148 165 75
150 168 88
151 168 72
153 170 82
150 168 75
151 168 82
148 165 79
149 166 72
149 166 75
149 166 72
150 167 88
149 166 79
153 171 82
145 161 68
152 169 85
149 166 82
153 171 85
147 165 72
152 171 82
143 159 68
147 164 51
150 168 60
151 169 68
149 167 60
154 169 79
147 164 60
146 162 64
149 165 60
151 169 60
148 166 64
148 164 64
148 165 68
147 165 51
146 162 60
147 165 45
145 160 51
148 165 39
149 163 72
147 162 60
145 159 39
144 161 45
141 156 22
151 167 56
147 161 79
147 163 32
144 158 60
144 156 56
140 155 51
145 161 56
142 156 56
143 159 39
145 161 45
142 154 32
143 158 45
141 154 39
136 149 39
139 150 32
141 155 51
141 154 45
139 151 39
143 157 60
139 150 22
142 154 45
140 151 26
140 150 39
138 148 32
135 146 45
138 148 26
137 148 22
131 142 0
128 131 26
134 144 22
132 139 22
136 144 0
132 140 22
134 142 0
132 140 17
129 135 0
128 132 0
127 133 0
131 139 26
127 134 0
125 128 22
129 134 21
128 133 26
122 129 12
121 120 0
118 117 12
121 124 26
122 126 0
118 118 12
119 120 25
123 123 12
111 112 22
113 114 0
113 112 0
112 110 15
109 107 0
111 110 36
113 112 34
119 120 22
108 109 32
118 120 25
105 107 32
108 111 0
112 114 12
108 109 32
107 112 0
109 114 56
110 116 51
100 105 45
138 152 39
163 184 0
162 183 0
164 181 0
166 185 0
164 183 0
165 181 0
166 187 0
159 176 0
164 182 0
156 170 23
141 100 67
141 101 70
150 107 87
147 105 76
149 106 80
148 107 76
153 110 83
154 110 88
152 110 83
148 106 86
151 108 85
148 106 76
151 108 81
155 111 90
153 111 90
156 111 94
152 109 90
151 109 81
156 111 88
150 107 77
156 112 90
153 109 91
155 111 86
155 111 91
150 108 82
160 115 100
154 110 89
156 112 93
155 111 89
155 111 91
150 108 76
158 114 91
151 109 86
155 110 95
155 112 84
154 111 87
157 112 97
151 106 81
156 111 97
155 111 85
155 111 88
155 112 88
154 110 82
155 111 89
158 114 93
148 107 68
155 111 86
156 111 86
154 111 85
155 112 91
158 113 96
153 109 81
157 113 90
154 111 79
157 113 94
154 111 78
155 112 89
157 113 95
156 112 95
153 109 90
154 111 86
154 110 85
154 111 85
155 110 88
156 112 87
159 114 97
156 111 94
156 111 90
154 111 89
154 111 88
155 111 88
157 112 97
158 112 98
155 112 85
154 110 91
154 111 86
153 110 86
156 111 94
156 111 94
155 113 82
156 112 93
150 105 79
154 110 91
151 108 78
154 110 85
155 111 89
155 110 87
153 109 77
152 108 81
152 108 84
152 107 78
154 109 86
153 109 85
152 108 87
155 110 89
155 110 89
153 109 86
150 107 80
152 107 83
148 103 80
149 105 83
153 107 92
144 100 66
147 104 66
147 104 81
159 166 24
164 179 0
165 179 0
166 182 0
165 181 0
168 182 0
165 178 0
166 184 0
171 189 0
164 176 0
149 156 0
129 117 0
130 114 0
140 125 0
130 115 0
128 112 0
119 99 0
119 95 0
125 103 0
131 112 0
125 105 0
123 104 0
127 105 0
128 106 0
116 93 0
120 98 0
125 104 0
119 98 0
125 106 0
124 106 0
122 99 0
130 109 0
127 106 0
120 97 0
128 111 0
131 112 0
123 103 0
131 113 0
136 121 0
129 110 0
131 114 0
129 112 0
131 113 0
129 111 0
137 124 0
135 117 0
139 125 0
135 117 0
137 124 0
140 124 0
140 127 0
136 121 0
139 125 0
138 126 0
140 126 0
143 129 0
141 129 0
144 131 0
144 130 0
145 135 0
139 129 0
141 129 0
144 133 0
143 133 0
139 124 0
143 130 0
148 137 0
141 129 0
148 136 0
144 135 0
146 135 0
147 137 0
147 139 0
150 140 0
147 138 0
144 136 0
144 137 0
146 137 0
148 141 0
144 134 0
145 137 0
147 139 0
145 137 0
147 138 0
146 139 0
146 139 0
150 143 0
150 143 0
150 143 0
145 138 0
147 141 0
149 139 0
149 142 0
149 143 0
149 144 0
151 144 0
149 140 0
152 147 0
148 141 0
150 144 0
150 142 0
152 147 0
153 147 0
147 141 0
149 142 0
150 143 0
149 143 0
151 144 0
149 142 0
153 147 0
149 142 0
148 140 0
151 146 0
149 143 0
153 148 0
152 147 0
152 145 0
149 144 0
152 147 0
149 143 0
151 145 0
151 147 0
154 147 0
153 149 0
153 148 0
152 145 0
153 148 0
153 148 0
153 149 0
154 150 0
154 149 0
152 146 0
153 149 0
152 146 0
151 146 0
151 146 0
152 148 0
152 148 0
153 148 0
154 150 0
148 165 82
160 176 112
146 163 97
144 160 82
152 168 112
146 163 94
143 161 72
146 164 68
145 161 82
140 157 64
144 160 79
151 167 85
146 164 72
147 164 82
139 154 75
145 162 72
145 163 82
153 170 94
147 164 68
153 171 79
150 166 88
149 167 79
153 170 94
151 169 72
152 168 82
150 167 72
149 167 72
148 165 79
148 164 79
150 166 91
147 165 45
144 161 45
144 161 64
148 165 82
150 166 75
147 162 68
154 171 72
154 171 91
150 164 82
149 167 60
146 162 68
152 170 85
148 167 39
150 167 72
149 166 45
149 165 79
147 163 79
149 164 64
144 160 39
147 163 56
149 166 64
147 163 56
150 166 64
147 160 56
150 167 60
141 155 22
146 160 45
147 163 51
149 166 64
145 160 45
149 166 39
151 168 64
141 155 39
145 161 32
142 156 45
144 160 45
144 159 39
143 157 39
143 158 32
142 156 22
142 155 39
142 155 0
143 158 39
140 154 32
137 150 22
141 154 45
143 160 22
141 153 39
140 151 22
141 154 39
143 155 22
138 149 22
140 151 32
135 142 16
139 152 22
131 143 22
140 153 51
139 148 0
129 137 32
134 142 32
135 144 0
128 135 0
137 148 0
126 134 0
131 135 0
124 131 12
128 132 25
129 137 31
119 121 0
124 125 25
125 129 0
124 126 12
121 119 0
120 122 0
123 126 12
118 119 12
115 117 0
120 122 12
118 117 0
111 114 12
106 101 11
118 119 12
111 111 0
111 110 22
112 113 12
114 112 0
109 105 0
108 108 12
123 126 0
114 116 22
111 111 22
112 113 39
118 124 51
115 119 58
119 124 64
114 120 51
104 111 39
147 163 39
165 186 0
163 182 0
168 188 0
162 179 0
161 176 0
166 186 0
160 176 0
161 180 0
163 183 0
158 175 0
160 178 0
153 147 51
139 100 72
146 105 75
150 106 79
151 108 88
148 106 78
153 110 88
145 104 71
146 104 79
151 108 80
152 109 86
148 107 78
158 113 98
150 109 74
151 108 80
152 108 81
155 111 91
153 110 79
154 110 89
156 112 85
156 111 91
152 109 90
156 113 97
157 112 90
151 110 84
152 109 85
154 111 85
150 107 87
154 110 87
150 107 80
155 112 95
156 112 93
152 108 81
147 105 76
152 109 80
154 110 85
156 112 91
155 111 90
155 112 86
157 111 97
153 110 89
153 109 80
154 110 84
151 109 80
155 110 94
154 111 85
152 108 89
154 110 85
147 105 75
153 109 87
154 111 86
157 113 94
155 111 87
152 109 84
154 110 88
152 109 80
157 113 88
151 107 81
152 108 89
153 110 86
152 109 82
157 112 94
155 112 84
154 110 85
156 112 93
155 110 84
157 113 93
153 110 80
153 110 87
150 107 78
153 111 85
150 107 78
155 111 87
152 108 78
150 108 71
154 109 88
153 109 89
151 107 75
153 109 82
157 112 97
153 110 88
152 108 85
151 107 88
152 109 82
149 105 80
152 108 87
155 111 89
151 107 76
150 108 70
153 109 84
152 107 83
151 107 81
153 110 81
155 108 91
149 107 75
151 107 76
153 109 84
146 103 74
147 104 75
148 104 75
150 106 79
150 106 83
144 98 72
146 104 70
152 134 54
162 176 0
161 174 0
165 179 0
163 175 0
168 182 0
162 175 0
164 176 0
165 174 0
166 178 0
160 173 0
168 182 0
154 162 0
127 112 0
132 117 0
129 113 0
129 111 0
129 108 0
133 114 0
122 101 0
126 108 0
124 105 0
125 105 0
118 92 0
118 88 0
127 108 0
121 99 0
125 103 0
120 103 0
125 103 0
123 100 0
122 99 0
121 100 0
130 111 0
126 105 0
130 109 0
130 112 0
127 106 0
132 114 0
129 111 0
135 118 0
126 108 0
125 102 0
132 115 0
132 113 0
137 120 0
138 122 0
132 113 0
134 121 0
141 129 0
133 118 0
138 127 0
140 125 0
136 121 0
138 124 0
141 130 0
136 121 0
142 131 0
140 126 0
139 125 0
143 133 0
144 134 0
140 128 0
145 135 0
144 134 0
146 134 0
145 135 0
142 134 0
143 134 0
144 132 0
146 136 0
142 131 0
141 130 0
142 131 0
147 138 0
146 138 0
146 139 0
150 144 0
147 137 0
143 135 0
147 139 0
145 136 0
145 136 0
145 136 0
149 141 0
144 134 0
147 140 0
147 139 0
147 141 0
148 140 0
149 141 0
150 143 0
150 142 0
149 142 0
149 141 0
149 142 0
147 139 0
150 143 0
147 141 0
147 140 0
150 145 0
150 143 0
152 146 0
150 144 0
151 145 0
151 145 0
148 140 0
152 147 0
153 146 0
150 144 0
151 146 0
150 146 0
151 144 0
149 142 0
153 148 0
151 146 0
152 146 0
150 144 0
152 146 0
153 149 0
150 143 0
150 146 0
152 146 0
151 145 0
150 145 0
152 146 0
151 146 0
153 147 0
154 149 0
151 147 0
152 145 0
150 145 0
154 148 0
153 148 0
154 149 0
153 149 0
152 148 0
152 147 0
152 147 0
152 147 0
153 149 0
151 168 99
142 158 82
142 159 79
150 166 102
150 165 97
144 161 91
145 161 88
145 161 88
146 163 60
149 166 85
149 165 85
150 168 82
144 160 79
149 167 85
146 163 82
150 168 79
147 164 72
152 167 99
145 162 64
147 161 91
148 165 75
147 163 94
144 161 56
152 169 85
151 168 88
153 170 64
144 161 39
154 171 79
144 160 60
152 169 91
149 165 79
143 160 60
152 168 68
150 168 51
147 165 75
145 162 68
145 162 56
143 159 60
149 166 79
148 165 64
147 162 60
144 160 68
143 159 32
145 162 56
146 161 68
151 169 64
137 151 39
147 165 60
151 167 60
146 163 56
146 160 64
146 163 51
149 166 60
148 162 72
147 165 32
149 165 64
147 161 72
149 164 68
151 166 56
144 159 45
145 160 51
145 158 32
149 165 68
142 156 32
144 160 39
146 162 32
145 162 39
145 161 39
138 152 39
139 153 32
143 158 39
140 153 22
145 157 60
139 151 22
143 158 45
139 150 0
137 148 22
135 146 22
136 145 0
136 147 0
141 153 32
132 138 22
137 150 22
138 148 34
138 147 32
134 144 22
125 133 0
129 135 22
137 146 39
131 139 0
128 135 0
125 132 22
127 134 22
131 138 28
132 141 22
128 131 0
127 132 0
125 132 0
132 138 12
127 130 17
124 128 0
124 125 0
118 123 0
124 125 22
122 123 0
115 118 0
123 128 0
115 117 0
122 126 12
122 126 12
114 116 0
109 109 0
117 118 12
119 123 22
121 128 32
111 115 0
105 107 22
114 118 0
105 109 0
107 107 39
105 108 39
106 108 32
108 111 39
112 115 32
119 125 45
95 100 51
143 157 32
157 174 0
161 179 0
159 176 0
154 172 0
162 180 0
166 186 0
159 176 0
158 177 0
161 177 0
160 177 0
159 176 0
161 177 0
157 172 0
142 111 58
144 102 66
141 101 60
143 102 70
147 104 69
147 105 75
145 104 75
152 110 77
150 107 85
149 106 74
149 106 83
151 108 84
146 105 70
152 109 82
152 109 80
148 106 84
153 109 84
153 110 88
151 109 76
151 108 83
152 109 87
155 111 88
154 111 91
154 111 85
155 111 86
150 108 85
147 105 72
153 110 86
157 113 96
156 113 90
151 108 84
153 109 87
155 111 87
154 111 86
152 109 82
155 111 96
154 110 84
154 109 88
156 112 87
156 111 86
151 108 76
157 112 88
155 111 84
155 111 94
152 110 80
156 112 89
156 112 94
153 110 81
156 111 95
156 113 86
153 110 85
157 112 90
154 111 89
156 112 91
155 112 88
153 110 81
149 106 75
153 109 88
153 110 84
157 112 88
156 112 88
153 110 81
154 111 87
154 110 87
150 107 80
157 112 85
156 111 87
150 107 81
158 114 95
151 108 84
154 110 87
155 111 91
154 110 87
149 105 75
152 109 78
146 104 71
150 108 79
153 110 84
154 111 85
151 108 87
153 111 80
153 108 82
156 110 95
153 110 85
156 111 91
147 103 78
150 106 71
150 106 85
157 112 94
149 106 74
151 107 81
153 108 87
152 107 84
149 105 82
149 106 73
152 108 85
149 105 77
144 102 64
149 105 79
143 100 62
146 102 74
148 102 78
147 122 58
163 174 19
158 170 0
162 173 0
165 178 0
164 177 0
165 178 0
162 171 0
164 179 0
165 180 0
166 182 0
167 182 0
166 179 0
165 180 0
154 161 0
133 120 0
135 120 0
125 106 0
127 107 0
126 104 0
128 108 0
129 110 0
125 105 0
122 100 0
121 100 0
122 100 0
131 112 0
123 101 0
120 99 0
129 109 0
127 106 0
125 106 0
127 108 0
126 104 0
130 113 0
125 105 0
126 107 0
129 113 0
128 111 0
132 111 0
125 109 0
135 120 0
127 110 0
131 113 0
128 111 0
133 118 0
133 115 0
135 121 0
136 120 0
132 114 0
138 123 0
138 123 0
137 122 0
136 122 0
137 122 0
136 121 0
138 126 0
144 132 0
139 126 0
138 128 0
141 129 0
139 123 0
141 128 0
139 126 0
142 128 0
142 131 0
145 133 0
144 133 0
138 127 0
144 132 0
142 131 0
149 140 0
147 139 0
143 133 0
147 139 0
145 136 0
144 134 0
145 132 0
145 134 0
145 134 0
146 137 0
148 139 0
144 134 0
141 130 0
148 139 0
145 136 0
146 137 0
148 141 0
145 136 0
147 137 0
147 138 0
150 142 0
146 137 0
149 141 0
150 142 0
147 140 0
148 141 0
148 140 0
147 137 0
147 139 0
149 142 0
147 139 0
149 142 0
148 143 0
149 142 0
153 146 0
151 144 0
150 144 0
151 146 0
150 143 0
153 147 0
145 138 0
149 143 0
147 138 0
151 146 0
147 141 0
151 147 0
150 144 0
150 145 0
149 142 0
149 142 0
150 144 0
149 144 0
151 146 0
152 146 0
153 147 0
149 142 0
150 144 0
151 146 0
150 145 0
155 149 0
152 146 0
152 148 0
153 150 0
153 149 0
154 148 0
152 148 0
152 146 0
151 146 0
152 147 0
152 146 0
152 145 0
153 170 94
145 161 82
147 163 97
146 164 82
144 162 82
147 164 85
144 161 75
147 165 94
147 164 79
140 156 75
146 164 64
151 168 99
149 165 79
150 165 91
146 163 79
153 171 85
151 168 79
146 161 72
144 159 85
151 168 82
146 163 72
146 162 72
147 163 64
146 164 60
147 164 56
151 169 72
147 163 60
147 164 60
147 165 60
146 162 64
148 165 79
148 165 64
148 165 72
145 161 72
149 167 56
148 164 56
149 166 64
146 164 39
148 166 64
145 162 45
142 158 45
145 162 60
146 163 51
147 163 45
149 164 68
143 160 32
144 161 51
144 156 60
147 162 56
144 160 56
144 161 39
148 165 51
142 159 32
145 161 60
143 158 45
145 163 45
143 159 0
141 156 45
145 161 45
146 163 32
140 156 39
147 161 51
138 154 22
147 163 51
143 158 39
143 159 22
140 155 32
141 153 51
138 149 45
142 158 45
144 162 22
138 150 22
135 148 22
138 152 39
136 146 0
137 152 0
139 152 22
140 150 22
139 152 0
139 151 45
139 152 0
134 143 22
129 138 22
131 143 0
134 144 0
138 147 32
131 137 22
136 146 12
133 140 0
133 145 22
127 133 0
129 136 0
130 135 22
124 128 12
124 130 0
123 127 0
131 137 0
123 125 0
129 133 0
125 132 0
121 124 0
116 117 0
119 122 0
120 122 26
119 124 12
120 121 12
122 123 12
124 129 0
113 113 0
111 113 12
116 117 0
112 115 12
116 119 22
113 114 22
118 118 17
111 117 0
116 119 22
110 111 0
113 118 0
110 115 39
105 106 41
104 110 32
106 107 45
103 109 39
108 117 32
141 157 0
160 178 0
162 178 0
160 179 0
156 172 0
161 179 0
157 173 0
161 175 0
156 170 0
156 174 0
156 172 0
159 176 0
157 174 0
159 177 0
160 175 0
157 165 39
139 100 53
145 104 77
143 103 77
147 106 71
145 103 75
147 106 69
144 102 74
149 105 85
153 109 91
149 106 76
153 109 85
152 109 82
147 106 71
154 109 89
149 107 75
147 105 79
156 112 85
153 110 93
152 108 79
153 110 89
153 110 88
152 108 79
151 108 82
153 108 81
153 110 75
150 108 81
152 110 85
151 107 80
149 108 78
151 107 80
154 111 88
155 110 91
153 109 80
155 111 91
151 109 80
154 110 85
154 111 85
152 108 85
155 111 90
152 109 81
151 109 74
149 107 71
153 108 84
151 108 82
157 112 91
149 107 78
152 110 76
155 111 90
155 111 87
153 108 86
156 112 86
152 110 80
154 110 86
156 111 90
154 111 88
152 108 86
152 110 86
150 107 79
152 108 85
155 110 88
152 108 80
153 109 88
154 110 89
157 112 91
152 109 84
154 109 87
156 112 84
154 110 88
156 111 91
151 109 79
156 111 87
153 109 79
155 111 88
154 111 88
154 110 89
152 108 80
152 108 85
152 109 81
153 111 81
155 112 84
151 107 78
157 112 86
153 108 81
153 108 84
152 108 81
152 110 72
152 107 83
156 110 92
149 105 78
152 107 87
150 106 73
148 105 73
151 107 81
152 108 86
151 107 78
146 102 70
146 104 64
150 106 78
145 101 66
144 100 71
145 103 62
158 159 31
160 175 0
156 166 0
160 166 0
156 166 0
160 170 0
163 176 0
161 172 0
162 175 0
158 166 0
165 177 0
162 172 0
166 179 0
163 173 0
162 171 0
144 152 0
123 108 0
123 107 0
121 100 0
127 105 0
121 99 0
124 104 0
132 112 0
126 106 0
124 102 0
122 102 0
122 101 0
125 106 0
123 103 0
120 96 0
127 106 0
126 104 0
127 108 0
126 105 0
121 97 0
128 106 0
124 104 0
125 103 0
132 115 0
137 122 0
129 111 0
130 112 0
132 116 0
132 114 0
133 116 0
135 118 0
127 108 0
132 114 0
131 116 0
136 120 0
136 121 0
137 121 0
139 122 0
137 123 0
141 125 0
141 127 0
133 120 0
135 120 0
141 131 0
141 130 0
138 123 0
143 132 0
143 131 0
144 133 0
140 128 0
137 123 0
142 128 0
141 128 0
144 131 0
142 131 0
143 130 0
145 133 0
145 134 0
145 134 0
144 134 0
145 135 0
145 135 0
148 140 0
143 132 0
144 135 0
146 135 0
143 133 0
143 133 0
150 142 0
149 142 0
143 132 0
147 139 0
146 137 0
146 139 0
148 140 0
148 140 0
147 137 0
148 140 0
148 141 0
150 140 0
148 139 0
149 142 0
149 141 0
149 140 0
147 138 0
150 141 0
149 140 0
149 142 0
148 139 0
149 142 0
148 140 0
148 140 0
152 145 0
152 144 0
150 144 0
150 143 0
151 143 0
149 142 0
151 143 0
151 144 0
154 148 0
152 145 0
151 144 0
152 146 0
151 144 0
152 145 0
148 141 0
149 143 0
149 143 0
151 146 0
150 143 0
150 144 0
151 145 0
152 146 0
152 147 0
150 145 0
151 145 0
151 147 0
152 147 0
151 146 0
153 148 0
155 149 0
151 145 0
151 147 0
153 148 0
155 150 0
152 148 0
145 162 99
146 163 88
154 171 94
148 163 88
153 171 88
150 167 82
144 162 68
147 164 85
143 161 45
144 160 88
143 159 72
140 156 64
150 167 94
146 163 85
145 161 75
149 166 85
146 163 79
146 162 72
152 169 97
150 167 72
151 167 85
148 166 75
142 159 39
146 164 68
147 165 64
147 165 64
149 166 68
144 162 64
138 153 64
144 161 60
145 161 75
148 166 56
145 162 45
150 167 75
152 170 68
150 167 79
149 165 64
143 157 64
147 163 64
144 160 39
145 160 68
143 160 45
141 157 32
142 159 45
147 162 60
147 164 56
146 162 45
147 163 64
148 165 45
137 149 45
146 165 51
149 166 75
143 159 22
147 161 39
146 161 56
145 161 60
143 159 45
143 158 22
145 160 45
145 162 39
141 155 39
141 154 22
141 154 45
142 154 32
142 157 32
142 155 56
145 158 60
144 158 51
143 158 0
140 151 0
135 149 0
138 151 0
136 145 45
137 149 32
137 149 0
140 154 22
141 153 45
139 152 0
135 145 22
134 143 32
133 145 22
130 137 22
134 145 0
137 151 0
126 133 22
135 147 0
130 140 0
129 140 0
129 135 0
131 142 0
135 145 0
126 133 0
130 138 0
130 138 0
122 126 0
125 129 0
123 130 12
122 126 0
128 134 0
117 117 12
129 133 0
123 130 0
124 128 0
117 118 0
125 131 0
109 112 12
117 121 0
120 127 0
113 110 0
108 110 0
120 123 0
111 109 0
114 115 0
116 119 17
109 109 22
113 118 32
111 115 26
104 109 22
112 117 32
106 108 0
105 108 32
113 118 47
105 109 32
123 132 51
146 161 32
157 174 0
159 175 0
157 172 0
154 168 0
158 176 0
158 174 0
163 179 0
155 172 0
159 175 0
153 169 0
158 174 0
154 165 0
157 174 0
154 164 0
159 176 0
154 167 0
151 148 45
139 100 67
138 98 56
142 101 71
148 104 77
145 102 76
154 111 94
150 107 73
147 104 81
150 106 80
152 110 80
149 105 80
145 104 82
149 107 76
152 108 84
152 108 82
153 109 88
156 111 93
149 106 79
152 109 79
153 111 81
152 109 85
151 108 77
156 111 93
152 109 87
154 110 88
152 109 79
156 112 90
151 109 86
155 110 91
154 111 86
150 108 76
152 110 84
151 109 84
153 110 87
152 109 82
154 110 88
159 113 100
154 111 88
152 108 88
154 110 84
155 110 85
157 112 90
148 107 67
151 109 80
153 109 79
153 109 86
147 105 74
151 109 78
152 108 79
152 108 85
151 107 79
154 111 78
152 109 80
152 108 79
154 110 89
152 108 79
154 110 85
152 108 85
156 112 93
149 106 78
155 112 86
153 109 88
154 110 89
153 110 87
156 111 94
156 111 90
152 108 82
151 108 75
152 107 81
151 106 79
157 112 89
150 108 76
157 112 94
152 108 76
150 107 81
150 107 76
156 112 88
147 105 68
154 110 85
151 107 81
149 106 78
151 109 76
152 108 86
152 109 77
151 108 76
154 109 91
154 111 86
156 111 94
150 107 79
148 106 69
151 107 76
150 106 81
148 104 83
149 106 76
148 104 69
149 104 78
149 103 80
147 102 77
141 96 58
142 133 37
155 163 0
160 171 0
160 169 0
159 169 0
158 165 0
166 180 0
157 165 0
160 171 0
161 172 0
160 168 0
161 170 0
157 168 0
162 173 0
160 168 0
161 170 0
158 167 0
151 158 0
116 107 0
121 104 0
128 109 0
127 107 0
120 98 0
124 101 0
124 104 0
116 95 0
125 105 0
123 100 0
121 99 0
123 103 0
128 109 0
127 108 0
121 98 0
127 108 0
124 104 0
130 108 0
130 112 0
126 108 0
126 104 0
131 116 0
129 113 0
128 107 0
130 113 0
124 107 0
132 114 0
128 107 0
134 117 0
133 116 0
125 105 0
138 123 0
136 122 0
132 114 0
138 119 0
137 123 0
131 115 0
135 119 0
137 123 0
140 125 0
141 127 0
142 128 0
139 125 0
138 127 0
139 128 0
141 130 0
141 128 0
139 127 0
143 131 0
140 129 0
142 129 0
140 126 0
144 134 0
142 132 0
143 132 0
140 131 0
145 135 0
144 132 0
142 128 0
142 132 0
147 139 0
145 133 0
146 137 0
147 139 0
144 132 0
144 133 0
146 137 0
147 139 0
145 135 0
147 139 0
147 140 0
151 142 0
142 133 0
146 140 0
148 140 0
148 139 0
149 140 0
150 141 0
150 143 0
145 138 0
144 136 0
146 137 0
148 141 0
148 141 0
146 139 0
151 145 0
149 140 0
146 138 0
150 143 0
147 139 0
148 139 0
149 142 0
149 144 0
148 142 0
150 144 0
147 140 0
150 145 0
152 145 0
151 143 0
150 144 0
151 146 0
153 146 0
152 146 0
154 148 0
152 145 0
154 148 0
152 147 0
151 146 0
152 147 0
151 146 0
151 146 0
152 146 0
149 142 0
151 145 0
149 146 0
152 148 0
152 146 0
151 146 0
153 149 0
152 146 0
155 150 0
148 143 0
153 148 0
151 145 0
154 149 0
147 164 97
152 168 102
145 162 79
140 157 75
143 161 82
141 156 88
142 159 79
148 165 94
147 163 97
149 166 94
144 162 72
145 161 75
139 154 85
147 165 72
146 162 79
151 168 79
146 163 75
141 157 72
144 158 75
148 165 82
147 163 68
144 162 60
143 160 56
146 164 60
146 163 64
145 162 64
139 154 51
144 161 75
147 164 85
148 164 68
139 155 51
149 167 72
144 160 72
144 159 72
146 160 85
146 164 56
147 165 64
143 158 56
144 160 56
139 154 45
144 160 60
145 162 51
147 164 45
143 159 39
145 162 32
140 156 51
149 166 39
146 161 60
144 159 51
144 160 32
140 155 60
144 159 39
140 155 39
139 151 39
136 148 45
146 163 32
146 160 39
143 159 22
144 160 39
141 152 45
140 152 32
141 156 39
140 155 22
135 150 39
140 154 22
133 146 32
138 152 39
139 153 45
138 151 32
139 152 22
138 153 32
130 141 32
133 144 0
138 150 22
137 150 32
139 152 39
138 153 0
134 145 0
137 148 22
132 144 32
133 144 0
132 141 0
136 149 0
136 148 22
136 147 0
128 139 0
131 141 0
134 146 0
124 131 0
125 131 0
130 138 0
121 128 0
132 139 0
124 128 0
123 129 0
120 125 22
127 132 22
124 127 21
120 125 0
114 115 0
121 126 12
121 125 12
119 122 0
122 125 11
117 122 0
121 124 11
114 117 0
122 125 0
115 117 0
109 112 0
122 125 0
106 112 0
113 114 26
107 108 0
102 98 32
116 121 22
99 102 22
111 115 39
106 111 39
98 101 0
114 119 32
96 100 0
121 130 60
156 172 32
152 166 0
157 174 0
154 170 0
160 176 0
156 172 0
156 169 0
151 165 0
150 164 0
150 164 0
158 174 0
151 165 0
157 168 0
155 169 0
150 163 0
158 174 0
152 164 0
154 167 0
154 169 14
140 120 53
142 100 75
144 103 72
147 104 80
147 106 79
150 106 79
148 105 76
148 105 81
150 106 78
146 104 74
150 106 83
148 105 78
148 106 74
149 106 80
150 108 78
152 110 75
151 108 78
152 109 87
148 106 78
154 108 87
154 111 87
151 108 78
153 110 82
151 108 83
155 112 88
149 107 80
153 111 87
151 109 76
149 107 79
152 109 84
152 107 84
153 109 84
151 108 78
150 108 75
153 110 81
151 108 87
152 109 76
148 106 74
157 112 91
154 110 89
156 110 90
156 111 93
153 110 85
152 109 80
152 108 81
155 112 89
151 107 82
154 110 87
154 109 81
154 111 81
154 110 87
153 109 80
150 107 79
155 111 89
154 109 82
149 106 79
156 112 90
154 109 86
151 108 84
154 109 88
152 108 82
153 110 84
154 111 85
152 108 81
156 112 88
154 110 87
152 109 79
153 109 84
152 109 84
154 110 85
155 110 88
149 106 75
153 110 81
149 106 81
154 109 93
152 109 84
154 109 86
152 108 81
151 109 75
151 107 84
151 108 79
152 108 85
150 106 81
155 110 88
153 109 82
150 105 83
147 103 80
150 107 80
148 104 72
147 104 78
148 105 74
150 105 78
148 104 72
143 101 68
145 101 69
144 103 72
146 102 72
141 97 61
147 121 59
159 170 0
157 166 0
157 167 0
155 161 0
162 173 0
154 161 0
157 162 0
154 160 0
157 165 0
158 168 0
157 166 0
161 171 0
158 165 0
159 166 0
157 164 0
160 170 0
157 165 0
158 165 0
152 156 0
123 113 0
120 102 0
115 95 0
129 110 0
123 105 0
125 105 0
125 105 0
119 99 0
119 99 0
114 90 0
120 98 0
127 108 0
119 98 0
125 105 0
126 108 0
124 104 0
123 100 0
125 104 0
124 103 0
124 103 0
122 99 0
129 113 0
124 104 0
134 115 0
128 111 0
131 113 0
132 115 0
138 123 0
135 121 0
132 116 0
129 112 0
133 116 0
127 108 0
136 122 0
134 120 0
138 124 0
136 117 0
140 123 0
141 128 0
142 129 0
136 122 0
141 125 0
140 125 0
142 129 0
141 128 0
139 127 0
137 123 0
138 123 0
144 133 0
140 128 0
145 135 0
141 128 0
142 132 0
141 128 0
141 128 0
142 130 0
144 134 0
143 133 0
146 136 0
146 137 0
144 134 0
145 136 0
149 140 0
141 129 0
147 137 0
148 137 0
147 137 0
143 134 0
143 133 0
146 137 0
146 138 0
146 136 0
145 134 0
151 143 0
148 138 0
147 138 0
147 139 0
144 138 0
148 140 0
148 141 0
149 144 0
146 139 0
148 140 0
149 142 0
151 143 0
148 140 0
148 139 0
151 144 0
149 141 0
147 140 0
150 143 0
150 142 0
150 143 0
147 140 0
146 138 0
149 141 0
146 138 0
153 148 0
148 141 0
149 141 0
151 145 0
149 143 0
152 146 0
150 144 0
151 146 0
150 142 0
151 143 0
149 142 0
153 145 0
151 145 0
153 147 0
149 143 0
153 146 0
153 147 0
152 144 0
151 146 0
153 147 0
151 147 0
152 144 0
152 146 0
152 146 0
152 147 0
153 149 0
152 146 0
148 164 102
143 160 85
134 149 75
142 157 91
143 161 68
143 160 79
145 162 68
142 157 82
141 157 82
147 165 79
140 155 79
146 163 79
145 161 72
141 157 72
144 161 60
149 165 75
142 159 72
144 161 56
146 161 85
149 166 88
139 155 60
141 158 72
145 160 51
145 163 51
138 156 45
145 162 72
145 161 68
146 163 60
150 168 56
150 167 60
142 158 56
143 160 64
140 156 60
142 157 45
147 164 56
144 161 60
143 159 39
145 163 64
146 163 32
148 164 45
146 162 32
150 166 60
139 156 39
139 153 51
142 159 45
137 153 39
143 157 56
144 161 32
137 152 39
139 154 32
139 153 22
148 164 51
135 151 0
141 156 32
140 154 45
140 154 32
143 159 39
134 149 0
137 153 0
138 153 22
141 156 0
140 153 45
140 155 22
143 158 22
138 154 32
142 156 22
142 155 22
141 156 0
138 150 0
143 158 39
143 157 0
141 154 22
135 145 0
139 154 0
135 147 22
139 153 0
130 140 22
133 147 0
137 148 0
135 144 0
134 145 0
132 144 0
133 142 0
130 138 0
128 137 0
136 147 0
131 140 0
136 143 0
128 134 26
128 137 0
125 131 0
127 133 17
125 132 0
124 130 0
125 132 0
129 132 0
122 125 0
119 123 0
125 131 0
116 119 0
119 125 0
118 119 0
113 113 17
118 122 0
119 120 12
120 125 12
107 109 0
114 116 12
108 111 0
117 119 0
114 117 0
113 113 0
107 108 0
110 110 0
121 128 22
110 114 22
106 106 26
107 111 32
99 101 0
106 112 22
104 110 39
122 130 32
151 167 22
148 162 0
152 167 0
157 172 0
147 161 0
153 168 0
152 165 0
155 169 0
150 164 0
151 166 0
150 163 0
152 164 0
154 169 0
158 174 0
150 162 0
155 170 0
152 162 0
148 161 0
148 157 0
159 173 0
154 164 0
148 123 67
143 102 68
147 105 70
143 103 63
145 103 79
146 103 75
147 106 81
146 104 72
148 105 77
144 102 70
152 108 85
150 105 82
155 110 87
147 104 79
148 107 76
153 109 85
148 106 75
150 105 75
157 113 90
152 109 85
156 112 91
150 108 81
150 107 80
150 107 84
153 109 85
148 106 70
150 106 76
149 107 75
153 109 76
154 111 86
152 110 81
156 112 91
153 109 82
149 107 75
150 108 76
154 110 86
153 110 87
153 109 78
151 108 76
149 106 75
158 113 97
155 110 88
153 110 87
149 106 79
149 106 74
150 107 75
153 109 81
154 110 84
152 109 76
155 111 90
154 109 93
149 107 82
151 109 72
153 109 87
153 110 80
159 114 93
155 111 86
153 109 79
154 110 89
152 109 81
153 110 82
154 109 86
150 108 87
153 110 87
151 108 79
160 114 95
151 109 84
154 110 79
154 110 81
150 106 72
149 106 79
152 108 80
155 109 91
151 108 78
150 106 80
153 110 82
151 107 79
151 107 81
152 106 84
146 103 72
150 106 86
154 109 86
151 109 79
154 110 84
150 107 84
149 105 75
147 103 75
143 101 67
149 105 72
152 107 78
149 105 75
150 105 76
152 108 84
148 102 79
151 105 75
146 102 74
138 104 57
152 156 0
155 162 0
154 160 0
156 165 0
154 158 0
159 168 0
151 155 0
158 164 0
157 165 0
155 162 0
154 160 0
156 161 0
148 152 0
152 157 0
152 156 0
155 162 0
153 156 0
153 158 0
156 162 0
156 164 0
154 159 0
127 117 0
113 95 0
123 105 0
123 103 0
128 103 0
127 107 0
123 100 0
122 100 0
122 100 0
117 94 0
124 102 0
126 105 0
122 101 0
127 107 0
127 109 0
125 104 0
127 105 0
127 109 0
129 109 0
130 111 0
131 114 0
127 107 0
130 111 0
128 112 0
126 105 0
131 116 0
127 109 0
129 111 0
134 116 0
132 113 0
138 123 0
134 116 0
131 117 0
136 120 0
136 121 0
128 110 0
138 124 0
134 120 0
140 125 0
139 125 0
139 126 0
142 128 0
136 121 0
139 125 0
138 124 0
140 127 0
138 125 0
141 129 0
142 130 0
143 131 0
146 135 0
140 123 0
142 132 0
136 122 0
145 132 0
142 131 0
145 134 0
142 132 0
139 126 0
145 134 0
142 131 0
146 136 0
142 132 0
145 136 0
146 137 0
138 126 0
143 133 0
148 136 0
146 136 0
144 134 0
147 137 0
147 138 0
146 135 0
144 134 0
151 145 0
146 137 0
149 142 0
145 136 0
149 139 0
143 132 0
149 142 0
145 136 0
149 142 0
148 138 0
149 141 0
153 146 0
148 139 0
149 142 0
151 145 0
145 136 0
145 137 0
150 141 0
148 140 0
148 139 0
148 140 0
150 142 0
151 142 0
147 141 0
151 144 0
151 146 0
149 141 0
151 145 0
148 141 0
151 145 0
149 142 0
151 145 0
150 144 0
152 145 0
154 146 0
151 146 0
152 147 0
151 143 0
152 145 0
153 146 0
151 144 0
150 144 0
154 148 0
151 146 0
152 147 0
153 149 0
151 144 0
153 148 0
150 144 0
144 161 91
141 158 75
142 159 102
143 160 75
149 166 94
145 163 72
142 158 85
141 157 97
138 152 60
139 156 68
142 159 64
143 159 72
140 157 45
141 158 75
141 158 79
144 161 56
142 158 56
149 165 91
144 161 75
146 162 75
143 160 45
139 154 39
144 161 64
139 157 51
147 165 60
143 159 75
143 159 56
143 158 68
146 162 68
139 155 56
142 158 51
142 157 72
137 154 51
141 158 45
145 161 45
140 156 22
146 160 60
142 158 45
142 158 56
142 159 60
139 154 45
142 158 39
147 164 51
143 158 39
139 155 39
139 154 32
142 158 51
139 154 39
143 158 39
140 154 45
142 159 39
137 150 0
141 155 32
137 151 0
141 156 22
140 156 32
139 154 22
146 162 32
141 157 22
138 152 39
143 158 22
140 154 56
141 158 22
142 156 32
141 155 22
140 154 32
138 154 22
140 153 22
139 151 0
135 146 22
139 154 0
137 150 0
136 150 0
135 151 0
140 152 0
134 146 0
135 147 0
131 144 22
130 139 0
130 139 0
129 137 0
129 137 0
134 145 0
138 151 0
134 144 0
130 139 11
131 139 0
129 138 0
124 131 0
126 135 0
129 138 0
121 130 0
127 134 0
127 132 0
125 132 0
127 129 0
124 130 0
115 120 0
119 124 0
122 127 0
114 121 12
120 124 0
119 122 0
119 123 0
111 111 0
110 110 0
118 122 0
111 112 22
117 120 12
111 112 0
109 111 0
104 107 0
106 106 22
99 98 32
103 104 32
110 115 22
106 111 32
111 117 32
99 102 45
99 104 22
131 143 22
151 167 0
153 170 0
147 160 0
151 165 0
147 159 0
152 163 0
148 160 0
145 157 0
143 154 0
152 163 0
147 161 0
145 156 0
152 163 0
148 160 0
150 163 0
151 164 0
151 164 0
146 156 0
145 156 0
152 164 0
145 153 0
149 158 0
151 159 19
142 105 68
143 102 68
142 100 68
143 101 70
146 103 80
149 107 79
145 103 66
148 106 81
151 109 75
144 103 65
145 104 72
152 108 85
150 106 77
154 110 87
147 105 72
147 104 75
148 106 76
153 110 81
146 103 78
152 108 77
148 104 81
149 106 82
153 109 86
148 105 74
154 110 79
154 110 89
154 111 84
153 109 89
150 106 80
151 108 86
150 106 80
150 107 75
154 110 85
149 108 72
152 109 80
154 110 81
151 108 76
152 108 80
150 108 79
150 106 82
154 110 82
154 110 82
151 108 75
153 110 80
149 106 76
147 105 72
150 107 81
155 111 86
153 109 81
153 109 85
153 109 89
154 110 80
149 108 70
154 109 84
154 109 87
150 108 76
154 110 86
154 111 86
152 108 80
154 109 91
152 108 82
152 108 79
154 109 84
153 109 87
153 109 82
149 106 75
150 106 76
151 109 78
153 109 85
155 110 89
152 109 75
151 107 81
151 108 75
149 106 75
154 109 88
152 107 82
151 108 78
150 107 76
155 111 86
151 107 79
156 110 92
152 109 86
145 102 72
152 106 83
149 103 79
153 109 85
150 107 77
150 107 71
148 104 73
144 103 67
146 102 72
146 102 68
148 102 74
144 100 66
150 108 76
147 142 24
152 159 0
148 151 0
147 146 0
153 158 0
154 157 0
158 166 0
150 152 0
157 163 0
156 162 0
144 147 0
148 149 0
156 160 0
149 154 0
154 162 0
151 154 0
150 154 0
158 164 0
156 158 0
156 162 0
154 162 0
154 154 0
152 155 0
133 131 0
119 100 0
113 89 0
120 99 0
129 109 0
122 100 0
125 104 0
120 98 0
124 100 0
124 104 0
125 102 0
118 95 0
122 98 0
122 101 0
124 103 0
120 98 0
120 101 0
129 112 0
133 114 0
126 107 0
126 107 0
126 109 0
132 116 0
134 113 0
128 114 0
125 104 0
134 118 0
134 118 0
132 116 0
133 113 0
133 119 0
127 105 0
130 114 0
137 124 0
138 123 0
139 123 0
135 122 0
142 130 0
137 123 0
144 132 0
138 124 0
140 126 0
140 125 0
138 122 0
144 133 0
137 123 0
139 127 0
138 126 0
136 125 0
141 130 0
144 133 0
145 135 0
141 129 0
144 133 0
142 128 0
143 131 0
145 133 0
142 130 0
144 133 0
144 134 0
147 137 0
146 138 0
145 136 0
143 133 0
147 135 0
145 134 0
146 137 0
145 136 0
145 138 0
144 135 0
148 139 0
145 137 0
144 134 0
146 136 0
144 136 0
148 141 0
147 139 0
149 141 0
147 139 0
147 138 0
151 145 0
145 137 0
146 135 0
148 139 0
146 138 0
147 138 0
150 142 0
145 135 0
147 140 0
151 144 0
150 143 0
150 144 0
148 139 0
146 138 0
146 138 0
151 144 0
148 141 0
148 141 0
153 147 0
147 141 0
149 141 0
152 147 0
151 145 0
150 143 0
153 146 0
150 144 0
153 146 0
150 144 0
150 140 0
151 146 0
150 143 0
151 144 0
152 145 0
152 146 0
150 143 0
152 146 0
150 145 0
152 146 0
154 147 0
153 147 0
151 145 0
152 147 0
145 162 68
146 161 88
134 149 88
144 161 72
137 153 85
143 159 91
139 155 82
143 159 85
134 150 64
144 160 82
141 157 75
131 145 64
138 153 56
145 161 68
142 160 64
143 160 64
139 157 39
145 163 60
146 163 68
142 156 75
141 156 72
143 160 64
142 159 56
145 162 60
143 161 45
146 162 75
147 165 56
146 163 79
144 162 39
143 160 56
149 166 51
149 165 51
139 154 51
142 157 56
133 148 0
136 150 39
145 161 45
143 159 51
146 163 45
140 157 39
140 155 51
144 160 22
137 153 22
137 151 39
138 153 32
140 156 51
144 161 51
138 153 60
148 164 39
140 154 51
139 155 22
144 160 60
144 159 51
142 156 39
138 152 32
140 155 22
144 157 51
141 158 22
139 152 0
137 151 22
141 156 22
135 146 32
134 146 0
139 152 22
137 151 32
138 152 0
135 149 22
135 147 0
130 144 22
130 143 0
127 136 22
136 147 0
134 147 22
126 134 0
133 144 22
134 146 0
139 152 0
129 139 0
132 144 0
134 146 0
131 141 0
133 145 0
133 144 0
133 145 0
133 140 0
133 144 0
127 136 0
129 139 0
121 128 0
127 136 0
130 140 0
128 136 0
122 128 0
125 132 0
114 116 0
120 119 0
129 136 0
116 121 0
112 114 0
116 120 0
120 123 0
119 127 0
118 125 22
116 119 0
116 120 22
109 115 0
112 114 0
114 120 0
104 107 0
106 107 0
109 113 0
105 107 0
99 103 0
99 102 22
104 108 0
101 104 0
103 104 32
96 100 22
108 117 39
141 154 0
151 166 0
146 159 0
151 165 0
150 164 0
148 159 0
144 153 0
154 168 0
145 155 0
144 158 0
149 160 0
146 156 0
144 154 0
144 157 0
143 150 0
137 144 0
146 156 0
150 166 0
149 160 0
150 160 0
149 160 0
148 157 0
153 161 0
143 152 0
156 167 0
144 142 37
143 107 62
147 104 78
140 99 68
145 102 62
146 102 76
146 104 72
148 106 78
145 104 66
150 106 79
148 105 79
149 105 72
148 105 76
149 106 81
147 106 72
147 104 76
148 106 76
152 110 76
151 108 86
149 106 77
148 106 75
154 110 89
154 110 85
153 109 81
152 109 84
148 106 80
151 109 81
150 108 68
149 107 76
154 111 86
149 107 79
153 108 89
149 106 71
151 108 81
150 107 84
148 105 81
155 110 85
153 109 80
148 105 71
150 108 75
152 109 81
155 111 93
153 108 84
152 109 82
150 108 80
150 108 76
150 105 75
149 107 80
153 109 81
153 109 79
153 109 87
150 107 78
158 112 93
151 107 79
147 103 81
151 108 79
154 110 88
148 105 68
150 106 72
152 109 74
151 109 76
149 106 68
151 107 82
152 108 87
151 108 81
156 111 87
150 106 79
149 105 78
154 109 88
151 106 81
149 105 75
151 106 87
152 108 79
154 110 86
148 105 75
150 106 79
152 109 75
153 110 84
150 106 78
155 109 90
151 107 79
151 107 80
148 104 74
152 107 84
148 104 72
151 107 74
152 107 86
146 103 73
147 105 78
143 99 61
144 98 59
143 100 62
143 100 70
142 98 68
149 147 14
155 162 0
144 145 0
152 152 0
152 157 0
148 150 0
150 154 0
147 150 0
148 154 0
151 158 0
152 155 0
152 154 0
155 158 0
152 155 0
146 145 0
156 160 0
157 163 0
151 155 0
150 152 0
151 156 0
157 161 0
147 149 0
156 159 0
149 151 0
146 144 0
135 133 0
119 105 0
115 94 0
126 108 0
123 101 0
122 102 0
118 93 0
118 94 0
121 99 0
124 103 0
122 99 0
128 110 0
126 103 0
124 103 0
121 100 0
126 108 0
124 103 0
130 112 0
128 109 0
122 102 0
130 111 0
129 110 0
124 104 0
129 108 0
130 111 0
126 107 0
131 112 0
134 118 0
130 113 0
131 113 0
134 114 0
132 116 0
136 120 0
131 115 0
136 123 0
140 126 0
137 123 0
140 126 0
139 124 0
139 124 0
137 121 0
137 121 0
138 125 0
134 118 0
144 130 0
140 127 0
138 126 0
141 129 0
139 126 0
141 128 0
141 127 0
142 129 0
144 134 0
138 124 0
143 131 0
141 126 0
143 131 0
146 136 0
140 131 0
143 133 0
145 135 0
143 129 0
147 138 0
143 133 0
148 137 0
143 134 0
146 136 0
147 137 0
147 137 0
144 132 0
143 134 0
145 135 0
147 139 0
148 138 0
149 139 0
146 136 0
145 136 0
144 133 0
145 137 0
146 136 0
148 140 0
144 136 0
148 139 0
145 136 0
150 141 0
147 140 0
145 135 0
147 140 0
148 140 0
151 143 0
149 142 0
148 141 0
147 139 0
152 145 0
147 138 0
149 143 0
151 143 0
150 144 0
150 143 0
149 140 0
148 142 0
148 142 0
153 144 0
150 142 0
150 140 0
149 142 0
151 143 0
150 142 0
152 147 0
150 144 0
151 144 0
151 144 0
153 147 0
150 144 0
153 147 0
151 145 0
152 147 0
151 145 0
154 148 0
151 145 0
151 144 0
139 154 72
140 157 68
143 160 79
146 163 82
144 160 91
139 155 68
139 157 64
137 153 75
147 163 79
141 157 64
142 158 64
137 152 72
141 157 68
152 169 94
137 153 75
142 159 39
139 154 68
149 166 75
142 158 60
144 161 79
145 161 72
136 152 56
142 159 56
145 162 68
143 160 64
136 152 45
145 162 60
141 157 64
144 160 51
134 149 56
141 159 60
147 166 51
143 160 39
133 148 39
139 157 22
144 160 60
141 157 45
142 157 51
140 156 60
149 165 64
139 155 45
134 149 22
140 157 32
141 158 45
142 155 39
141 155 51
142 157 22
137 153 32
138 153 22
136 152 32
134 147 32
139 153 22
140 156 22
137 154 22
145 161 22
145 161 0
140 153 22
139 154 32
132 145 32
131 144 0
140 154 39
147 162 39
136 150 0
137 153 0
132 145 0
134 145 0
135 148 22
136 151 22
133 146 22
131 143 0
131 143 32
137 148 0
130 140 0
132 142 0
138 149 0
132 142 0
132 143 0
132 144 32
127 134 0
130 143 0
113 120 0
125 135 0
128 139 0
119 128 0
133 145 0
125 135 0
120 128 0
122 126 0
127 138 0
121 127 0
118 123 0
125 134 0
125 132 0
124 131 0
124 128 0
114 118 0
117 124 0
121 128 0
113 117 0
124 132 0
110 113 11
120 125 0
113 120 0
115 116 0
114 119 0
108 113 0
109 112 0
100 98 0
109 112 22
113 117 0
106 111 0
113 119 22
107 111 32
105 108 0
101 106 0
96 98 32
93 94 32
109 116 22
138 147 0
138 148 0
139 148 0
141 153 0
142 154 0
137 148 0
151 161 0
145 155 0
143 152 0
144 154 0
144 156 0
140 148 0
142 152 0
144 155 0
146 155 0
146 157 0
142 148 0
148 159 0
143 152 0
150 162 0
145 152 0
149 160 0
146 155 0
142 150 0
149 156 0
146 154 0
147 155 0
143 145 19
141 101 66
141 99 68
146 104 76
143 100 65
143 101 74
150 107 79
144 103 75
145 102 75
146 104 65
146 104 63
151 109 76
148 105 79
145 102 66
143 102 68
149 107 79
151 108 82
151 107 84
153 108 86
149 107 79
152 108 81
152 109 85
150 107 85
151 108 82
147 104 72
153 109 83
154 109 85
151 108 76
153 109 87
149 107 75
154 109 88
152 108 81
149 106 75
150 107 85
157 110 93
151 108 74
148 105 70
151 108 81
150 107 76
149 106 80
152 110 79
150 107 78
151 107 80
153 109 88
156 112 84
151 107 75
151 108 78
150 107 76
152 109 82
154 110 91
151 108 85
152 109 80
150 107 80
152 109 80
154 112 84
149 106 75
150 107 80
148 106 75
145 102 70
154 110 85
155 111 86
153 110 81
152 108 76
153 109 85
148 105 74
154 109 82
151 106 85
156 112 90
152 109 78
151 106 80
150 106 81
153 109 81
151 108 78
153 109 84
150 107 79
152 107 84
151 108 80
149 105 78
152 108 85
150 107 78
149 106 72
150 105 74
147 104 68
144 102 59
147 102 69
145 102 67
147 103 78
145 102 64
145 101 71
144 100 72
142 99 66
145 102 64
143 132 34
151 153 0
147 145 0
147 146 0
151 153 0
155 162 0
150 152 0
153 154 0
147 146 0
149 152 0
151 157 0
151 157 0
153 155 0
155 163 0
153 153 0
150 155 0
149 151 0
149 150 0
150 151 0
151 153 0
151 154 0
148 149 0
148 148 0
154 157 0
142 140 0
145 141 0
147 147 0
145 145 0
123 110 0
113 96 0
119 96 0
118 97 0
118 95 0
116 93 0
116 94 0
119 98 0
122 103 0
121 97 0
121 98 0
127 106 0
117 94 0
121 101 0
124 102 0
121 100 0
120 99 0
127 108 0
123 104 0
130 111 0
128 108 0
127 108 0
128 107 0
132 114 0
128 107 0
127 108 0
133 115 0
136 118 0
132 116 0
132 116 0
132 114 0
128 112 0
133 119 0
139 123 0
135 117 0
133 114 0
131 112 0
140 125 0
137 122 0
138 124 0
139 125 0
138 124 0
138 126 0
138 124 0
141 127 0
141 126 0
136 120 0
139 125 0
140 128 0
144 134 0
139 126 0
144 134 0
139 128 0
140 128 0
144 133 0
140 126 0
139 126 0
141 128 0
139 124 0
143 133 0
147 136 0
139 126 0
143 132 0
148 137 0
144 133 0
144 134 0
147 138 0
148 140 0
146 135 0
143 131 0
146 137 0
148 139 0
147 137 0
144 134 0
145 135 0
147 138 0
145 136 0
147 139 0
146 136 0
147 136 0
145 134 0
146 136 0
149 141 0
147 138 0
148 140 0
149 141 0
148 140 0
147 137 0
148 139 0
147 138 0
148 139 0
151 144 0
152 146 0
148 141 0
147 139 0
150 143 0
150 143 0
148 142 0
149 142 0
152 146 0
147 139 0
148 140 0
150 143 0
148 141 0
150 143 0
152 145 0
149 142 0
149 142 0
149 143 0
150 143 0
149 142 0
150 142 0
152 147 0
151 144 0
153 147 0
151 146 0
151 145 0
152 147 0
154 149 0
129 144 75
141 158 64
140 158 75
134 150 64
138 154 72
135 151 64
127 142 60
143 160 88
139 156 72
139 156 56
141 159 79
137 154 56
144 161 82
139 155 64
135 151 72
143 159 75
140 157 39
140 156 64
139 154 56
145 159 85
141 158 56
135 151 45
137 152 60
143 160 56
148 164 79
136 152 39
138 155 45
140 156 56
141 156 39
139 156 32
143 157 64
142 157 60
139 154 45
146 163 45
141 157 22
146 160 64
138 155 32
136 150 39
139 153 39
141 156 32
133 148 39
139 155 45
135 151 39
135 151 22
138 152 56
137 153 32
140 153 32
136 150 22
136 149 22
139 155 39
142 158 39
140 153 32
141 158 32
139 156 0
139 154 32
136 149 45
126 139 0
129 143 22
136 152 0
134 148 0
137 151 32
138 148 32
141 156 22
136 150 0
137 152 0
133 143 0
132 142 22
135 148 0
131 142 0
134 145 22
127 139 0
137 151 0
131 141 22
136 147 0
133 145 0
131 141 22
125 134 22
134 148 0
132 141 0
128 135 0
132 142 0
129 140 0
129 137 0
124 130 0
128 139 0
128 139 0
127 137 0
124 129 0
123 131 0
124 135 0
117 122 0
117 122 0
118 124 0
121 129 0
118 124 0
118 125 0
116 123 0
115 117 0
110 114 0
116 119 0
108 113 0
114 117 0
121 128 0
110 116 0
107 112 0
109 114 0
107 109 0
103 108 0
100 103 22
105 113 0
97 100 0
95 99 0
96 101 32
103 108 39
98 101 32
99 103 32
128 140 22
140 152 0
131 140 0
146 159 0
142 153 0
140 151 0
137 149 0
137 147 0
147 159 0
139 148 0
141 151 0
137 144 0
139 148 0
141 149 0
146 156 0
140 153 0
137 146 0
146 157 0
136 142 0
145 155 0
138 143 0
140 150 0
138 146 0
150 161 0
146 156 0
141 146 0
148 155 0
142 149 0
145 152 0
146 154 0
144 136 31
147 104 80
144 103 68
146 103 68
143 100 69
145 101 69
147 105 73
142 101 69
148 106 77
150 106 74
147 105 74
147 105 75
148 105 73
144 101 70
147 104 74
149 105 84
153 109 81
152 109 81
149 106 78
155 110 85
150 108 72
150 107 78
152 110 80
153 109 87
149 106 81
151 107 74
147 104 74
152 108 86
154 110 89
149 106 68
153 108 85
153 110 84
147 104 71
150 108 71
154 110 89
157 111 93
151 109 79
153 110 79
153 110 82
150 107 75
148 105 75
157 112 91
150 107 78
150 106 82
152 107 82
149 105 67
151 109 74
153 109 85
149 107 68
155 111 86
155 110 87
147 106 64
152 109 88
145 103 67
147 105 76
150 107 75
151 107 74
152 107 74
150 108 76
149 107 74
148 105 79
151 107 81
154 109 93
149 105 68
149 105 75
150 107 74
149 105 83
146 104 71
148 106 80
152 108 84
151 109 76
146 103 68
151 108 76
145 102 69
150 106 75
153 109 83
147 104 70
146 101 68
146 103 74
147 105 70
146 104 74
149 107 68
150 106 70
147 103 71
145 100 74
144 100 60
142 100 66
144 101 64
141 97 65
139 96 56
147 133 40
151 152 0
146 145 0
141 139 0
145 142 0
144 140 0
151 151 0
148 152 0
145 144 0
156 160 0
149 150 0
153 156 0
156 160 0
145 148 0
148 148 0
151 151 0
145 142 0
148 145 0
148 148 0
150 152 0
148 148 0
146 147 0
149 148 0
151 152 0
151 153 0
142 141 0
143 143 0
149 148 0
148 146 0
138 133 0
127 120 0
109 92 0
114 94 0
118 96 0
117 95 0
118 94 0
116 95 0
124 101 0
119 97 0
118 94 0
117 95 0
120 101 0
123 101 0
128 108 0
122 100 0
120 100 0
121 99 0
128 108 0
118 97 0
125 104 0
123 105 0
131 109 0
127 108 0
129 110 0
133 116 0
133 116 0
135 116 0
132 114 0
135 117 0
134 117 0
131 112 0
140 125 0
138 122 0
135 120 0
136 120 0
135 119 0
136 123 0
140 128 0
133 118 0
138 124 0
139 126 0
142 127 0
137 121 0
138 125 0
138 125 0
142 130 0
140 126 0
141 131 0
146 132 0
144 130 0
140 125 0
143 133 0
147 137 0
137 123 0
146 136 0
139 127 0
141 126 0
142 130 0
143 132 0
142 129 0
142 130 0
143 129 0
149 138 0
142 132 0
147 139 0
146 134 0
142 131 0
143 132 0
146 136 0
141 129 0
143 131 0
146 136 0
144 135 0
146 134 0
145 135 0
145 137 0
147 138 0
149 139 0
145 137 0
146 136 0
147 138 0
150 142 0
148 138 0
147 139 0
146 139 0
147 140 0
145 135 0
150 141 0
148 140 0
147 140 0
146 137 0
149 141 0
149 139 0
150 144 0
150 142 0
148 140 0
148 141 0
152 145 0
149 141 0
151 142 0
153 146 0
152 145 0
152 146 0
151 143 0
149 142 0
149 140 0
150 143 0
147 140 0
150 143 0
152 147 0
151 144 0
153 147 0
151 144 0
153 148 0
150 142 0
150 143 0
152 144 0
152 145 0
139 155 72
139 155 64
137 153 60
136 152 68
139 156 72
145 162 72
136 151 75
138 154 64
137 153 60
138 155 64
141 156 68
131 147 60
140 156 88
145 162 72
133 150 51
132 148 56
133 149 51
129 143 56
141 157 68
143 159 64
134 150 56
146 162 79
135 151 45
136 152 51
135 151 45
137 153 51
139 154 45
141 158 32
138 154 32
141 157 79
146 159 82
141 156 60
140 157 45
138 154 56
139 155 39
144 159 32
146 162 64
141 160 22
135 149 32
138 154 56
138 154 39
137 153 32
138 152 39
135 150 39
134 149 0
130 145 51
135 150 22
140 157 22
138 154 39
135 151 39
139 152 32
143 158 22
137 153 22
137 151 0
133 148 0
138 153 22
139 154 32
132 144 22
140 153 0
135 148 22
130 141 22
129 142 22
135 148 0
137 150 22
132 146 0
137 152 22
130 142 0
130 141 0
134 147 0
138 150 32
124 135 0
130 143 0
135 145 0
133 145 0
130 142 0
129 138 0
130 141 22
122 131 0
132 142 0
123 134 0
136 148 0
124 133 0
127 136 0
120 127 0
126 136 0
116 123 0
122 129 0
126 136 0
123 131 0
125 135 0
115 122 0
116 122 0
117 124 0
117 118 0
118 121 0
112 114 0
123 126 0
109 115 0
114 116 0
111 115 0
106 108 0
115 118 22
100 102 0
106 108 0
99 97 0
107 109 0
110 115 0
101 101 0
100 106 0
97 98 0
96 98 0
100 108 39
97 100 32
94 98 32
103 109 22
132 143 0
132 139 0
134 144 0
141 152 0
142 154 0
131 138 0
143 155 0
137 144 0
141 151 0
139 147 0
136 140 0
130 136 0
136 142 0
140 148 0
141 147 0
138 147 0
142 150 0
146 156 0
147 152 0
147 156 0
137 143 0
146 153 0
146 155 0
144 152 0
143 145 0
147 155 0
142 143 0
140 146 0
147 153 0
148 157 0
145 153 0
140 146 0
144 135 34
141 101 60
144 102 72
139 99 64
145 103 67
144 101 72
144 102 64
146 103 76
145 102 71
148 107 72
151 108 83
144 102 67
148 105 82
149 105 75
144 102 71
148 105 78
146 104 72
154 109 84
146 102 80
147 104 68
150 106 76
152 109 79
148 105 76
152 108 79
149 107 74
152 108 80
150 107 78
149 108 75
149 105 81
149 107 79
150 107 80
147 103 78
152 109 81
153 108 84
150 107 78
154 110 87
144 102 68
147 105 70
152 107 79
155 110 86
153 108 81
150 107 71
147 105 71
149 106 82
152 107 85
149 106 75
150 107 75
152 108 80
152 108 87
154 108 88
150 107 79
155 111 89
152 109 79
150 105 84
146 103 74
154 111 84
151 107 74
147 104 70
155 111 86
153 107 85
146 105 71
148 105 71
150 107 74
150 106 81
149 106 81
150 106 75
148 106 74
149 105 74
150 107 76
147 104 72
149 106 75
149 105 78
150 105 76
154 110 76
145 101 71
150 106 75
148 104 79
147 104 76
151 106 81
146 103 68
146 103 67
150 107 68
144 102 71
150 106 80
145 101 67
144 100 57
141 97 62
142 99 65
144 131 34
145 143 0
153 157 0
151 155 0
144 143 0
147 149 0
147 150 0
138 137 0
145 145 0
146 148 0
153 157 0
145 144 0
148 149 0
145 144 0
146 143 0
145 145 0
148 147 0
144 143 0
142 139 0
144 141 0
144 146 0
137 135 0
144 140 0
146 143 0
146 147 0
141 138 0
142 143 0
135 130 0
144 142 0
136 131 0
143 140 0
144 142 0
140 140 0
114 98 0
114 92 0
106 82 0
120 99 0
117 91 0
122 102 0
119 96 0
108 83 0
121 101 0
120 99 0
122 99 0
122 99 0
124 103 0
125 106 0
124 102 0
126 103 0
119 91 0
128 110 0
130 110 0
129 108 0
126 105 0
124 106 0
128 109 0
132 115 0
130 111 0
138 119 0
130 112 0
129 112 0
128 111 0
133 118 0
128 109 0
129 111 0
132 115 0
137 122 0
140 126 0
133 116 0
133 116 0
141 127 0
138 124 0
136 121 0
132 114 0
140 126 0
143 128 0
142 130 0
141 127 0
138 126 0
142 131 0
142 129 0
142 127 0
139 124 0
142 131 0
140 127 0
146 131 0
145 134 0
143 131 0
143 131 0
141 130 0
142 131 0
145 135 0
142 131 0
145 135 0
140 127 0
149 139 0
148 137 0
145 134 0
148 139 0
147 137 0
143 131 0
146 136 0
143 132 0
142 131 0
146 134 0
145 134 0
146 135 0
150 142 0
144 133 0
144 136 0
147 136 0
147 138 0
150 141 0
148 139 0
146 137 0
146 137 0
148 138 0
148 140 0
148 139 0
145 136 0
148 139 0
148 141 0
151 142 0
149 141 0
148 140 0
149 140 0
151 141 0
146 139 0
149 143 0
148 141 0
151 142 0
151 145 0
150 143 0
150 142 0
149 143 0
150 143 0
149 142 0
152 146 0
151 144 0
151 146 0
152 146 0
151 144 0
152 145 0
150 143 0
150 142 0
153 148 0
150 144 0
151 146 0
152 146 0
131 147 51
140 155 85
126 140 64
144 160 79
144 160 88
140 158 64
134 150 68
139 155 56
134 149 68
135 152 45
138 153 79
140 156 56
140 156 64
142 158 79
141 158 72
144 160 64
134 150 51
130 144 45
142 158 64
137 154 56
146 163 56
139 155 64
142 157 60
139 155 75
140 156 60
139 155 56
143 160 45
136 152 45
134 149 51
145 160 64
140 156 45
134 148 64
135 151 39
143 159 39
142 159 22
144 160 51
144 161 39
137 152 32
141 155 39
136 152 22
135 151 0
140 156 32
138 154 39
138 154 0
142 155 45
130 144 22
137 151 39
136 150 32
138 155 22
144 160 51
141 157 32
137 153 0
134 148 0
138 151 32
134 146 32
135 149 22
134 147 22
139 151 32
133 149 22
128 139 22
132 146 0
125 138 0
134 150 22
127 140 0
126 137 0
136 149 22
132 143 0
128 139 39
127 137 0
133 145 0
124 133 0
131 144 22
129 141 22
127 136 0
126 137 0
128 137 0
127 137 0
122 130 0
123 132 0
126 136 0
124 133 0
121 132 0
120 128 0
120 130 0
125 135 0
124 131 0
117 123 0
121 129 0
112 117 0
117 123 0
117 124 0
118 126 0
120 127 0
119 124 0
105 110 0
119 124 0
115 122 0
112 116 0
117 122 0
101 106 0
111 113 0
114 119 0
106 109 0
109 110 0
106 107 0
108 112 0
109 114 0
103 104 22
100 107 0
103 109 22
96 99 22
87 91 0
103 107 22
130 141 22
128 138 0
134 145 0
126 132 0
134 142 0
139 151 0
133 137 0
136 144 0
138 146 0
141 152 0
141 153 0
137 148 0
129 133 0
140 148 0
141 149 0
140 144 0
142 149 0
141 149 0
140 148 0
143 151 0
140 149 0
146 153 0
143 152 0
139 144 0
142 148 0
141 147 0
141 146 0
141 147 0
144 151 0
145 152 0
148 154 0
141 147 0
147 153 0
145 149 0
145 153 0
138 127 34
135 95 50
143 102 67
140 96 65
140 99 62
144 101 80
144 103 69
145 103 76
146 104 65
145 102 70
140 99 64
148 106 67
153 110 84
147 104 71
146 103 75
146 105 70
149 107 76
145 103 71
144 100 72
151 109 72
147 105 65
153 110 82
152 108 83
152 107 82
148 104 72
148 106 72
151 107 79
153 110 88
151 108 79
143 101 76
148 105 78
152 108 82
152 109 79
152 109 74
147 105 71
150 107 80
154 110 88
153 109 82
150 107 74
150 106 74
149 106 81
150 105 78
154 111 86
152 108 79
151 108 81
157 113 90
150 106 74
151 107 82
153 110 84
150 108 74
149 105 74
147 105 59
149 106 74
147 106 68
153 109 84
153 110 81
149 107 71
147 104 70
150 105 78
152 109 81
152 109 81
153 109 82
150 105 82
153 109 87
148 105 74
151 107 81
151 106 81
149 105 81
148 105 76
144 102 67
151 105 73
145 103 72
147 104 74
146 102 71
148 105 72
148 104 74
142 98 62
145 102 68
152 107 78
146 102 74
146 102 74
148 103 70
144 102 65
140 96 62
147 103 73
143 103 57
140 118 42
145 143 0
145 142 0
143 143 0
143 139 0
144 142 0
146 147 0
131 123 0
145 144 0
144 146 0
143 140 0
145 140 0
142 140 0
142 140 0
149 149 0
136 131 0
150 151 0
145 145 0
141 139 0
148 146 0
141 139 0
134 132 0
139 135 0
144 140 0
135 132 0
146 146 0
146 145 0
142 137 0
144 143 0
141 137 0
141 139 0
136 129 0
142 141 0
136 127 0
140 138 0
129 123 0
111 94 0
98 76 0
112 89 0
112 87 0
114 90 0
120 97 0
121 100 0
117 93 0
117 92 0
115 93 0
120 98 0
119 98 0
121 98 0
121 96 0
125 102 0
122 101 0
123 103 0
121 101 0
130 111 0
126 103 0
127 107 0
130 112 0
127 107 0
129 111 0
130 110 0
127 108 0
132 114 0
138 123 0
129 111 0
132 115 0
132 115 0
132 116 0
136 120 0
136 120 0
141 127 0
133 116 0
136 120 0
135 119 0
135 121 0
137 123 0
132 116 0
137 122 0
140 126 0
143 129 0
138 125 0
137 122 0
137 124 0
137 123 0
140 126 0
143 129 0
139 124 0
135 120 0
140 128 0
145 135 0
143 130 0
140 129 0
140 125 0
142 127 0
142 130 0
141 129 0
143 131 0
146 137 0
141 129 0
144 131 0
146 132 0
146 134 0
145 135 0
148 138 0
145 133 0
149 138 0
143 130 0
143 134 0
143 132 0
145 136 0
147 136 0
146 135 0
145 136 0
146 136 0
146 137 0
147 138 0
148 137 0
145 134 0
147 139 0
145 137 0
148 138 0
146 139 0
148 140 0
146 137 0
149 142 0
149 140 0
150 139 0
150 143 0
150 143 0
147 139 0
149 141 0
148 141 0
150 143 0
150 141 0
146 137 0
150 143 0
148 141 0
149 140 0
151 145 0
149 142 0
150 144 0
149 140 0
151 143 0
151 144 0
149 144 0
151 145 0
149 143 0
148 141 0
150 143 0
153 148 0
132 148 60
133 148 68
131 147 56
142 159 72
131 146 68
129 144 45
139 155 75
140 157 51
133 150 56
144 160 64
135 151 51
131 146 39
134 151 56
138 154 68
138 154 68
135 151 60
137 153 64
136 152 56
136 151 51
134 150 64
133 149 45
143 160 68
143 160 56
142 158 64
135 152 39
139 154 51
136 151 45
136 152 39
131 146 39
137 153 60
135 150 60
141 157 22
138 153 45
138 154 51
138 152 39
140 157 32
138 153 45
134 148 39
141 156 45
140 156 45
136 151 32
140 154 45
137 151 39
137 154 32
138 154 22
127 143 22
140 156 22
133 145 32
139 152 32
143 159 32
138 152 0
135 149 0
136 150 22
129 142 22
131 144 22
135 148 22
139 155 0
129 142 0
132 147 22
136 152 0
134 147 22
129 142 0
135 149 0
133 146 22
129 142 0
134 147 0
131 144 0
125 137 0
128 138 0
126 138 0
127 138 0
126 138 0
128 140 0
128 140 0
124 136 0
119 128 0
130 139 0
123 132 0
128 138 0
124 133 0
123 131 0
114 119 0
125 132 0
117 127 0
117 123 0
119 127 0
118 124 0
122 131 0
121 129 0
110 114 0
119 123 0
109 116 0
110 116 0
108 112 0
110 116 0
109 117 0
116 118 0
113 117 0
116 124 0
108 115 0
99 104 0
106 110 0
95 100 0
98 101 0
100 106 0
99 102 0
107 112 0
101 107 0
108 114 0
99 104 0
92 99 0
101 107 0
128 135 22
132 141 0
128 135 0
132 140 0
129 137 0
127 136 0
128 136 0
127 131 0
138 145 0
134 142 0
136 144 0
133 138 0
137 144 0
139 146 0
146 153 0
134 140 0
129 134 0
127 132 0
136 145 0
142 149 0
129 129 0
138 143 0
132 136 0
141 142 0
139 145 0
141 148 0
143 150 0
138 137 0
141 149 0
140 146 0
143 148 0
134 134 0
142 145 0
144 149 0
140 143 0
142 143 0
140 146 0
134 121 31
134 96 53
144 102 74
146 104 68
144 101 62
143 100 69
139 98 50
144 103 64
145 102 70
144 101 62
147 103 80
148 105 70
143 103 71
148 105 70
143 101 70
149 106 79
150 107 71
150 108 78
150 107 80
148 105 76
150 106 79
147 106 67
146 104 67
147 104 74
146 103 72
151 107 72
147 103 74
145 102 74
148 106 74
154 110 86
150 106 74
148 105 75
149 106 68
149 106 79
146 104 70
150 107 74
147 104 70
151 109 82
154 110 82
148 106 76
153 110 80
154 110 86
147 105 65
153 110 78
152 109 79
149 106 80
152 108 84
151 107 81
153 109 82
155 111 86
152 108 79
152 107 80
150 107 74
151 108 75
151 107 76
149 106 84
148 105 68
154 109 81
152 106 87
146 104 72
148 104 78
153 109 80
151 107 78
149 106 74
148 104 78
148 104 72
148 105 78
149 103 73
156 110 89
148 104 75
148 103 76
145 102 64
149 105 74
145 101 79
151 106 75
144 101 71
143 101 64
144 101 62
144 99 71
138 94 65
144 101 70
147 102 74
144 100 64
143 101 64
138 122 24
141 137 0
146 139 0
144 143 0
149 149 0
146 144 0
138 131 0
143 139 0
139 139 0
143 140 0
143 142 0
142 138 0
142 139 0
144 140 0
136 128 0
133 126 0
138 135 0
145 147 0
137 130 0
139 135 0
140 134 0
138 134 0
135 128 0
137 133 0
140 138 0
149 147 0
135 130 0
137 128 0
136 131 0
141 138 0
134 124 0
139 134 0
137 134 0
139 135 0
139 134 0
131 125 0
134 126 0
131 123 0
110 97 0
109 90 0
122 100 0
112 89 0
117 92 0
113 89 0
126 107 0
123 100 0
115 91 0
120 98 0
116 92 0
123 102 0
123 103 0
128 106 0
123 102 0
131 112 0
122 100 0
127 107 0
125 106 0
134 116 0
126 109 0
132 112 0
128 109 0
136 118 0
132 113 0
131 115 0
135 118 0
134 119 0
131 112 0
135 118 0
132 113 0
137 119 0
136 118 0
134 117 0
138 123 0
133 116 0
136 122 0
136 120 0
136 119 0
135 119 0
131 116 0
137 121 0
140 125 0
141 129 0
144 133 0
141 125 0
139 125 0
139 125 0
144 132 0
140 127 0
140 126 0
144 132 0
140 127 0
140 127 0
142 130 0
143 131 0
142 127 0
146 135 0
145 135 0
146 135 0
142 130 0
144 131 0
143 130 0
143 129 0
144 133 0
143 131 0
144 130 0
144 135 0
146 135 0
143 132 0
148 139 0
145 137 0
145 136 0
142 132 0
146 135 0
142 132 0
146 135 0
144 134 0
145 135 0
147 138 0
146 136 0
148 140 0
149 141 0
147 138 0
152 143 0
151 144 0
150 142 0
146 137 0
149 141 0
149 141 0
148 141 0
144 135 0
147 139 0
144 138 0
148 141 0
146 139 0
150 143 0
147 139 0
150 141 0
149 142 0
149 144 0
149 141 0
150 143 0
152 145 0
150 142 0
152 144 0
151 142 0
152 145 0
151 144 0
151 144 0
150 144 0
153 146 0
152 146 0
136 151 85
135 150 94
137 153 79
122 137 51
133 148 75
133 147 64
136 152 68
137 152 64
137 152 68
137 153 64
129 143 60
137 153 64
134 149 45
131 148 60
143 159 72
136 152 68
144 160 72
133 149 39
131 146 56
138 155 60
134 150 45
137 154 64
137 153 45
133 148 51
140 157 32
137 154 39
140 158 32
129 145 32
138 154 56
132 147 45
136 151 51
138 156 22
135 149 45
135 151 39
141 156 60
135 150 39
134 150 45
138 153 56
128 142 22
130 145 45
135 151 22
134 149 45
137 153 22
131 145 22
132 148 22
134 149 22
131 146 39
131 147 0
130 145 22
136 151 0
130 145 0
128 142 22
136 151 22
134 148 0
126 139 22
130 145 0
127 140 0
130 142 0
127 137 22
127 139 0
131 141 0
128 142 0
130 142 0
135 146 0
130 142 0
131 143 0
135 146 0
130 143 0
128 140 22
132 145 0
127 138 0
124 135 0
127 137 0
128 138 0
128 140 0
126 134 0
125 132 0
130 142 0
125 136 0
127 138 0
127 138 0
125 134 0
126 137 0
123 133 0
116 123 0
117 126 0
111 118 0
112 116 0
108 111 0
118 124 0
117 124 0
114 122 0
115 121 0
115 122 0
116 121 0
111 114 0
120 128 0
105 112 0
107 110 0
107 111 0
99 102 0
103 105 0
98 100 22
104 107 0
104 107 0
97 103 0
95 98 0
98 100 0
93 98 22
91 96 22
114 120 0
115 121 0
128 137 0
130 139 0
128 134 0
122 124 0
126 131 0
128 137 0
139 144 0
130 138 0
135 141 0
133 137 0
126 128 0
140 147 0
140 145 0
132 136 0
132 135 0
136 140 0
140 145 0
131 130 0
134 139 0
140 146 0
145 151 0
132 138 0
142 147 0
138 146 0
138 142 0
139 142 0
141 148 0
142 147 0
141 147 0
140 142 0
142 150 0
140 145 0
150 157 0
135 137 0
141 146 0
138 139 0
134 136 0
141 144 0
135 127 19
138 101 66
140 97 62
141 97 67
141 100 66
139 97 56
143 100 66
146 104 71
143 101 64
147 105 75
146 104 71
147 104 69
149 107 73
143 102 65
141 100 59
150 106 81
150 106 75
146 104 69
141 100 56
145 103 68
144 103 64
148 105 76
149 107 76
146 104 71
149 106 76
151 105 84
152 108 82
151 107 76
148 104 79
148 104 75
150 106 81
149 104 75
154 109 86
149 105 79
153 109 82
150 106 71
150 107 78
150 106 81
148 105 67
151 107 78
152 107 88
147 105 72
152 107 81
152 107 76
150 107 80
157 111 88
149 104 71
150 106 79
151 108 85
151 109 76
152 108 82
145 103 62
149 106 70
150 108 79
148 106 71
151 106 84
150 107 72
151 107 78
149 106 75
149 106 74
152 108 81
148 104 72
142 101 59
148 106 71
149 105 81
152 108 82
142 98 68
147 105 72
145 100 74
146 103 74
146 102 70
146 103 76
145 104 62
148 104 74
144 100 70
145 102 64
142 98 70
141 98 64
140 96 67
141 97 62
146 103 71
137 95 64
133 121 14
144 141 0
143 139 0
139 132 0
147 148 0
146 143 0
145 143 0
145 145 0
133 124 0
139 136 0
153 158 0
147 146 0
137 128 0
139 134 0
141 135 0
144 141 0
144 141 0
139 133 0
142 138 0
144 140 0
133 124 0
138 132 0
137 132 0
142 138 0
148 147 0
141 135 0
132 123 0
134 128 0
140 137 0
135 126 0
139 137 0
137 132 0
136 130 0
132 125 0
137 130 0
138 132 0
130 121 0
137 132 0
136 127 0
131 123 0
119 109 0
109 91 0
106 85 0
116 94 0
111 89 0
120 96 0
110 83 0
119 95 0
116 91 0
113 89 0
120 100 0
125 104 0
123 102 0
128 107 0
121 99 0
123 103 0
124 102 0
132 114 0
134 115 0
126 107 0
119 97 0
127 108 0
127 106 0
126 105 0
129 110 0
130 113 0
134 116 0
133 116 0
131 115 0
132 112 0
126 109 0
134 117 0
136 118 0
138 122 0
139 123 0
133 116 0
137 123 0
135 119 0
135 121 0
135 119 0
141 126 0
139 124 0
138 123 0
140 125 0
133 116 0
140 125 0
139 125 0
141 126 0
141 127 0
143 131 0
145 132 0
143 129 0
144 131 0
139 124 0
143 132 0
147 135 0
141 128 0
146 135 0
142 129 0
144 132 0
144 133 0
142 130 0
145 133 0
141 128 0
148 140 0
143 131 0
143 131 0
145 133 0
142 132 0
144 132 0
141 130 0
146 136 0
145 133 0
148 138 0
144 133 0
145 138 0
145 134 0
145 134 0
146 136 0
147 138 0
147 137 0
145 133 0
146 135 0
149 142 0
149 140 0
146 137 0
150 141 0
150 142 0
150 143 0
148 138 0
152 144 0
149 140 0
150 142 0
149 140 0
146 135 0
146 137 0
149 142 0
149 141 0
149 141 0
149 141 0
149 142 0
148 141 0
150 142 0
150 143 0
152 146 0
151 145 0
152 145 0
153 147 0
148 140 0
150 144 0
151 144 0
151 145 0
130 146 68
127 143 60
131 146 75
137 152 88
129 144 79
131 146 56
137 152 72
125 140 45
126 141 45
136 152 64
130 144 60
136 151 56
133 150 56
140 156 64
135 151 64
134 149 56
131 145 39
140 156 56
131 146 39
130 145 39
139 156 45
136 153 32
133 148 56
141 156 60
130 146 51
131 145 39
128 142 22
138 154 51
134 149 64
137 152 51
133 148 51
136 152 51
134 150 0
131 147 22
134 151 51
129 144 39
138 154 60
133 148 39
136 150 22
132 147 32
133 148 32
132 147 22
127 142 22
134 151 0
133 146 22
134 148 22
136 151 22
134 149 32
137 153 0
136 150 0
136 150 32
129 142 0
130 143 22
133 148 0
127 139 0
131 144 0
129 140 0
134 146 0
127 139 0
128 140 0
131 146 0
129 143 0
127 140 0
128 140 0
125 138 0
114 121 0
127 139 0
117 128 0
129 142 0
124 135 0
123 135 0
126 138 0
130 142 0
135 147 0
124 134 0
131 144 0
131 142 0
126 136 0
122 132 0
121 131 0
126 136 0
112 119 0
121 128 0
110 114 0
115 121 0
118 126 0
116 123 0
114 118 0
114 121 0
117 121 0
120 130 0
104 113 0
115 126 0
100 104 0
103 110 0
106 111 0
99 101 0
99 103 0
97 100 0
91 97 0
104 107 0
99 103 0
104 106 0
92 98 0
97 101 0
94 98 0
82 83 0
96 98 0
114 120 0
124 128 0
113 119 0
111 118 0
120 128 0
123 130 0
127 133 0
124 131 0
130 135 0
119 124 0
125 130 0
126 131 0
123 130 0
131 137 0
140 148 0
135 140 0
141 149 0
133 140 0
131 136 0
124 128 0
129 132 0
128 132 0
143 149 0
142 147 0
139 142 0
134 140 0
143 149 0
133 134 0
132 139 0
146 150 0
135 133 0
140 147 0
138 144 0
139 147 0
140 143 0
140 146 0
139 140 0
134 135 0
137 141 0
138 142 0
134 136 0
133 133 0
135 132 0
136 130 12
131 105 43
133 91 59
140 98 70
140 99 65
137 96 60
143 103 61
146 103 72
146 103 65
142 99 64
146 103 69
144 101 64
142 99 61
150 106 76
151 108 81
148 104 75
145 102 66
146 103 71
147 106 74
147 104 71
143 101 75
149 107 80
151 107 79
148 105 71
150 108 74
146 104 67
151 108 80
149 105 81
146 102 70
144 102 64
150 106 81
152 108 75
149 105 76
148 106 79
147 105 72
150 106 70
149 106 80
150 107 74
152 108 82
150 106 78
146 103 68
146 103 72
148 106 71
142 99 68
150 108 81
146 104 64
151 107 79
149 106 70
146 105 62
149 104 80
152 107 79
153 108 81
150 103 81
150 106 75
143 101 65
147 104 71
147 102 70
143 98 70
149 106 71
147 104 71
150 104 79
151 108 79
147 105 76
151 107 78
145 104 59
146 103 59
145 101 68
144 102 61
146 102 71
149 106 76
146 103 65
148 105 77
144 101 67
146 102 66
142 97 65
139 94 59
144 99 70
143 98 64
141 97 66
138 100 52
141 131 19
145 142 0
144 141 0
134 130 0
138 136 0
137 128 0
137 128 0
142 137 0
141 140 0
139 132 0
134 127 0
135 130 0
140 134 0
148 148 0
142 140 0
145 142 0
134 130 0
137 132 0
137 128 0
139 137 0
138 134 0
135 129 0
145 142 0
144 142 0
136 129 0
147 143 0
139 133 0
138 134 0
137 130 0
134 129 0
142 138 0
135 133 0
133 127 0
134 126 0
135 132 0
125 113 0
131 127 0
127 116 0
134 127 0
133 128 0
131 119 0
119 108 0
131 123 0
120 108 0
96 76 0
103 79 0
102 78 0
107 85 0
112 87 0
117 96 0
119 94 0
116 93 0
117 93 0
118 94 0
122 104 0
113 89 0
119 99 0
122 98 0
127 106 0
125 108 0
126 104 0
132 113 0
132 113 0
129 110 0
128 107 0
126 108 0
128 108 0
125 107 0
133 113 0
128 111 0
130 113 0
133 116 0
135 120 0
131 111 0
134 116 0
129 112 0
137 121 0
136 120 0
136 120 0
136 119 0
138 122 0
137 122 0
138 123 0
141 123 0
140 124 0
136 120 0
134 118 0
138 123 0
140 127 0
141 126 0
142 128 0
138 124 0
137 124 0
140 128 0
137 122 0
140 129 0
145 134 0
147 136 0
144 132 0
142 131 0
143 131 0
138 125 0
145 134 0
145 135 0
141 128 0
144 132 0
140 126 0
143 134 0
148 136 0
150 140 0
147 135 0
145 134 0
147 136 0
141 130 0
144 132 0
145 135 0
144 131 0
143 133 0
146 135 0
146 137 0
146 138 0
144 133 0
144 132 0
147 136 0
144 135 0
150 141 0
148 138 0
149 139 0
148 140 0
148 139 0
149 139 0
149 140 0
150 141 0
146 137 0
148 138 0
148 139 0
148 137 0
148 139 0
149 138 0
148 140 0
148 140 0
151 144 0
151 143 0
145 138 0
152 144 0
149 142 0
151 144 0
149 142 0
150 144 0
149 143 0
151 142 0
150 143 0
150 145 0
133 148 79
128 143 51
124 137 88
126 140 56
138 153 85
124 139 45
141 157 75
135 151 79
125 140 64
134 149 64
129 144 56
136 151 72
135 150 64
132 147 68
132 147 51
134 150 45
135 151 56
139 156 64
133 149 45
133 149 60
136 152 39
133 150 39
132 146 51
133 149 32
126 141 45
131 147 39
139 154 45
138 153 32
132 149 32
140 155 32
138 155 51
130 144 32
135 151 32
134 149 32
137 153 32
138 153 56
129 144 22
128 143 32
135 150 32
139 155 39
133 149 32
133 148 22
131 146 32
134 148 22
134 150 39
135 150 22
128 142 32
132 147 0
133 146 0
133 148 0
127 140 0
136 150 0
136 152 22
135 150 0
122 135 0
119 130 0
134 148 0
131 144 0
125 138 0
130 144 0
132 146 0
126 138 0
127 140 0
129 142 0
124 136 0
128 141 0
125 137 0
125 136 0
127 139 0
129 140 0
124 135 0
124 138 0
129 140 0
124 136 0
128 139 0
114 123 0
120 130 0
118 129 0
124 133 0
126 134 0
118 124 0
113 121 0
121 129 0
123 131 0
123 131 0
113 121 0
112 121 0
111 115 0
112 120 0
113 122 0
116 123 0
107 111 0
109 115 0
112 118 0
105 112 0
107 114 0
109 115 0
96 101 0
98 104 0
105 112 0
101 103 0
91 92 0
94 100 22
84 84 0
71 71 0
87 87 0
87 91 0
109 115 0
109 114 0
114 115 0
122 128 0
129 137 0
129 137 0
117 122 0
124 128 0
129 133 0
123 128 0
134 143 0
124 126 0
130 136 0
128 134 0
126 130 0
128 133 0
131 133 0
135 142 0
133 138 0
133 133 0
127 129 0
131 134 0
131 134 0
137 142 0
138 143 0
129 132 0
128 130 0
136 141 0
130 132 0
135 136 0
140 142 0
132 135 0
131 133 0
147 150 0
137 141 0
134 135 0
138 140 0
136 136 0
136 133 0
126 127 0
135 141 0
144 144 0
133 133 0
135 133 0
136 136 0
131 126 0
134 105 44
136 96 62
141 99 67
141 98 50
142 100 63
143 99 68
144 103 68
145 102 68
149 105 74
144 100 74
147 104 75
145 101 65
145 102 71
145 103 67
146 103 59
147 103 71
150 107 82
147 103 71
148 105 74
148 104 76
149 105 77
146 104 67
152 108 79
145 103 65
146 104 72
154 108 86
146 103 74
149 104 81
148 105 78
151 107 74
149 104 78
151 108 72
145 102 64
150 106 78
150 104 74
146 102 70
144 100 64
144 101 67
142 101 67
149 105 78
152 108 79
142 98 61
146 103 67
152 107 84
147 104 72
143 99 71
149 106 78
155 111 81
146 104 64
150 106 72
143 101 67
151 106 78
146 103 74
152 106 85
151 107 81
147 105 62
146 102 72
145 102 64
146 103 61
151 105 74
152 107 81
146 102 62
150 106 80
147 104 67
146 104 64
146 102 76
143 101 67
144 102 70
140 96 62
146 103 71
144 102 65
143 100 61
139 96 58
145 100 68
140 96 61
139 97 50
135 108 31
139 139 0
131 121 0
139 133 0
137 130 0
141 137 0
136 129 0
143 140 0
137 131 0
138 132 0
143 137 0
141 137 0
137 130 0
134 124 0
136 129 0
138 133 0
136 129 0
135 127 0
138 133 0
140 137 0
133 127 0
141 137 0
143 137 0
134 128 0
137 130 0
137 131 0
139 133 0
141 138 0
132 124 0
132 125 0
142 137 0
133 124 0
133 126 0
125 114 0
129 123 0
133 123 0
134 130 0
141 138 0
128 119 0
130 119 0
127 115 0
131 124 0
120 110 0
126 116 0
123 110 0
117 105 0
120 108 0
115 106 0
94 70 0
93 72 0
107 85 0
117 93 0
113 88 0
118 94 0
111 88 0
117 96 0
119 96 0
114 91 0
123 100 0
115 89 0
126 109 0
127 108 0
125 105 0
128 111 0
124 103 0
126 107 0
127 108 0
128 111 0
123 105 0
131 111 0
128 110 0
133 115 0
134 115 0
131 114 0
131 113 0
132 113 0
132 115 0
137 120 0
138 120 0
131 113 0
134 118 0
136 121 0
138 123 0
133 116 0
134 117 0
133 115 0
139 125 0
138 122 0
138 125 0
141 127 0
140 125 0
136 121 0
139 124 0
139 124 0
140 126 0
141 126 0
137 121 0
140 127 0
140 128 0
142 125 0
145 132 0
140 126 0
146 134 0
140 124 0
146 136 0
144 133 0
143 132 0
141 129 0
142 131 0
142 130 0
142 131 0
146 135 0
143 131 0
139 125 0
143 130 0
146 134 0
143 132 0
142 130 0
145 133 0
147 135 0
148 138 0
148 138 0
146 135 0
143 133 0
145 132 0
148 137 0
143 133 0
148 141 0
145 134 0
147 138 0
148 140 0
144 135 0
149 141 0
150 142 0
148 139 0
148 140 0
144 134 0
148 140 0
147 139 0
149 139 0
147 138 0
149 141 0
149 138 0
149 142 0
148 140 0
151 142 0
151 143 0
148 141 0
148 139 0
151 145 0
149 142 0
151 144 0
150 140 0
151 144 0
151 144 0
129 144 68
135 151 82
122 136 56
122 135 60
130 145 60
128 144 56
124 138 51
132 147 72
130 146 22
130 144 39
133 150 51
138 155 56
133 149 60
120 134 39
135 150 60
122 136 56
127 143 39
133 148 45
130 146 51
132 148 51
132 146 45
134 149 64
133 147 39
133 149 39
132 146 45
133 148 45
134 150 39
133 147 51
132 148 39
131 146 22
128 142 45
137 153 45
135 151 22
131 147 32
131 146 32
133 149 39
136 150 32
136 151 45
138 153 32
129 144 39
135 150 45
137 153 39
129 144 0
117 131 0
132 147 22
137 151 39
127 140 22
127 140 0
124 137 22
130 144 22
129 143 0
125 137 32
130 145 0
122 135 0
124 135 32
128 139 0
125 137 0
123 135 22
122 135 0
129 143 32
133 147 0
133 147 0
129 143 0
119 131 0
127 140 0
124 137 0
119 130 0
121 132 0
118 128 0
125 135 0
125 133 0
119 128 0
114 123 0
128 140 0
121 130 0
125 138 0
123 131 0
119 128 0
121 130 0
119 126 0
116 121 0
119 127 0
121 131 0
113 123 0
122 130 0
106 110 0
113 121 0
112 119 0
111 118 0
106 108 0
103 107 0
109 112 0
102 108 0
98 103 0
92 94 0
94 99 0
94 100 0
94 96 0
82 84 0
94 100 0
94 98 0
87 88 22
78 81 0
84 87 0
100 108 0
99 102 0
103 107 0
115 120 0
122 129 0
114 118 0
114 118 0
119 126 0
125 130 0
119 125 0
131 135 0
128 131 0
128 130 0
126 130 0
119 123 0
125 129 0
124 125 0
130 135 0
127 129 0
132 136 0
136 140 0
133 140 0
136 139 0
126 129 0
126 131 0
130 133 0
137 140 0
136 143 0
138 145 0
131 138 0
127 131 0
131 134 0
137 139 0
128 121 0
141 146 0
133 135 0
139 141 0
134 135 0
130 132 0
138 139 0
141 145 0
142 144 0
124 126 0
133 131 0
135 130 0
131 128 0
135 134 0
140 143 0
128 123 0
128 120 0
136 116 37
133 95 41
134 93 64
139 97 59
143 102 65
145 102 67
146 104 64
144 103 65
145 103 71
146 103 68
141 98 62
143 102 61
147 105 68
149 105 74
149 106 76
145 101 62
138 96 56
149 104 85
144 100 65
147 105 74
144 102 65
147 105 64
150 107 75
148 106 72
149 106 72
146 102 71
145 103 67
151 108 78
147 103 68
148 106 71
145 104 64
145 103 62
149 104 71
147 105 72
146 104 62
147 104 79
149 104 72
147 104 68
146 104 61
145 103 70
152 107 81
143 101 65
151 107 78
147 105 68
153 108 80
146 103 67
152 108 82
147 104 76
150 106 70
148 105 68
143 101 64
150 106 78
149 105 76
143 100 64
147 104 72
145 101 72
152 107 80
151 107 76
147 103 80
146 103 68
146 103 72
144 103 64
142 98 67
148 103 78
146 102 72
145 101 68
146 102 67
143 99 67
143 98 63
146 100 71
145 99 73
138 93 55
137 93 61
137 94 62
132 107 34
135 126 0
132 122 0
130 121 0
142 136 0
144 138 0
141 135 0
139 132 0
139 134 0
138 132 0
147 143 0
139 134 0
138 135 0
138 135 0
137 129 0
142 136 0
143 142 0
146 146 0
135 130 0
140 133 0
144 141 0
141 133 0
136 128 0
138 132 0
138 132 0
136 127 0
140 135 0
140 137 0
127 115 0
137 131 0
141 132 0
128 114 0
141 133 0
136 131 0
134 122 0
132 124 0
138 133 0
127 114 0
136 129 0
127 119 0
126 115 0
130 119 0
132 123 0
128 118 0
115 101 0
123 111 0
120 109 0
112 99 0
124 115 0
119 105 0
108 96 0
95 78 0
103 83 0
109 89 0
110 90 0
120 100 0
118 95 0
114 91 0
118 95 0
120 96 0
115 92 0
127 108 0
119 96 0
127 107 0
121 100 0
118 95 0
127 107 0
123 101 0
126 107 0
127 111 0
124 101 0
130 110 0
126 106 0
129 110 0
129 111 0
128 112 0
133 115 0
131 114 0
131 114 0
132 116 0
133 116 0
132 115 0
137 122 0
133 118 0
140 123 0
132 114 0
132 115 0
135 118 0
135 120 0
139 124 0
136 120 0
137 121 0
140 129 0
140 124 0
139 125 0
141 126 0
140 126 0
139 122 0
141 128 0
138 125 0
141 128 0
143 130 0
143 130 0
143 130 0
141 128 0
142 128 0
144 130 0
142 129 0
146 136 0
143 132 0
143 126 0
139 127 0
140 126 0
146 137 0
143 131 0
146 135 0
141 131 0
143 132 0
147 134 0
145 134 0
148 137 0
147 137 0
144 133 0
143 131 0
146 135 0
142 131 0
149 137 0
149 140 0
148 137 0
147 137 0
145 135 0
149 141 0
149 138 0
146 135 0
144 132 0
148 137 0
149 140 0
146 137 0
149 142 0
150 141 0
147 138 0
150 140 0
147 138 0
150 142 0
150 142 0
148 140 0
147 138 0
149 141 0
150 143 0
148 139 0
147 138 0
150 141 0
152 146 0
148 139 0
148 141 0
148 142 0
129 143 75
121 135 68
119 133 64
122 136 45
129 145 68
118 132 45
127 143 45
122 137 56
136 152 60
122 136 32
124 137 60
124 139 51
124 139 56
128 141 51
126 141 51
133 148 68
127 142 51
127 142 39
135 151 51
135 151 56
133 148 60
138 153 68
131 146 51
133 146 45
126 140 32
123 139 39
126 140 45
132 146 56
133 148 22
128 144 32
129 145 51
130 144 22
128 143 22
130 145 32
131 144 56
130 144 39
129 143 39
137 154 39
131 145 0
119 133 0
129 142 22
126 141 22
134 150 22
130 145 22
130 142 0
131 146 22
132 148 22
123 137 0
132 146 32
135 149 0
131 146 22
133 148 39
123 136 22
120 130 0
123 137 0
128 141 0
126 138 0
124 138 0
126 139 22
126 138 0
120 131 0
132 147 0
124 136 0
128 141 0
124 136 0
123 135 0
129 139 0
120 130 0
120 132 0
123 133 0
127 137 22
115 124 0
117 124 0
115 125 0
114 123 0
116 126 0
122 134 0
112 121 0
121 131 0
117 126 0
111 117 0
110 116 0
119 128 0
107 116 0
111 117 0
112 121 0
115 123 0
103 109 0
103 109 0
108 114 0
107 112 0
91 96 0
103 107 0
99 106 0
91 93 0
98 105 0
91 95 0
85 88 0
94 96 0
90 94 0
86 88 0
79 83 0
91 95 0
100 106 0
96 102 0
116 123 0
108 110 0
117 119 0
119 124 0
120 121 0
120 125 0
119 121 0
118 122 0
119 122 0
122 125 0
117 121 0
125 132 0
129 131 0
130 133 0
131 134 0
132 138 0
122 122 0
121 123 0
132 134 0
125 126 0
140 145 0
129 128 0
140 146 0
136 138 0
120 120 0
126 130 0
135 139 0
132 133 0
141 145 0
133 136 0
122 121 0
133 136 0
137 139 0
133 133 0
133 134 0
138 143 0
131 125 0
130 122 0
131 131 0
136 137 0
139 141 0
129 128 0
135 132 0
131 127 0
135 135 0
128 126 0
137 137 0
134 128 0
122 120 0
134 129 0
133 126 18
134 100 48
137 95 62
143 98 68
137 97 57
140 96 67
140 97 56
141 99 70
141 97 64
144 100 68
140 98 59
144 100 74
142 99 71
141 99 59
151 107 76
146 103 70
144 101 68
150 106 80
146 104 64
147 104 71
144 100 67
153 108 79
151 106 80
145 101 67
148 104 70
146 105 68
144 101 67
143 101 59
144 100 71
146 103 74
148 104 76
148 103 68
146 101 68
149 105 72
147 104 67
149 106 81
146 103 64
146 101 72
147 103 78
145 101 74
147 103 70
148 105 71
148 106 70
148 104 76
150 105 79
146 103 71
143 100 64
149 104 76
150 106 75
145 102 67
145 102 64
143 100 68
141 98 67
148 105 72
145 100 65
148 104 72
146 102 72
146 103 68
142 99 61
140 98 62
144 101 65
145 103 57
145 101 68
145 101 67
144 99 72
136 94 56
140 97 62
138 95 61
135 92 52
137 93 56
136 92 52
138 100 52
135 118 14
141 135 0
129 117 0
130 119 0
135 128 0
134 129 0
138 132 0
136 123 0
137 125 0
135 127 0
137 131 0
135 129 0
142 141 0
140 136 0
137 129 0
131 121 0
141 134 0
136 127 0
135 126 0
139 131 0
137 132 0
137 131 0
140 136 0
139 136 0
137 133 0
136 126 0
142 133 0
138 135 0
136 129 0
136 130 0
146 145 0
127 120 0
136 128 0
136 130 0
134 125 0
135 127 0
140 133 0
134 125 0
133 124 0
131 124 0
127 118 0
124 114 0
129 118 0
133 126 0
122 111 0
121 108 0
118 105 0
118 104 0
114 102 0
117 103 0
112 100 0
117 109 0
113 98 0
103 91 0
92 75 0
93 74 0
103 83 0
104 83 0
111 88 0
103 78 0
111 88 0
115 93 0
118 96 0
124 101 0
118 97 0
118 95 0
124 103 0
124 103 0
123 103 0
130 111 0
121 97 0
127 106 0
128 107 0
130 112 0
129 110 0
124 102 0
126 107 0
127 110 0
131 112 0
136 119 0
130 112 0
134 118 0
137 120 0
133 116 0
130 112 0
136 119 0
138 122 0
139 125 0
130 113 0
136 120 0
136 119 0
140 123 0
138 122 0
140 124 0
137 122 0
136 120 0
138 124 0
140 122 0
139 124 0
137 121 0
137 123 0
144 131 0
142 129 0
144 131 0
134 120 0
142 128 0
143 130 0
140 128 0
137 125 0
140 128 0
146 135 0
142 130 0
148 139 0
144 133 0
142 130 0
144 132 0
140 129 0
144 133 0
146 134 0
141 128 0
145 134 0
143 132 0
145 134 0
145 132 0
143 131 0
145 134 0
143 135 0
145 133 0
140 128 0
145 132 0
143 133 0
146 135 0
144 135 0
148 138 0
145 135 0
144 134 0
150 141 0
148 138 0
147 138 0
149 141 0
145 135 0
148 139 0
148 139 0
148 140 0
148 139 0
149 141 0
149 142 0
151 143 0
149 140 0
152 145 0
145 138 0
149 142 0
151 144 0
149 141 0
146 140 0
147 139 0
147 141 0
116 130 68
121 136 39
112 125 56
119 133 32
117 131 51
121 135 45
126 141 68
128 143 56
116 129 39
121 136 39
128 142 72
127 142 56
118 131 32
130 143 60
131 147 56
127 143 56
137 152 56
132 147 51
128 144 45
130 146 39
135 151 39
113 126 32
135 151 56
122 136 32
131 146 51
121 135 0
134 150 51
130 145 45
123 137 39
124 139 0
134 149 32
128 144 22
131 146 22
130 146 22
131 146 32
125 138 0
126 141 22
135 149 0
134 148 32
132 145 22
133 148 32
120 135 0
127 140 22
131 145 22
126 141 22
128 141 22
124 139 0
124 139 32
131 146 22
126 140 0
127 139 22
124 136 0
133 146 0
129 143 0
126 138 0
123 135 0
126 139 22
122 132 0
122 132 22
120 132 0
128 140 0
124 136 0
124 134 0
120 130 22
123 133 0
121 134 0
118 130 0
115 122 0
124 136 0
117 126 0
121 131 0
111 119 0
120 129 0
114 120 0
119 129 0
113 121 0
113 120 0
105 112 0
114 123 0
113 120 0
106 112 0
114 121 0
108 115 0
107 115 0
106 114 0
109 116 0
106 111 0
105 109 0
99 103 0
100 101 0
96 98 0
96 99 0
104 112 0
91 96 0
93 95 0
96 100 0
88 93 0
87 92 0
80 83 0
93 95 0
101 104 0
96 101 0
105 109 0
103 109 0
107 114 0
106 108 0
113 113 0
110 112 0
121 127 0
109 115 0
118 124 0
129 130 0
124 128 0
124 128 0
120 118 0
112 111 0
122 120 0
124 128 0
124 125 0
120 122 0
125 128 0
130 135 0
128 132 0
131 136 0
125 126 0
124 124 0
132 135 0
139 142 0
138 143 0
121 121 0
132 135 0
139 145 0
135 134 0
139 143 0
132 134 0
131 129 0
129 128 0
141 145 0
135 139 0
131 134 0
132 132 0
138 141 0
136 136 0
131 131 0
138 141 0
135 131 0
125 123 0
133 134 0
122 116 0
146 148 0
132 128 0
131 130 0
119 105 0
131 126 0
122 114 0
132 123 0
124 108 0
131 110 31
132 89 56
139 96 64
142 99 65
142 100 65
147 102 70
143 101 68
142 99 59
142 101 57
144 99 65
137 95 56
145 105 68
144 102 65
141 100 59
148 105 72
146 102 75
144 101 70
148 106 75
150 105 71
145 103 62
150 106 74
146 104 67
148 106 70
145 102 67
145 103 72
143 99 76
143 101 65
147 105 68
147 104 70
142 100 64
146 103 70
146 104 75
147 104 71
145 104 62
148 105 64
149 106 74
147 104 74
148 105 75
151 106 81
143 100 67
142 99 62
148 104 75
151 106 80
144 100 72
147 103 72
147 102 70
147 103 71
148 103 71
149 105 72
148 103 72
146 103 67
142 101 61
143 100 64
142 99 65
146 102 75
144 99 67
139 96 52
143 100 62
143 101 61
144 101 67
146 101 61
140 97 61
140 96 59
145 101 65
144 99 64
139 94 61
132 91 46
140 97 61
136 109 31
132 118 0
129 116 0
132 119 0
133 122 0
132 121 0
137 129 0
134 122 0
136 130 0
132 122 0
137 132 0
137 127 0
136 126 0
132 124 0
138 131 0
128 113 0
139 133 0
139 140 0
139 135 0
139 131 0
142 138 0
135 129 0
140 139 0
145 141 0
143 137 0
132 127 0
136 133 0
142 136 0
141 138 0
140 136 0
140 134 0
133 123 0
135 128 0
136 131 0
136 131 0
127 112 0
134 122 0
132 123 0
132 122 0
136 129 0
137 128 0
132 122 0
119 106 0
130 118 0
119 104 0
122 110 0
130 120 0
130 120 0
127 119 0
122 111 0
125 114 0
122 108 0
119 106 0
116 102 0
101 84 0
111 98 0
108 95 0
93 78 0
91 74 0
100 79 0
94 74 0
101 80 0
106 79 0
117 95 0
117 95 0
109 88 0
121 97 0
118 97 0
120 98 0
126 107 0
121 99 0
118 99 0
123 101 0
126 106 0
126 107 0
129 110 0
125 107 0
126 107 0
127 109 0
135 115 0
133 114 0
126 107 0
126 106 0
130 111 0
127 111 0
130 112 0
134 115 0
132 114 0
131 114 0
136 121 0
133 115 0
134 116 0
135 118 0
137 119 0
137 121 0
136 117 0
134 119 0
136 120 0
138 122 0
135 120 0
133 117 0
137 122 0
136 122 0
141 127 0
133 119 0
138 123 0
136 122 0
144 130 0
142 129 0
139 126 0
142 129 0
143 129 0
144 131 0
145 132 0
139 124 0
144 132 0
140 128 0
140 128 0
143 130 0
142 129 0
143 130 0
144 133 0
146 136 0
143 134 0
147 136 0
144 133 0
143 131 0
146 136 0
144 134 0
144 132 0
145 133 0
146 136 0
146 136 0
145 134 0
146 135 0
146 135 0
147 137 0
148 139 0
146 136 0
145 135 0
148 138 0
149 139 0
148 138 0
148 138 0
147 136 0
148 141 0
149 138 0
146 138 0
148 140 0
150 141 0
149 141 0
148 139 0
148 140 0
147 136 0
145 137 0
139 132 0
145 138 0
143 137 0
138 130 0
115 127 79
119 132 72
118 132 32
118 132 51
125 140 56
123 138 60
122 138 45
131 146 60
120 134 56
124 138 68
123 137 51
118 133 45
132 146 64
126 140 56
127 142 51
130 145 51
132 146 56
122 138 32
130 145 32
129 143 56
123 135 45
126 141 51
119 134 22
132 148 39
126 140 32
126 141 0
133 147 45
135 151 39
119 130 22
131 146 39
130 144 45
126 140 39
119 133 22
118 132 22
129 142 32
135 150 39
123 135 22
130 146 0
132 146 22
125 138 0
126 140 39
127 140 32
124 139 0
129 144 32
122 133 0
131 146 32
127 142 22
121 134 0
128 141 22
130 143 32
124 135 0
129 143 0
125 137 0
127 140 22
121 132 0
125 138 0
127 139 0
130 144 0
115 126 0
119 129 0
121 132 0
122 133 0
128 141 22
119 130 0
119 130 0
116 127 0
122 134 0
121 132 0
121 133 0
121 133 0
124 136 0
114 122 0
120 131 0
113 123 0
116 125 0
121 130 0
117 126 0
115 123 0
107 114 0
110 119 0
107 115 0
108 115 0
99 105 0
102 109 0
109 116 0
107 115 0
109 118 0
94 99 0
105 109 0
106 110 0
93 97 0
88 91 0
90 92 0
91 96 0
83 86 0
89 93 0
69 72 0
90 95 0
94 96 0
81 86 0
92 94 0
111 116 0
102 100 0
106 111 0
105 107 0
112 117 0
117 122 0
110 112 0
125 131 0
127 129 0
119 123 0
129 130 0
126 132 0
126 133 0
119 120 0
124 128 0
121 121 0
122 125 0
125 125 0
124 125 0
125 126 0
132 136 0
131 133 0
140 145 0
136 142 0
132 134 0
136 138 0
135 139 0
126 128 0
127 127 0
135 139 0
136 137 0
123 117 0
128 130 0
140 144 0
127 127 0
129 130 0
131 134 0
134 134 0
131 133 0
133 133 0
137 137 0
141 145 0
131 132 0
138 138 0
132 134 0
140 142 0
135 133 0
132 134 0
137 133 0
126 122 0
135 133 0
129 120 0
135 133 0
125 119 0
120 111 0
121 109 0
131 126 0
121 105 12
128 99 28
134 91 56
141 98 62
142 98 63
136 95 52
142 99 65
140 98 61
144 101 70
143 101 67
144 100 65
139 96 59
146 101 74
143 100 59
144 101 59
144 100 70
145 102 68
147 105 74
145 102 68
146 103 68
145 102 71
147 104 75
140 99 52
146 104 65
146 103 70
145 103 68
148 104 75
151 106 80
146 102 70
147 104 71
144 102 62
148 106 76
149 105 74
147 103 68
144 100 71
149 105 75
150 107 75
145 102 74
144 102 61
146 102 70
148 104 72
145 101 67
146 101 74
143 101 65
145 103 70
147 103 70
149 105 76
144 100 68
141 97 68
146 102 64
138 96 50
148 104 80
142 99 57
145 101 68
139 95 56
143 98 67
141 98 54
142 96 61
141 96 54
138 94 54
139 96 63
142 97 62
134 91 50
144 100 71
140 96 63
131 94 37
127 112 14
138 130 0
128 112 0
126 114 0
129 118 0
129 117 0
137 132 0
125 111 0
134 123 0
142 136 0
132 123 0
146 139 0
130 117 0
135 127 0
132 123 0
135 128 0
135 130 0
139 131 0
136 132 0
141 138 0
139 130 0
142 136 0
139 133 0
137 129 0
139 133 0
141 138 0
138 130 0
132 123 0
140 132 0
139 134 0
139 137 0
130 117 0
134 128 0
136 131 0
142 138 0
139 133 0
129 121 0
135 128 0
137 134 0
137 128 0
141 136 0
126 116 0
129 116 0
131 119 0
134 126 0
131 126 0
128 121 0
135 128 0
124 113 0
138 130 0
133 125 0
116 102 0
115 101 0
111 95 0
111 96 0
119 111 0
109 91 0
109 94 0
105 91 0
104 94 0
96 83 0
93 75 0
88 68 0
89 69 0
102 80 0
106 85 0
110 88 0
113 89 0
111 90 0
116 93 0
123 101 0
116 95 0
114 92 0
125 105 0
124 103 0
125 104 0
120 98 0
128 107 0
129 111 0
130 113 0
123 104 0
126 106 0
127 109 0
130 113 0
128 108 0
130 109 0
134 115 0
129 109 0
128 107 0
133 115 0
134 117 0
130 113 0
130 110 0
138 122 0
134 119 0
135 120 0
134 118 0
139 123 0
142 128 0
137 120 0
137 120 0
141 127 0
138 121 0
136 119 0
139 123 0
136 119 0
142 128 0
139 125 0
140 126 0
141 127 0
140 126 0
137 122 0
142 130 0
138 125 0
142 129 0
142 127 0
139 125 0
142 129 0
143 127 0
141 127 0
144 130 0
142 130 0
144 134 0
144 132 0
143 130 0
142 129 0
142 130 0
139 125 0
149 137 0
147 138 0
142 130 0
143 132 0
142 129 0
141 131 0
148 138 0
150 141 0
149 138 0
148 139 0
144 134 0
147 135 0
147 135 0
149 140 0
144 134 0
150 140 0
145 136 0
150 142 0
149 140 0
146 135 0
149 142 0
145 137 0
145 136 0
146 137 0
146 137 0
142 133 0
141 135 0
140 133 0
134 126 0
137 129 0
134 126 0
138 139 0
157 178 32
140 158 45
123 137 75
110 123 68
124 137 64
118 131 72
127 141 60
125 139 45
124 138 45
121 135 51
125 140 60
120 134 56
136 151 68
124 138 60
127 141 51
123 136 45
128 144 45
120 134 39
123 139 0
126 142 45
132 147 22
123 136 51
128 141 56
124 140 39
131 145 45
125 140 39
122 136 32
122 136 39
131 144 39
129 144 22
123 137 45
132 147 0
128 143 22
131 144 51
124 137 0
129 144 39
132 147 45
125 138 39
129 143 0
121 132 22
133 147 22
128 143 39
123 134 39
131 146 0
125 138 0
126 139 39
128 143 0
127 140 22
126 138 22
129 143 22
117 128 0
119 132 0
128 142 0
123 134 22
122 132 0
122 135 0
120 132 22
114 125 0
117 129 0
120 130 0
119 130 0
116 127 0
115 123 0
118 129 0
116 127 0
124 136 0
120 131 0
115 123 0
110 118 0
113 119 0
117 130 0
115 124 0
107 114 0
109 115 0
112 122 0
109 119 0
113 121 0
113 123 0
117 125 0
96 103 0
98 105 0
108 116 0
98 104 0
105 112 0
104 111 0
105 113 0
93 97 0
90 94 0
93 99 0
88 93 0
88 92 0
89 91 0
80 84 0
92 94 0
82 86 0
88 91 0
95 100 0
93 98 0
103 107 0
104 108 0
113 118 0
105 109 0
98 99 0
112 116 0
112 115 0
106 109 0
115 117 0
118 120 0
114 117 0
118 120 0
114 117 0
118 122 0
130 133 0
122 124 0
132 136 0
135 139 0
123 125 0
129 131 0
131 133 0
136 144 0
135 139 0
134 135 0
130 133 0
134 138 0
127 130 0
129 133 0
127 129 0
139 140 0
138 142 0
137 141 0
126 125 0
133 133 0
126 123 0
134 133 0
130 132 0
140 143 0
137 138 0
133 132 0
128 128 0
135 137 0
138 140 0
130 128 0
132 133 0
128 128 0
121 116 0
128 118 0
131 130 0
128 124 0
135 132 0
131 125 0
136 135 0
127 122 0
128 123 0
131 127 0
130 123 0
125 121 0
137 136 0
117 108 0
121 109 0
117 102 0
127 103 39
126 93 36
133 93 52
141 99 60
138 97 59
140 97 50
142 100 67
145 100 75
150 107 76
141 99 55
143 101 67
145 102 65
142 100 64
138 98 56
148 104 75
146 104 68
141 99 61
141 98 64
146 102 72
143 99 61
144 103 67
146 104 68
147 104 57
146 101 71
139 98 50
146 103 71
146 102 67
144 101 64
144 100 67
142 98 68
148 104 72
145 103 72
140 96 54
144 101 64
142 99 57
144 101 65
140 97 65
149 106 71
141 99 50
146 102 59
143 100 57
145 102 70
140 95 61
147 104 70
145 102 61
144 99 61
144 100 67
143 99 62
145 100 70
138 95 61
142 97 68
140 96 59
141 96 57
139 96 63
138 95 56
142 96 62
138 94 52
144 100 65
142 98 61
130 88 50
139 96 54
135 95 52
132 112 39
127 114 0
120 104 0
127 111 0
126 108 0
131 116 0
137 127 0
134 126 0
145 144 0
135 132 0
122 105 0
129 117 0
135 126 0
134 126 0
138 129 0
133 125 0
135 130 0
134 122 0
143 138 0
138 134 0
137 128 0
135 131 0
139 128 0
133 121 0
139 135 0
134 127 0
142 138 0
142 139 0
135 124 0
134 124 0
145 145 0
137 135 0
141 134 0
143 141 0
140 135 0
138 128 0
132 121 0
139 128 0
135 125 0
131 124 0
131 122 0
142 133 0
145 139 0
135 127 0
125 114 0
130 118 0
131 121 0
139 132 0
131 121 0
133 124 0
123 111 0
129 121 0
127 120 0
124 115 0
121 113 0
129 115 0
122 108 0
109 96 0
118 107 0
122 109 0
106 91 0
108 91 0
105 94 0
103 87 0
101 86 0
90 73 0
86 67 0
91 70 0
90 69 0
100 78 0
102 80 0
107 87 0
108 84 0
114 94 0
114 90 0
115 94 0
118 97 0
122 102 0
121 100 0
122 101 0
116 94 0
121 102 0
125 104 0
120 100 0
121 102 0
125 109 0
124 106 0
130 110 0
129 110 0
129 109 0
127 109 0
134 117 0
136 120 0
133 114 0
131 111 0
130 111 0
130 114 0
137 121 0
134 117 0
138 123 0
139 123 0
138 123 0
139 123 0
134 119 0
131 113 0
142 128 0
135 119 0
134 117 0
144 132 0
141 127 0
139 124 0
140 126 0
142 127 0
143 130 0
139 126 0
139 123 0
140 127 0
142 129 0
137 123 0
142 129 0
139 126 0
143 129 0
139 127 0
145 132 0
139 124 0
144 134 0
144 132 0
147 135 0
144 132 0
141 129 0
144 132 0
140 127 0
143 131 0
143 131 0
147 134 0
143 133 0
146 134 0
148 139 0
146 135 0
149 139 0
144 134 0
146 134 0
148 138 0
146 137 0
145 134 0
147 139 0
145 137 0
146 138 0
149 140 0
142 133 0
141 131 0
145 135 0
143 135 0
143 135 0
144 135 0
138 130 0
131 124 0
127 121 0
136 130 0
140 143 0
155 170 0
172 191 0
168 190 0
169 192 0
167 190 0
149 168 32
135 152 45
111 124 51
119 132 51
119 132 75
122 136 51
122 137 45
127 141 51
120 134 51
123 137 45
113 127 22
125 140 39
118 131 32
129 144 64
123 138 22
125 139 45
126 140 51
120 133 45
115 128 22
126 140 32
121 135 45
116 129 22
127 140 56
125 139 45
126 141 32
119 134 22
125 139 45
128 143 22
125 138 39
118 130 22
123 138 0
121 134 22
124 138 32
124 136 22
121 134 0
130 143 32
113 126 0
121 133 32
126 140 22
120 131 22
122 134 39
122 134 0
128 141 22
122 134 22
120 133 0
128 142 22
122 133 32
124 138 0
116 129 0
122 133 22
117 128 0
115 127 0
119 131 0
121 134 22
123 135 22
109 120 22
114 126 0
123 133 0
112 123 0
114 125 0
111 120 0
111 120 0
115 126 0
120 131 0
110 121 0
117 125 0
112 119 0
108 116 0
109 117 0
110 119 0
107 116 0
114 125 0
114 123 0
113 122 0
104 113 0
105 110 0
103 109 0
101 109 0
85 92 0
94 99 0
96 101 0
98 107 0
100 106 0
91 94 0
88 93 0
87 92 0
72 74 0
82 83 0
88 93 0
83 87 0
94 101 0
96 100 0
90 94 0
103 107 0
102 106 0
105 110 0
113 117 0
110 114 0
112 115 0
117 118 0
120 126 0
111 115 0
116 123 0
127 132 0
114 116 0
120 124 0
132 139 0
124 124 0
134 136 0
116 118 0
124 128 0
129 129 0
127 130 0
122 123 0
129 130 0
133 133 0
137 142 0
137 141 0
133 138 0
139 147 0
132 134 0
133 134 0
128 127 0
136 138 0
134 137 0
127 127 0
129 131 0
130 128 0
133 136 0
131 132 0
137 139 0
137 138 0
129 130 0
136 136 0
133 135 0
137 139 0
129 128 0
126 118 0
134 133 0
123 119 0
129 125 0
129 124 0
133 131 0
137 135 0
135 134 0
129 124 0
136 134 0
137 136 0
128 125 0
135 134 0
129 122 0
121 111 0
127 118 0
121 111 0
133 126 0
120 112 0
117 110 0
124 118 0
112 98 14
123 98 31
131 89 46
144 101 67
135 94 50
134 92 54
141 98 64
141 96 68
142 99 67
145 102 64
140 97 61
144 102 61
138 96 57
145 101 65
139 96 62
145 101 68
147 104 67
143 100 59
140 97 61
144 100 70
142 96 64
142 99 64
143 99 65
146 104 62
142 99 59
148 105 75
143 100 59
137 95 50
140 97 61
145 102 64
146 101 71
142 99 59
145 101 65
144 101 68
147 102 79
145 101 71
141 98 59
143 101 59
145 102 74
148 105 75
142 100 68
144 99 74
143 99 70
138 96 48
143 98 64
143 99 56
146 102 62
145 101 79
141 97 61
140 96 62
144 100 71
143 98 59
142 97 74
138 94 65
137 96 56
141 97 59
138 93 62
135 93 52
130 87 44
126 102 31
126 109 0
124 109 0
120 106 0
129 119 0
133 123 0
120 101 0
135 127 0
137 129 0
134 121 0
130 121 0
136 128 0
128 114 0
132 122 0
137 128 0
135 125 0
141 135 0
133 125 0
136 131 0
134 123 0
136 130 0
144 140 0
133 124 0
138 131 0
136 127 0
140 139 0
138 133 0
139 136 0
136 128 0
140 133 0
145 144 0
133 129 0
142 135 0
136 131 0
137 134 0
139 132 0
135 126 0
139 135 0
136 124 0
134 126 0
139 134 0
141 134 0
132 123 0
137 133 0
136 126 0
135 125 0
134 124 0
126 115 0
135 124 0
134 122 0
129 120 0
130 122 0
135 128 0
135 123 0
130 122 0
127 121 0
131 120 0
122 113 0
114 101 0
116 103 0
124 113 0
114 103 0
115 102 0
109 92 0
107 93 0
104 90 0
97 85 0
101 87 0
92 75 0
91 78 0
85 69 0
80 61 0
88 70 0
94 71 0
100 76 0
103 81 0
111 90 0
113 91 0
113 90 0
111 90 0
112 88 0
124 103 0
122 102 0
116 95 0
124 102 0
119 99 0
126 105 0
119 98 0
123 103 0
128 108 0
127 110 0
132 113 0
132 114 0
130 110 0
131 115 0
129 108 0
132 115 0
132 116 0
135 118 0
137 121 0
138 122 0
134 116 0
132 114 0
137 121 0
136 120 0
137 121 0
132 115 0
133 116 0
137 121 0
140 125 0
133 116 0
139 123 0
139 122 0
138 122 0
144 131 0
138 124 0
139 123 0
142 128 0
142 129 0
143 132 0
137 121 0
140 127 0
139 125 0
142 128 0
144 131 0
141 129 0
144 131 0
140 128 0
142 129 0
142 128 0
144 133 0
143 130 0
145 134 0
141 130 0
146 134 0
145 131 0
142 130 0
145 131 0
144 131 0
146 134 0
143 132 0
145 132 0
142 132 0
144 132 0
147 137 0
145 134 0
147 135 0
143 133 0
142 132 0
150 139 0
144 134 0
139 131 0
145 136 0
141 133 0
131 124 0
128 120 0
134 125 0
129 124 0
146 153 0
155 167 0
168 187 0
174 193 0
169 189 0
171 189 0
169 192 0
171 192 0
169 192 0
168 190 0
165 187 0
165 186 0
153 172 39
131 147 56
122 136 68
121 134 51
115 128 56
118 132 60
105 117 51
111 125 22
124 136 68
123 137 45
119 132 51
127 142 51
118 131 64
122 136 32
118 133 39
125 140 56
127 141 56
126 141 45
117 129 22
118 130 39
128 142 39
115 127 22
123 136 32
114 127 22
118 131 39
119 134 22
115 128 32
122 136 45
123 135 39
127 140 32
126 140 0
120 133 0
124 138 32
129 144 39
108 120 32
120 132 22
119 130 22
119 132 0
118 131 22
123 137 22
115 128 0
117 128 0
118 128 22
124 137 0
119 131 22
120 133 0
125 137 0
118 128 0
111 122 0
125 136 22
122 134 0
116 127 0
115 124 0
115 125 0
118 129 0
115 127 0
114 124 0
118 129 0
112 122 0
116 127 0
104 114 0
105 114 0
111 120 0
107 115 0
122 134 0
101 108 0
98 105 0
106 115 0
104 112 0
110 117 0
99 107 0
95 101 0
104 113 0
94 100 0
94 102 0
95 103 0
92 98 0
90 96 0
85 91 0
80 85 0
78 82 0
76 82 0
77 81 0
75 78 0
93 97 0
91 92 0
90 94 0
91 94 0
93 97 0
104 108 0
98 100 0
102 106 0
110 115 0
108 111 0
107 109 0
108 110 0
104 107 0
115 118 0
113 116 0
112 116 0
115 115 0
120 126 0
128 131 0
125 127 0
127 132 0
119 121 0
123 125 0
127 133 0
128 129 0
129 132 0
133 136 0
125 128 0
133 137 0
128 132 0
139 145 0
139 142 0
137 139 0
134 135 0
141 146 0
128 132 0
137 138 0
141 145 0
136 140 0
138 141 0
144 150 0
136 138 0
126 124 0
137 141 0
142 145 0
133 133 0
128 127 0
135 133 0
132 133 0
142 145 0
137 137 0
138 138 0
135 134 0
127 121 0
129 127 0
129 126 0
131 128 0
135 132 0
135 132 0
121 110 0
134 134 0
124 119 0
131 123 0
131 126 0
129 125 0
124 119 0
129 123 0
128 119 0
129 118 0
122 110 0
126 117 0
118 106 0
116 104 0
116 104 0
121 97 42
129 97 34
137 94 54
139 97 57
144 100 75
144 101 65
140 96 62
141 98 67
139 97 62
139 99 56
140 99 53
141 98 65
142 98 56
143 101 64
141 99 60
146 103 68
136 94 57
143 101 67
141 96 59
141 97 61
144 100 59
143 100 67
147 105 62
140 97 57
144 100 67
149 104 68
140 98 56
138 96 61
144 100 59
142 99 70
143 101 57
144 101 62
142 100 67
141 98 61
145 99 67
145 100 68
146 102 64
143 100 65
144 101 56
144 99 70
144 101 59
140 97 56
144 99 67
137 92 56
148 104 71
143 98 67
140 97 52
139 94 63
141 99 59
135 92 52
143 100 62
135 92 61
136 96 57
123 87 31
129 104 37
118 98 14
120 101 0
121 108 0
118 100 0
125 109 0
124 110 0
133 124 0
130 117 0
130 118 0
137 129 0
134 125 0
128 116 0
133 123 0
132 123 0
131 120 0
139 133 0
127 118 0
129 123 0
140 135 0
138 135 0
131 120 0
138 131 0
136 126 0
138 133 0
142 132 0
137 134 0
135 129 0
142 142 0
147 144 0
146 141 0
138 137 0
141 135 0
140 136 0
140 135 0
132 126 0
136 129 0
137 130 0
145 142 0
138 131 0
128 120 0
131 117 0
135 128 0
141 137 0
133 123 0
146 144 0
130 116 0
130 121 0
126 118 0
137 132 0
135 126 0
126 116 0
137 130 0
129 121 0
131 123 0
126 115 0
128 114 0
124 113 0
133 120 0
128 117 0
119 109 0
120 111 0
127 112 0
127 118 0
112 96 0
118 105 0
112 97 0
116 101 0
113 98 0
110 100 0
95 80 0
106 93 0
97 83 0
104 88 0
95 81 0
92 79 0
85 70 0
91 71 0
87 64 0
104 84 0
93 71 0
111 90 0
109 87 0
111 92 0
117 95 0
117 94 0
121 100 0
124 104 0
126 105 0
120 97 0
119 99 0
127 105 0
122 104 0
127 109 0
127 107 0
131 113 0
129 110 0
129 113 0
129 111 0
126 107 0
125 105 0
129 112 0
129 110 0
131 113 0
131 112 0
130 112 0
138 121 0
134 116 0
136 120 0
138 124 0
133 117 0
138 123 0
135 120 0
137 120 0
138 124 0
137 119 0
128 110 0
136 120 0
136 120 0
134 116 0
137 124 0
139 125 0
141 127 0
138 124 0
134 119 0
137 123 0
132 116 0
141 125 0
142 125 0
142 130 0
146 134 0
142 129 0
143 128 0
147 135 0
148 137 0
146 132 0
145 133 0
143 130 0
145 135 0
142 131 0
143 128 0
145 134 0
147 137 0
144 133 0
140 131 0
144 132 0
145 134 0
142 130 0
143 132 0
140 129 0
142 134 0
139 130 0
135 125 0
137 128 0
133 125 0
126 116 0
126 120 0
143 147 0
151 162 0
165 182 0
169 188 0
169 188 0
170 188 0
169 186 0
171 188 0
171 191 0
167 189 0
167 189 0
167 189 0
165 187 0
170 192 0
164 187 0
169 191 0
168 190 0
166 188 0
155 174 22
135 151 39
125 139 75
112 125 56
113 125 51
125 140 64
121 134 51
122 136 64
109 122 32
122 136 56
114 127 39
126 139 32
128 143 45
126 141 22
111 125 22
122 135 56
104 114 32
122 134 39
115 129 32
123 136 56
124 138 56
123 136 22
123 138 32
115 126 45
118 131 22
119 133 32
127 140 22
120 134 22
117 130 22
118 131 0
119 132 32
118 131 32
123 136 0
127 142 32
127 140 0
114 126 0
122 135 32
115 127 0
116 128 32
123 136 0
118 130 22
118 129 0
109 121 0
114 124 22
110 120 0
120 131 0
113 125 0
116 128 22
110 120 0
106 116 0
114 124 0
115 126 0
122 133 0
108 119 0
110 121 0
103 112 0
107 116 0
113 124 0
100 107 0
92 101 0
111 120 0
106 114 0
96 104 0
93 99 0
98 106 0
108 115 0
102 109 0
104 111 0
99 109 0
95 101 0
85 90 0
91 96 0
78 82 0
80 83 0
79 85 0
84 89 0
78 82 0
77 82 0
87 92 0
89 92 0
89 94 0
92 96 0
91 94 0
101 106 0
106 108 0
108 112 0
106 109 0
105 106 0
101 105 0
110 114 0
119 126 0
119 122 0
117 122 0
117 118 0
122 125 0
125 124 0
122 127 0
125 123 0
125 131 0
133 140 0
129 134 0
134 139 0
126 129 0
138 144 0
118 118 0
128 132 0
125 124 0
129 133 0
131 132 0
119 116 0
124 125 0
138 141 0
136 134 0
134 134 0
137 145 0
139 143 0
129 134 0
142 149 0
138 140 0
134 134 0
137 138 0
133 133 0
130 130 0
140 141 0
122 117 0
133 132 0
137 137 0
133 135 0
139 142 0
142 147 0
125 117 0
136 140 0
122 111 0
136 139 0
133 133 0
141 141 0
133 133 0
136 136 0
138 134 0
137 134 0
138 133 0
128 123 0
131 130 0
127 121 0
123 117 0
133 129 0
124 114 0
135 132 0
132 125 0
128 118 0
127 121 0
131 126 0
123 115 0
121 108 0
112 94 0
116 100 0
114 104 0
121 101 19
127 93 42
141 97 65
135 91 61
132 89 57
138 97 52
138 94 50
139 94 56
141 99 64
143 98 61
138 96 54
142 99 67
144 99 64
142 97 65
144 100 70
143 100 62
137 96 42
142 99 62
139 96 61
137 94 52
143 99 65
137 95 52
143 101 56
146 101 76
145 101 57
142 98 61
145 100 61
142 98 65
142 99 59
136 93 56
145 100 70
144 100 68
143 100 59
144 99 64
142 99 61
138 95 56
138 96 56
144 99 65
143 98 56
139 95 48
140 98 61
142 99 59
140 97 57
139 95 65
142 98 56
140 96 54
136 93 59
131 87 46
136 92 48
132 95 54
121 93 39
116 98 0
127 113 0
121 110 0
122 110 0
124 110 0
121 107 0
126 113 0
123 110 0
125 108 0
121 105 0
127 115 0
133 124 0
134 122 0
134 127 0
128 115 0
128 116 0
134 126 0
135 124 0
129 119 0
137 130 0
138 133 0
137 130 0
134 124 0
138 137 0
141 136 0
138 131 0
139 135 0
131 124 0
132 123 0
134 125 0
135 128 0
139 132 0
139 131 0
144 139 0
140 135 0
145 144 0
138 135 0
139 131 0
141 133 0
146 141 0
144 142 0
133 127 0
137 130 0
145 144 0
140 132 0
137 129 0
141 137 0
135 125 0
130 119 0
132 125 0
133 129 0
142 134 0
132 124 0
137 130 0
130 118 0
132 123 0
130 117 0
137 129 0
122 110 0
130 121 0
130 121 0
126 113 0
127 114 0
116 103 0
117 105 0
122 111 0
118 105 0
120 107 0
113 101 0
109 96 0
106 92 0
116 105 0
105 87 0
103 90 0
97 83 0
94 78 0
91 74 0
98 87 0
82 66 0
88 73 0
83 71 0
83 64 0
90 68 0
94 75 0
98 76 0
101 83 0
111 89 0
115 95 0
110 91 0
116 95 0
121 99 0
116 92 0
118 98 0
115 91 0
123 102 0
124 105 0
122 102 0
127 107 0
124 101 0
132 112 0
129 110 0
130 110 0
133 114 0
131 115 0
133 115 0
131 113 0
130 115 0
126 109 0
132 117 0
130 113 0
133 114 0
134 117 0
137 121 0
134 117 0
136 118 0
141 126 0
141 126 0
137 124 0
141 125 0
136 119 0
141 127 0
135 121 0
146 132 0
140 124 0
138 123 0
138 123 0
140 126 0
137 121 0
138 124 0
140 126 0
141 126 0
142 128 0
139 126 0
142 127 0
141 127 0
146 133 0
142 128 0
140 127 0
143 130 0
145 134 0
144 130 0
144 133 0
143 133 0
137 124 0
139 129 0
134 120 0
144 134 0
143 133 0
140 130 0
139 126 0
133 123 0
137 128 0
139 131 0
129 122 0
135 134 0
137 142 0
156 168 0
165 183 0
170 189 0
166 183 0
172 189 0
170 189 0
171 190 0
168 185 0
170 189 0
170 189 0
171 192 0
169 190 0
161 182 0
167 189 0
171 193 0
166 188 0
168 190 0
171 193 0
167 189 0
170 192 0
168 191 0
165 186 0
163 183 0
162 183 0
146 164 22
139 156 39
121 136 45
105 118 32
106 118 56
101 112 45
120 133 56
124 138 56
114 127 39
116 130 22
114 127 32
115 128 51
127 142 22
119 133 0
117 129 56
114 127 56
121 134 39
121 133 45
118 130 32
111 124 0
117 129 22
113 125 22
123 136 22
120 133 22
115 127 32
121 133 0
122 135 32
119 132 39
116 127 45
116 128 0
115 126 22
116 129 22
117 128 0
114 126 22
115 126 22
103 113 0
108 118 0
118 130 0
107 118 0
113 126 0
119 133 0
113 124 0
109 120 0
114 124 0
111 122 0
110 121 0
109 119 0
111 121 0
108 118 0
105 114 0
107 117 0
104 114 0
110 121 0
89 98 0
108 117 22
103 112 0
104 111 0
99 108 0
98 106 0
91 95 0
95 102 0
94 101 0
92 100 0
93 99 0
92 100 0
89 97 0
82 89 0
85 89 0
81 86 0
90 95 0
92 97 0
92 97 0
91 95 0
99 104 0
98 103 0
100 105 0
99 105 0
98 103 0
102 105 0
111 116 0
110 116 0
109 114 0
112 118 0
121 126 0
114 118 0
121 125 0
121 128 0
124 132 0
119 121 0
122 124 0
123 131 0
125 126 0
128 131 0
115 117 0
120 122 0
131 137 0
131 134 0
131 135 0
130 134 0
129 133 0
127 130 0
131 138 0
129 134 0
137 142 0
129 132 0
134 136 0
139 144 0
132 135 0
127 126 0
138 143 0
135 136 0
138 142 0
130 130 0
137 142 0
132 134 0
135 140 0
136 139 0
137 140 0
136 138 0
134 132 0
136 139 0
140 144 0
132 136 0
125 120 0
131 128 0
139 141 0
143 145 0
127 125 0
129 126 0
128 125 0
133 128 0
129 128 0
131 126 0
128 116 0
129 127 0
136 133 0
126 121 0
135 134 0
125 117 0
124 121 0
124 115 0
127 121 0
133 126 0
123 115 0
123 112 0
129 125 0
125 116 0
123 115 0
122 117 0
119 107 0
127 116 0
114 99 0
115 106 0
112 99 0
121 105 0
116 91 28
123 92 31
136 92 61
132 89 57
133 90 44
138 94 59
138 95 52
135 93 56
141 97 56
140 97 62
141 97 67
137 93 52
143 99 62
138 94 59
136 94 50
143 100 64
136 94 46
139 95 57
138 93 56
139 96 64
143 99 65
140 98 46
138 96 50
140 97 54
145 101 62
143 97 65
142 99 59
138 96 52
142 100 64
140 97 64
145 102 65
137 94 50
139 95 59
132 89 56
136 93 50
143 99 62
143 99 65
144 99 65
138 94 57
138 95 59
142 99 54
139 95 57
141 97 54
131 87 46
131 89 52
126 97 34
121 100 14
130 114 0
121 113 0
116 98 0
122 106 0
114 94 0
117 99 0
122 103 0
127 116 0
117 103 0
132 118 0
131 118 0
129 118 0
134 126 0
127 110 0
125 111 0
139 133 0
134 124 0
132 121 0
135 123 0
138 131 0
135 124 0
132 122 0
129 115 0
134 123 0
136 130 0
138 130 0
141 135 0
135 131 0
133 124 0
138 133 0
139 131 0
135 128 0
141 134 0
136 130 0
137 134 0
138 133 0
140 136 0
144 140 0
135 128 0
143 139 0
148 147 0
140 135 0
146 145 0
139 135 0
146 144 0
136 130 0
138 131 0
143 140 0
143 137 0
140 135 0
132 122 0
137 129 0
138 131 0
141 138 0
138 129 0
140 135 0
142 138 0
131 122 0
137 129 0
129 115 0
137 128 0
131 122 0
131 121 0
131 126 0
138 133 0
126 116 0
120 106 0
128 119 0
118 105 0
122 110 0
116 105 0
120 109 0
121 108 0
108 92 0
114 100 0
119 111 0
107 94 0
104 91 0
93 76 0
93 74 0
108 97 0
107 98 0
88 70 0
101 87 0
87 71 0
94 83 0
86 67 0
78 62 0
81 63 0
91 70 0
103 80 0
105 82 0
117 99 0
110 89 0
105 82 0
119 95 0
118 96 0
121 102 0
126 105 0
123 102 0
126 105 0
126 109 0
124 104 0
127 107 0
122 101 0
133 116 0
132 115 0
129 112 0
130 112 0
130 112 0
130 112 0
130 112 0
134 117 0
131 116 0
126 108 0
129 112 0
132 113 0
131 113 0
136 119 0
136 119 0
138 121 0
139 125 0
136 121 0
141 126 0
139 123 0
143 127 0
140 122 0
138 123 0
142 128 0
148 132 0
139 124 0
138 123 0
140 128 0
140 125 0
140 127 0
145 129 0
136 123 0
139 124 0
138 124 0
141 128 0
141 128 0
138 127 0
133 119 0
139 126 0
142 131 0
134 121 0
137 126 0
137 125 0
135 126 0
135 125 0
136 126 0
124 116 0
132 128 0
143 146 0
153 161 0
168 182 0
172 191 0
166 182 0
166 182 0
170 186 0
169 186 0
168 185 0
170 188 0
168 185 0
171 191 0
170 189 0
168 187 0
170 188 0
170 189 0
169 191 0
166 188 0
167 189 0
168 191 0
169 190 0
167 188 0
166 187 0
167 188 0
165 186 0
168 189 0
167 188 0
168 189 0
162 182 0
162 183 0
165 186 0
166 187 0
165 185 0
149 167 0
136 153 39
125 140 45
119 132 60
111 123 32
120 133 56
107 120 22
116 129 45
109 119 45
113 125 51
110 122 22
108 119 32
110 122 45
116 129 45
108 120 45
110 123 22
106 117 39
116 129 39
117 130 22
110 122 32
110 122 39
109 121 22
119 131 39
116 128 32
107 120 0
116 129 22
107 118 22
103 113 0
113 125 0
101 112 0
113 123 0
107 118 0
109 121 22
114 126 0
116 128 32
108 119 0
104 116 0
110 121 0
101 110 0
118 129 22
100 108 0
103 112 0
104 114 0
106 116 0
106 116 0
106 116 22
93 103 0
104 113 0
103 112 0
100 108 0
104 113 0
89 98 0
103 111 0
89 98 0
94 100 0
78 84 0
83 89 0
82 86 0
82 88 0
91 98 0
80 85 0
82 86 0
100 108 0
93 101 0
101 107 0
90 95 0
90 96 0
100 106 0
94 97 0
98 103 0
101 105 0
102 108 0
104 109 0
115 119 0
110 117 0
125 133 0
108 113 0
108 113 0
117 121 0
110 111 0
115 117 0
115 114 0
120 124 0
124 127 0
129 132 0
124 123 0
131 136 0
122 125 0
133 136 0
126 130 0
134 141 0
126 132 0
125 126 0
125 124 0
135 140 0
132 137 0
142 149 0
137 141 0
131 136 0
131 135 0
133 138 0
137 140 0
132 134 0
131 128 0
134 138 0
120 120 0
142 148 0
134 138 0
143 149 0
135 142 0
139 143 0
141 145 0
129 128 0
137 137 0
136 135 0
134 137 0
143 147 0
135 135 0
135 132 0
143 147 0
137 140 0
132 130 0
138 141 0
130 131 0
132 132 0
131 128 0
134 132 0
136 135 0
125 119 0
136 134 0
129 123 0
127 127 0
131 129 0
127 117 0
128 124 0
133 128 0
123 116 0
126 119 0
129 124 0
124 116 0
125 120 0
116 104 0
126 114 0
127 117 0
116 101 0
122 112 0
124 114 0
121 111 0
108 91 0
118 102 0
121 108 0
115 105 0
110 96 0
113 98 0
114 90 28
121 85 39
128 86 44
138 96 57
137 93 46
137 94 57
133 92 46
138 94 56
137 95 57
138 94 64
138 95 61
138 96 54
137 94 64
136 92 61
138 96 50
141 99 61
143 100 62
137 93 50
136 93 50
140 96 62
139 96 57
135 91 52
137 92 52
143 101 62
138 95 57
139 94 59
140 97 57
135 91 56
138 93 59
142 97 61
133 90 48
135 94 54
139 95 62
134 89 44
134 89 42
136 93 54
136 90 59
132 89 42
133 90 57
121 83 42
117 90 19
110 90 0
107 92 0
114 98 0
119 104 0
120 108 0
115 97 0
124 111 0
131 119 0
129 118 0
123 110 0
124 108 0
122 108 0
122 105 0
128 116 0
125 113 0
129 115 0
134 125 0
136 123 0
134 123 0
140 132 0
133 124 0
134 126 0
137 129 0
130 122 0
135 128 0
141 136 0
141 137 0
138 133 0
137 127 0
138 133 0
143 139 0
130 118 0
136 129 0
138 130 0
136 133 0
141 135 0
139 135 0
138 135 0
141 134 0
148 145 0
143 139 0
138 132 0
131 126 0
137 130 0
137 130 0
140 138 0
135 129 0
141 133 0
133 129 0
143 140 0
146 146 0
145 142 0
140 135 0
135 127 0
135 130 0
143 138 0
136 132 0
141 138 0
143 143 0
131 122 0
132 122 0
137 129 0
138 131 0
134 124 0
131 122 0
123 111 0
144 138 0
134 126 0
136 127 0
130 121 0
131 122 0
128 116 0
133 127 0
125 114 0
123 112 0
121 109 0
126 115 0
122 111 0
119 107 0
117 105 0
113 99 0
117 106 0
101 88 0
109 94 0
104 93 0
104 93 0
106 93 0
105 93 0
100 88 0
99 86 0
96 84 0
90 76 0
89 76 0
82 66 0
92 75 0
90 72 0
93 73 0
99 78 0
111 91 0
102 82 0
104 82 0
120 98 0
114 93 0
122 100 0
119 97 0
118 98 0
124 100 0
125 106 0
122 103 0
123 105 0
126 109 0
126 104 0
131 113 0
133 115 0
130 112 0
123 106 0
130 113 0
133 115 0
130 110 0
139 124 0
132 113 0
135 119 0
133 113 0
136 119 0
135 121 0
134 117 0
132 114 0
135 120 0
138 124 0
138 122 0
136 121 0
137 123 0
133 116 0
136 120 0
138 123 0
137 125 0
134 121 0
136 122 0
131 117 0
138 123 0
138 126 0
136 121 0
134 121 0
136 123 0
137 124 0
134 120 0
130 117 0
127 115 0
130 120 0
126 115 0
120 112 0
136 135 0
150 154 0
158 169 0
166 180 0
169 186 0
168 185 0
165 181 0
166 181 0
168 186 0
169 185 0
168 185 0
169 184 0
170 186 0
170 187 0
170 186 0
172 189 0
168 184 0
165 180 0
168 185 0
172 192 0
169 186 0
170 192 0
166 189 0
169 191 0
169 191 0
166 188 0
169 191 0
167 189 0
165 187 0
165 186 0
168 189 0
162 183 0
167 188 0
164 184 0
162 183 0
163 184 0
167 187 0
164 184 0
164 185 0
159 179 0
166 186 0
164 184 0
158 178 22
151 167 22
138 153 22
129 142 22
124 139 39
108 120 22
109 121 22
102 112 32
106 118 22
105 117 22
115 127 32
115 126 56
102 114 32
114 125 32
109 122 22
111 124 22
106 116 22
105 115 0
110 122 22
114 127 32
110 120 0
111 123 0
110 121 0
114 127 0
110 121 0
106 118 22
102 112 22
108 120 22
106 118 22
106 115 22
105 117 0
99 109 0
109 120 22
112 123 0
105 114 0
108 118 22
112 124 0
107 116 0
101 112 0
98 107 0
91 98 0
96 103 0
98 108 0
95 105 0
98 107 0
91 99 0
90 100 0
94 103 0
82 87 0
93 99 0
86 92 0
93 100 0
97 106 0
98 105 0
95 102 0
86 91 0
88 95 0
93 98 0
102 108 0
104 109 0
104 111 0
93 97 0
105 111 0
105 109 0
103 108 0
111 118 0
111 117 0
110 115 0
121 129 0
114 120 0
115 120 0
118 122 0
123 128 0
116 121 0
121 127 0
111 112 0
118 119 0
129 135 0
114 115 0
126 129 0
122 125 0
128 135 0
124 127 0
132 136 0
131 137 0
129 131 0
131 134 0
132 139 0
132 133 0
131 135 0
136 142 0
135 138 0
134 137 0
128 131 0
133 135 0
136 142 0
136 142 0
137 146 0
127 126 0
134 136 0
130 132 0
132 133 0
136 140 0
138 142 0
134 136 0
138 136 0
134 136 0
134 136 0
141 147 0
139 144 0
134 131 0
141 143 0
140 144 0
137 135 0
132 134 0
140 144 0
133 134 0
135 135 0
129 126 0
137 134 0
134 132 0
138 136 0
137 137 0
140 142 0
127 117 0
130 128 0
141 142 0
127 126 0
127 120 0
132 127 0
133 128 0
130 122 0
132 122 0
127 120 0
126 119 0
129 122 0
123 116 0
128 121 0
123 111 0
125 114 0
122 113 0
127 119 0
123 111 0
121 108 0
121 108 0
122 111 0
113 93 0
116 103 0
113 94 0
110 94 0
107 92 0
113 95 0
108 95 0
106 79 19
123 95 24
122 86 34
133 90 52
136 92 54
135 91 54
132 90 54
125 82 31
133 89 50
134 91 48
130 88 52
139 95 62
136 95 57
135 91 54
136 92 57
139 95 59
137 93 50
132 87 42
134 90 48
132 88 42
132 88 46
137 94 59
140 97 52
136 93 52
139 96 57
139 94 52
134 91 46
134 91 54
133 90 46
132 88 48
135 91 52
134 90 54
130 96 44
118 88 19
108 83 19
112 94 0
101 79 0
109 89 0
108 91 0
116 103 0
124 108 0
120 108 0
110 90 0
116 96 0
119 99 0
125 105 0
122 109 0
129 116 0
124 108 0
129 119 0
120 106 0
128 117 0
124 110 0
127 115 0
131 123 0
130 116 0
133 126 0
131 121 0
137 130 0
140 134 0
140 133 0
139 131 0
134 121 0
137 127 0
136 127 0
135 126 0
133 122 0
142 141 0
136 128 0
139 134 0
135 129 0
146 144 0
139 133 0
141 134 0
143 141 0
142 138 0
142 139 0
133 123 0
143 139 0
141 134 0
141 138 0
137 131 0
142 137 0
136 128 0
140 137 0
141 137 0
136 131 0
140 137 0
140 135 0
140 136 0
140 134 0
137 129 0
137 131 0
141 135 0
144 143 0
139 132 0
133 126 0
137 126 0
141 136 0
132 123 0
143 137 0
136 127 0
134 124 0
127 116 0
141 133 0
138 129 0
129 117 0
139 135 0
126 115 0
131 122 0
137 130 0
128 116 0
132 120 0
121 110 0
128 119 0
118 107 0
118 105 0
123 110 0
114 104 0
113 100 0
114 101 0
121 110 0
113 97 0
117 107 0
111 96 0
105 93 0
110 98 0
109 94 0
111 96 0
94 80 0
100 89 0
103 92 0
102 88 0
105 94 0
93 79 0
97 83 0
93 80 0
94 77 0
97 80 0
92 73 0
95 78 0
108 89 0
107 88 0
105 85 0
109 90 0
120 102 0
120 101 0
116 99 0
117 98 0
117 98 0
117 100 0
119 97 0
126 106 0
126 107 0
127 109 0
121 103 0
131 112 0
127 109 0
128 109 0
124 107 0
131 112 0
125 107 0
132 113 0
132 116 0
130 115 0
138 124 0
127 111 0
137 119 0
135 120 0
127 111 0
133 118 0
133 118 0
128 115 0
131 116 0
134 117 0
133 119 0
134 121 0
126 112 0
129 117 0
125 113 0
122 112 0
129 115 0
119 110 0
130 130 0
133 131 0
142 143 0
146 150 0
160 169 0
165 176 0
169 182 0
165 177 0
166 180 0
168 182 0
168 184 0
166 180 0
170 184 0
170 185 0
163 178 0
169 184 0
166 182 0
167 183 0
166 180 0
168 187 0
168 184 0
166 182 0
170 186 0
171 191 0
170 188 0
169 187 0
166 184 0
168 191 0
166 187 0
166 188 0
167 189 0
169 189 0
163 184 0
165 186 0
167 188 0
163 184 0
166 186 0
163 183 0
162 182 0
164 184 0
163 183 0
164 184 0
164 185 0
159 178 0
166 187 0
166 186 0
162 182 0
164 185 0
163 183 0
162 182 0
161 181 0
165 184 0
158 177 0
161 180 0
157 176 0
147 165 0
144 161 39
135 151 22
121 135 22
125 139 22
112 124 39
99 111 0
112 125 22
107 118 45
104 117 0
102 112 0
96 106 22
109 121 39
101 113 22
97 108 22
103 114 22
111 122 32
105 116 22
104 115 0
104 115 0
95 106 0
104 114 0
98 108 0
109 119 0
99 109 22
90 99 0
103 113 0
100 108 0
92 100 22
107 118 0
92 99 0
90 98 0
88 96 0
87 94 0
84 92 22
92 100 22
83 89 22
93 99 0
97 104 0
100 108 0
102 111 0
106 113 0
108 117 0
102 110 0
93 100 0
108 116 0
93 99 0
95 101 0
94 101 0
97 104 0
95 101 0
108 115 0
103 112 0
108 113 0
108 113 0
109 114 0
115 121 0
115 123 0
116 123 0
118 122 0
116 122 0
122 130 0
121 129 0
111 116 0
122 127 0
130 139 0
115 120 0
125 130 0
128 135 0
130 134 0
116 120 0
128 134 0
123 131 0
127 128 0
132 136 0
127 127 0
130 138 0
132 137 0
134 142 0
130 134 0
130 132 0
136 142 0
135 138 0
139 144 0
133 132 0
143 148 0
138 143 0
132 133 0
140 146 0
142 147 0
137 142 0
132 133 0
140 146 0
132 134 0
139 144 0
142 149 0
138 140 0
137 136 0
126 127 0
141 146 0
139 143 0
141 144 0
138 139 0
129 128 0
136 140 0
134 138 0
136 140 0
133 135 0
136 137 0
144 150 0
136 136 0
142 143 0
135 135 0
134 132 0
146 149 0
133 131 0
137 134 0
134 132 0
144 144 0
135 135 0
133 131 0
139 139 0
130 123 0
127 118 0
129 123 0
136 134 0
134 128 0
123 115 0
132 126 0
137 132 0
116 103 0
136 124 0
128 116 0
120 108 0
125 114 0
117 101 0
127 116 0
121 112 0
119 105 0
119 107 0
113 102 0
116 105 0
106 91 0
115 104 0
114 101 0
114 99 0
103 82 0
114 100 0
103 86 0
104 87 14
116 98 28
119 95 37
117 86 24
131 95 42
122 82 39
130 85 50
137 91 59
134 90 57
135 91 50
131 87 50
130 86 52
131 88 42
136 90 50
131 88 42
133 89 39
134 90 61
135 92 50
136 91 54
133 89 46
135 91 46
139 93 64
129 85 48
126 85 37
127 91 48
112 76 19
114 85 37
105 76 14
102 79 0
101 85 0
106 90 0
107 86 0
105 86 0
109 90 0
117 99 0
114 95 0
117 102 0
118 97 0
117 106 0
124 108 0
125 114 0
118 102 0
121 104 0
118 101 0
129 114 0
124 114 0
137 133 0
136 127 0
134 122 0
130 118 0
129 114 0
131 119 0
132 124 0
133 121 0
130 120 0
132 123 0
137 126 0
134 122 0
136 129 0
134 122 0
130 116 0
134 120 0
138 131 0
138 132 0
137 128 0
139 135 0
131 119 0
129 121 0
143 139 0
137 127 0
136 130 0
144 143 0
142 139 0
144 140 0
141 139 0
144 145 0
144 142 0
145 143 0
137 135 0
136 135 0
142 138 0
146 145 0
143 139 0
147 147 0
142 141 0
148 153 0
144 144 0
137 134 0
141 137 0
138 133 0
140 137 0
135 129 0
140 135 0
139 131 0
133 123 0
129 117 0
133 127 0
128 117 0
133 126 0
142 138 0
127 114 0
137 131 0
140 136 0
139 134 0
136 128 0
126 116 0
135 128 0
133 126 0
131 121 0
127 116 0
126 116 0
125 116 0
129 122 0
130 121 0
124 113 0
128 119 0
128 118 0
119 110 0
129 119 0
124 115 0
118 108 0
113 100 0
112 97 0
120 110 0
108 94 0
111 101 0
112 99 0
120 110 0
114 100 0
121 113 0
111 97 0
106 95 0
116 108 0
104 92 0
108 97 0
113 103 0
105 92 0
95 83 0
112 104 0
104 90 0
107 95 0
106 91 0
97 81 0
107 93 0
109 94 0
104 86 0
103 84 0
107 88 0
115 99 0
108 90 0
114 95 0
118 100 0
114 100 0
119 101 0
118 101 0
109 92 0
122 106 0
117 101 0
118 99 0
124 108 0
123 108 0
126 110 0
115 96 0
120 104 0
120 104 0
119 105 0
118 105 0
123 107 0
121 108 0
118 105 0
113 99 0
119 107 0
122 112 0
119 110 0
130 127 0
138 139 0
143 147 0
153 154 0
153 159 0
163 173 0
161 171 0
160 169 0
159 169 0
161 170 0
167 179 0
162 172 0
163 175 0
166 180 0
165 178 0
163 176 0
167 181 0
164 177 0
167 182 0
168 184 0
167 182 0
163 177 0
168 183 0
167 184 0
169 183 0
167 185 0
170 188 0
168 182 0
165 181 0
168 185 0
170 188 0
168 186 0
170 187 0
166 188 0
167 189 0
170 192 0
164 185 0
165 186 0
169 191 0
163 184 0
154 175 0
168 189 0
163 183 0
164 186 0
165 186 0
164 183 0
159 178 0
161 181 0
161 181 0
160 180 0
162 183 0
160 179 0
162 181 0
157 175 0
160 179 0
161 181 0
159 178 0
162 182 0
158 177 0
159 178 0
159 177 0
156 174 0
157 174 0
153 170 0
155 174 0
159 177 0
154 172 0
146 163 0
145 161 0
143 158 0
144 160 0
137 152 0
130 143 22
130 144 32
134 148 0
114 126 22
118 130 0
126 140 22
117 129 22
116 129 0
123 134 0
117 129 0
114 126 0
113 124 22
121 132 0
112 123 0
121 133 0
117 127 22
109 118 0
109 119 0
110 121 0
110 121 0
123 134 0
115 125 0
109 118 0
123 133 0
108 117 0
108 117 0
101 110 0
103 112 0
107 115 0
102 110 0
113 121 0
115 123 0
108 115 0
104 110 0
107 115 0
111 120 0
104 111 0
108 115 0
107 115 0
105 111 0
111 119 0
106 112 0
112 116 0
116 121 0
114 122 0
118 125 0
130 139 0
117 122 0
120 128 0
124 131 0
115 120 0
130 136 0
118 122 0
119 122 0
120 125 0
136 143 0
128 133 0
124 128 0
128 136 0
132 136 0
124 125 0
137 145 0
139 146 0
137 142 0
135 141 0
132 138 0
132 136 0
139 145 0
133 140 0
138 141 0
126 128 0
132 136 0
130 136 0
140 144 0
132 133 0
131 135 0
133 136 0
131 133 0
138 144 0
133 134 0
140 144 0
144 146 0
137 141 0
141 143 0
135 140 0
139 143 0
141 145 0
134 135 0
137 135 0
144 151 0
138 142 0
138 141 0
140 142 0
137 139 0
138 140 0
142 145 0
138 137 0
144 145 0
134 131 0
131 130 0
131 127 0
135 135 0
131 129 0
132 131 0
139 135 0
131 129 0
132 131 0
132 128 0
131 128 0
138 133 0
135 137 0
135 130 0
133 130 0
135 133 0
125 118 0
126 116 0
133 129 0
124 115 0
130 124 0
121 110 0
121 107 0
133 129 0
122 116 0
120 103 0
129 124 0
123 112 0
121 104 0
119 105 0
118 100 0
124 112 0
115 101 0
111 95 0
121 110 0
109 94 0
102 83 0
116 100 0
104 87 0
102 85 0
109 91 0
96 67 0
102 83 0
98 75 0
104 88 0
97 81 0
107 84 14
107 83 19
107 75 24
109 79 24
101 73 14
109 74 34
114 78 31
117 81 31
117 78 31
106 71 31
114 82 34
110 72 24
109 75 37
108 77 37
103 80 14
103 79 14
88 67 14
98 75 0
100 81 0
94 75 0
99 83 0
108 89 0
106 85 0
104 81 0
113 95 0
118 102 0
110 86 0
110 93 0
111 95 0
119 100 0
115 100 0
123 106 0
110 92 0
130 120 0
122 106 0
126 115 0
122 103 0
124 109 0
132 117 0
128 108 0
132 122 0
129 117 0
128 119 0
130 120 0
127 112 0
134 126 0
138 130 0
131 123 0
138 134 0
132 121 0
130 118 0
137 129 0
137 133 0
137 131 0
139 134 0
135 127 0
142 137 0
139 136 0
133 126 0
146 145 0
141 135 0
139 135 0
147 146 0
135 125 0
140 133 0
143 140 0
145 144 0
139 132 0
140 141 0
142 139 0
139 132 0
141 139 0
147 144 0
141 139 0
144 143 0
136 130 0
144 143 0
143 136 0
138 137 0
142 136 0
139 133 0
139 135 0
144 138 0
141 140 0
137 132 0
137 129 0
142 138 0
136 129 0
146 142 0
138 134 0
138 131 0
138 133 0
138 130 0
138 131 0
144 139 0
140 137 0
134 127 0
141 139 0
137 130 0
132 121 0
132 125 0
138 132 0
136 129 0
133 127 0
138 131 0
128 114 0
125 113 0
130 124 0
134 128 0
131 125 0
139 134 0
120 107 0
127 118 0
124 115 0
120 111 0
116 106 0
127 118 0
122 111 0
121 110 0
120 113 0
121 113 0
112 99 0
113 102 0
113 102 0
119 107 0
112 100 0
111 100 0
119 108 0
118 107 0
106 91 0
115 105 0
106 94 0
112 102 0
111 100 0
114 103 0
119 109 0
113 102 0
123 114 0
114 106 0
128 120 0
117 108 0
109 96 0
116 107 0
120 111 0
120 112 0
119 109 0
131 123 0
126 117 0
125 112 0
123 113 0
120 112 0
116 106 0
125 116 0
124 115 0
120 114 0
123 114 0
131 123 0
129 127 0
134 127 0
143 144 0
137 132 0
146 149 0
151 155 0
152 155 0
148 147 0
150 152 0
159 163 0
158 161 0
157 162 0
159 168 0
163 172 0
158 166 0
158 167 0
164 173 0
165 173 0
161 170 0
161 169 0
163 175 0
166 178 0
162 169 0
167 180 0
165 177 0
164 177 0
166 177 0
169 183 0
165 178 0
166 178 0
165 178 0
165 178 0
164 177 0
166 178 0
164 178 0
167 180 0
165 178 0
167 182 0
167 181 0
166 181 0
167 181 0
170 188 0
168 183 0
168 182 0
166 187 0
168 189 0
165 186 0
163 185 0
164 186 0
163 184 0
165 186 0
163 183 0
168 189 0
163 183 0
166 186 0
164 183 0
163 183 0
165 185 0
164 184 0
162 181 0
161 180 0
157 175 0
160 180 0
160 180 0
160 179 0
159 179 0
158 176 0
152 171 0
161 180 0
152 169 0
155 174 0
154 171 0
153 170 0
150 167 0
151 168 0
156 173 0
150 167 0
143 158 0
150 166 0
149 165 0
146 162 0
149 165 0
145 161 0
142 157 0
145 160 0
139 154 0
147 163 0
148 163 0
142 158 0
139 153 0
145 159 0
137 151 0
134 147 0
136 149 0
135 149 0
131 144 0
124 135 0
127 139 0
123 135 0
128 140 0
124 136 0
121 131 0
125 136 0
115 126 0
119 130 0
108 118 0
111 120 0
119 129 0
115 125 0
108 116 0
97 106 0
115 124 0
110 120 0
105 114 0
110 119 0
105 112 0
118 128 0
110 118 0
108 113 0
110 118 0
116 124 0
108 112 0
117 125 0
115 123 0
120 127 0
119 126 0
116 121 0
118 125 0
130 139 0
133 141 0
127 133 0
121 128 0
117 121 0
127 134 0
120 128 0
133 141 0
125 132 0
129 134 0
131 135 0
135 143 0
135 135 0
129 135 0
131 134 0
130 137 0
143 153 0
131 135 0
131 133 0
136 143 0
130 134 0
131 136 0
137 141 0
129 132 0
144 151 0
137 143 0
135 144 0
142 148 0
142 149 0
132 135 0
135 140 0
142 146 0
137 142 0
140 148 0
133 138 0
145 149 0
137 142 0
139 143 0
134 133 0
140 145 0
140 142 0
131 132 0
141 147 0
140 143 0
148 152 0
133 130 0
138 142 0
137 140 0
134 130 0
136 131 0
137 135 0
135 132 0
142 143 0
135 133 0
131 131 0
134 130 0
138 139 0
142 142 0
133 130 0
135 135 0
137 133 0
137 138 0
134 134 0
130 131 0
138 131 0
134 131 0
126 114 0
134 128 0
132 125 0
129 125 0
133 128 0
123 116 0
120 111 0
114 101 0
131 125 0
128 127 0
127 119 0
121 112 0
119 108 0
137 129 0
124 117 0
121 104 0
121 111 0
126 113 0
119 103 0
124 116 0
119 107 0
110 95 0
109 92 0
115 99 0
116 100 0
111 98 0
116 97 0
101 73 0
104 79 0
103 81 0
99 82 0
110 93 0
106 85 0
97 79 0
95 77 0
100 79 0
102 84 0
86 59 0
102 84 0
90 73 0
96 70 0
96 74 0
90 65 0
99 77 0
99 83 0
105 88 0
101 81 0
99 77 0
101 83 0
103 85 0
103 88 0
100 79 0
108 84 0
110 87 0
106 86 0
112 97 0
104 91 0
111 92 0
123 110 0
119 98 0
121 106 0
112 94 0
123 102 0
121 104 0
122 103 0
124 113 0
120 105 0
120 102 0
127 115 0
123 108 0
128 118 0
133 119 0
127 116 0
128 107 0
130 123 0
123 108 0
125 108 0
130 121 0
134 123 0
142 133 0
133 124 0
137 131 0
133 127 0
135 129 0
138 132 0
139 136 0
141 138 0
137 131 0
135 131 0
140 134 0
140 134 0
144 140 0
134 128 0
145 142 0
143 143 0
137 131 0
146 145 0
140 140 0
135 128 0
143 143 0
141 138 0
139 134 0
136 129 0
145 144 0
146 146 0
139 135 0
144 138 0
147 143 0
134 125 0
148 151 0
140 136 0
144 140 0
143 139 0
145 143 0
142 137 0
135 128 0
143 139 0
144 143 0
145 140 0
148 147 0
134 130 0
141 138 0
140 134 0
136 128 0
143 138 0
140 136 0
140 137 0
140 134 0
138 128 0
144 140 0
132 126 0
141 134 0
140 134 0
144 138 0
138 128 0
134 124 0
132 124 0
135 126 0
131 123 0
138 131 0
134 126 0
128 116 0
131 121 0
126 116 0
130 121 0
128 118 0
131 123 0
128 119 0
129 120 0
126 119 0
126 118 0
125 114 0
121 111 0
127 119 0
131 125 0
120 112 0
129 120 0
121 113 0
124 115 0
121 108 0
120 109 0
119 107 0
123 117 0
122 114 0
112 100 0
117 111 0
127 118 0
117 106 0
119 110 0
125 118 0
122 112 0
118 110 0
124 115 0
133 127 0
132 127 0
133 127 0
141 137 0
136 128 0
130 125 0
133 124 0
129 121 0
140 136 0
139 133 0
137 131 0
142 136 0
143 143 0
146 141 0
142 141 0
149 149 0
141 138 0
145 143 0
145 143 0
154 156 0
149 152 0
155 157 0
153 155 0
155 158 0
158 161 0
155 160 0
156 161 0
157 160 0
154 159 0
158 162 0
163 171 0
159 164 0
157 166 0
162 170 0
162 171 0
160 169 0
159 166 0
163 174 0
161 173 0
160 171 0
165 176 0
166 179 0
168 180 0
167 178 0
163 175 0
164 175 0
160 171 0
166 180 0
167 182 0
163 176 0
168 183 0
165 178 0
166 178 0
169 184 0
164 178 0
166 180 0
166 181 0
169 185 0
166 182 0
168 183 0
168 184 0
165 186 0
163 185 0
165 185 0
168 188 0
168 188 0
168 190 0
166 188 0
163 183 0
167 187 0
158 177 0
160 179 0
159 179 0
160 181 0
163 182 0
159 178 0
160 180 0
159 179 0
159 179 0
159 178 0
156 176 0
157 176 0
155 173 0
157 175 0
154 172 0
154 173 0
159 177 0
152 170 0
157 175 0
151 168 0
152 169 0
155 172 0
152 169 0
147 163 0
144 160 0
144 160 0
151 167 0
150 167 0
145 161 0
152 167 0
141 156 0
134 148 0
141 155 0
147 162 0
138 152 0
144 158 0
132 145 0
135 149 0
133 146 0
134 147 0
131 144 0
132 145 0
137 152 0
125 137 0
126 139 0
123 135 0
123 135 0
111 122 0
122 134 0
112 122 0
128 140 0
114 124 0
127 139 0
117 127 0
117 127 0
120 129 0
116 126 0
99 107 0
119 128 0
118 126 0
119 129 0
120 130 0
116 125 0
115 124 0
123 133 0
123 132 0
126 134 0
115 124 0
131 141 0
120 126 0
125 133 0
131 139 0
129 139 0
128 136 0
128 137 0
129 136 0
127 135 0
130 134 0
128 136 0
129 135 0
125 131 0
134 139 0
133 143 0
127 131 0
130 135 0
127 132 0
135 139 0
125 130 0
126 129 0
133 140 0
133 138 0
134 138 0
136 145 0
134 134 0
137 143 0
134 139 0
132 136 0
139 146 0
140 145 0
143 148 0
136 143 0
135 140 0
140 147 0
142 148 0
139 143 0
142 149 0
140 142 0
135 139 0
140 148 0
138 147 0
137 140 0
139 141 0
130 134 0
132 133 0
135 139 0
138 142 0
142 148 0
140 141 0
146 155 0
135 134 0
144 150 0
141 143 0
137 138 0
137 138 0
140 142 0
138 138 0
144 150 0
133 132 0
137 139 0
142 142 0
139 140 0
133 130 0
131 126 0
135 135 0
136 135 0
140 142 0
135 133 0
143 144 0
132 132 0
139 136 0
127 120 0
131 128 0
128 120 0
134 131 0
138 130 0
133 127 0
131 126 0
133 125 0
130 126 0
127 115 0
125 114 0
126 116 0
129 120 0
126 115 0
129 123 0
117 103 0
120 106 0
123 114 0
124 113 0
117 105 0
113 100 0
116 104 0
118 107 0
114 97 0
114 96 0
109 92 0
122 105 0
115 105 0
106 90 0
108 89 0
102 83 0
103 86 0
116 99 0
105 84 0
97 81 0
117 105 0
100 83 0
111 101 0
105 87 0
108 94 0
108 89 0
101 85 0
104 82 0
100 78 0
103 85 0
96 72 0
113 96 0
96 78 0
115 104 0
108 90 0
108 88 0
107 86 0
110 95 0
108 89 0
107 84 0
123 109 0
118 100 0
113 95 0
107 80 0
112 96 0
125 109 0
113 97 0
116 94 0
114 99 0
123 112 0
119 101 0
117 96 0
128 114 0
127 112 0
129 120 0
128 111 0
128 110 0
133 121 0
125 111 0
128 117 0
125 105 0
133 122 0
135 119 0
130 117 0
140 130 0
137 129 0
137 129 0
135 125 0
138 131 0
133 124 0
137 126 0
131 121 0
134 126 0
132 120 0
135 127 0
137 137 0
140 136 0
139 131 0
143 141 0
139 133 0
138 133 0
143 141 0
142 135 0
139 132 0
136 130 0
139 133 0
145 148 0
141 139 0
141 138 0
141 138 0
143 139 0
139 135 0
145 138 0
139 133 0
146 145 0
141 137 0
147 146 0
143 138 0
144 143 0
138 135 0
139 136 0
139 134 0
139 132 0
140 135 0
146 145 0
144 142 0
147 146 0
135 130 0
140 134 0
136 132 0
143 139 0
142 135 0
140 136 0
138 132 0
144 143 0
136 133 0
143 141 0
141 137 0
132 125 0
138 134 0
137 131 0
136 130 0
143 135 0
133 124 0
149 146 0
136 129 0
139 133 0
134 126 0
140 132 0
127 119 0
135 128 0
130 123 0
132 125 0
131 122 0
122 112 0
128 119 0
133 124 0
128 121 0
139 134 0
128 120 0
124 113 0
131 123 0
116 101 0
127 118 0
118 109 0
120 108 0
118 110 0
124 118 0
122 114 0
123 115 0
130 121 0
122 115 0
129 122 0
124 117 0
127 119 0
124 115 0
126 119 0
128 118 0
130 124 0
124 118 0
122 112 0
127 120 0
129 121 0
141 140 0
133 128 0
134 126 0
134 127 0
145 145 0
140 135 0
138 134 0
138 135 0
140 135 0
145 141 0
140 138 0
140 135 0
145 144 0
149 150 0
143 142 0
150 151 0
149 149 0
148 149 0
152 153 0
150 152 0
152 155 0
155 156 0
155 157 0
153 157 0
158 163 0
157 163 0
155 163 0
160 168 0
163 171 0
163 171 0
160 169 0
160 166 0
158 165 0
161 169 0
162 172 0
162 167 0
162 172 0
158 169 0
161 171 0
166 178 0
165 175 0
165 176 0
164 175 0
163 174 0
169 183 0
163 175 0
166 180 0
167 181 0
167 182 0
165 178 0
167 181 0
166 181 0
170 185 0
168 182 0
167 181 0
167 184 0
172 189 0
161 181 0
163 183 0
164 185 0
166 187 0
169 190 0
163 183 0
157 177 0
163 182 0
164 185 0
163 183 0
161 181 0
160 179 0
158 177 0
161 180 0
162 182 0
157 176 0
161 179 0
163 182 0
159 177 0
161 180 0
162 182 0
159 177 0
164 183 0
156 174 0
152 171 0
153 170 0
154 171 0
157 174 0
146 162 0
153 170 0
151 168 0
150 166 0
152 168 0
153 170 0
149 165 0
146 161 0
142 156 0
145 161 0
147 162 0
149 164 0
149 165 0
145 160 0
141 156 0
141 156 0
139 154 0
133 146 0
126 139 0
127 139 0
126 138 0
122 134 0
129 141 0
129 141 0
135 148 0
123 135 0
124 135 0
128 140 0
122 133 0
130 142 0
117 128 0
132 145 0
124 133 0
124 135 0
123 134 0
115 123 0
123 134 0
125 135 0
121 132 0
123 133 0
127 137 0
124 133 0
115 125 0
120 129 0
117 126 0
123 131 0
124 134 0
128 139 0
130 138 0
123 130 0
119 126 0
130 139 0
132 140 0
133 142 0
127 135 0
131 140 0
129 136 0
125 133 0
132 141 0
128 137 0
131 138 0
130 140 0
133 142 0
136 142 0
133 142 0
134 143 0
140 146 0
132 138 0
136 143 0
135 139 0
135 142 0
146 155 0
132 137 0
133 142 0
136 141 0
136 143 0
134 138 0
135 143 0
134 140 0
140 148 0
130 135 0
136 141 0
139 143 0
134 140 0
135 139 0
144 151 0
141 147 0
135 141 0
136 143 0
140 146 0
140 143 0
134 135 0
143 148 0
134 138 0
142 142 0
144 149 0
146 152 0
145 151 0
139 141 0
142 148 0
138 142 0
147 151 0
136 139 0
141 142 0
143 144 0
142 142 0
139 140 0
135 133 0
135 134 0
133 134 0
133 133 0
142 146 0
133 132 0
138 132 0
141 137 0
143 142 0
143 140 0
141 140 0
140 136 0
133 127 0
134 131 0
138 137 0
132 125 0
139 136 0
137 129 0
133 129 0
133 131 0
126 116 0
132 125 0
128 122 0
131 122 0
130 123 0
131 120 0
127 114 0
129 117 0
126 112 0
128 117 0
122 110 0
119 106 0
127 115 0
119 110 0
126 115 0
122 112 0
118 104 0
117 103 0
118 105 0
130 122 0
105 88 0
124 113 0
111 87 0
111 90 0
115 101 0
110 91 0
114 95 0
112 95 0
107 88 0
101 74 0
118 105 0
111 95 0
109 87 0
106 89 0
110 93 0
105 91 0
108 85 0
104 84 0
112 98 0
115 99 0
106 87 0
105 85 0
115 95 0
110 89 0
109 92 0
119 102 0
111 88 0
106 89 0
121 102 0
123 110 0
112 96 0
112 99 0
123 109 0
114 91 0
118 96 0
121 105 0
121 107 0
119 105 0
116 103 0
120 102 0
126 113 0
126 112 0
124 105 0
126 111 0
128 112 0
120 108 0
133 122 0
129 118 0
134 124 0
131 119 0
126 115 0
133 124 0
136 124 0
131 123 0
130 121 0
138 128 0
141 130 0
133 126 0
145 139 0
141 136 0
129 122 0
128 122 0
141 131 0
136 128 0
140 135 0
143 141 0
135 129 0
140 136 0
144 139 0
141 133 0
137 132 0
130 119 0
138 133 0
144 139 0
139 133 0
147 146 0
144 142 0
145 145 0
137 130 0
144 142 0
144 143 0
141 138 0
142 136 0
137 134 0
148 147 0
144 145 0
148 146 0
149 150 0
140 140 0
140 138 0
153 155 0
140 136 0
147 148 0
146 144 0
142 139 0
146 146 0
145 142 0
140 137 0
140 137 0
138 134 0
143 140 0
142 137 0
135 131 0
134 129 0
144 139 0
146 142 0
142 142 0
139 135 0
137 132 0
144 143 0
142 140 0
137 133 0
132 130 0
137 131 0
132 126 0
137 130 0
132 127 0
132 125 0
134 128 0
135 132 0
134 129 0
133 125 0
133 128 0
130 122 0
126 119 0
137 129 0
138 133 0
128 121 0
141 139 0
132 125 0
130 121 0
129 121 0
128 119 0
130 126 0
126 119 0
123 114 0
124 113 0
126 118 0
123 112 0
131 123 0
126 118 0
123 111 0
127 118 0
128 120 0
128 122 0
127 116 0
133 127 0
131 124 0
129 122 0
124 118 0
134 127 0
128 122 0
128 118 0
131 125 0
135 128 0
138 133 0
138 135 0
143 141 0
135 130 0
138 136 0
135 128 0
142 140 0
135 133 0
148 145 0
146 145 0
147 149 0
143 143 0
148 148 0
153 152 0
148 150 0
148 147 0
152 153 0
152 154 0
153 155 0
152 156 0
158 164 0
152 157 0
160 167 0
156 162 0
156 161 0
158 164 0
156 161 0
157 164 0
156 162 0
161 167 0
159 165 0
159 168 0
161 169 0
163 173 0
160 167 0
158 167 0
161 169 0
162 172 0
162 177 0
159 172 0
160 171 0
165 178 0
162 174 0
166 179 0
163 174 0
167 181 0
166 181 0
167 181 0
163 174 0
165 178 0
168 181 0
166 181 0
167 182 0
167 183 0
165 186 0
161 182 0
164 185 0
160 180 0
162 182 0
162 182 0
164 185 0
164 184 0
162 182 0
164 184 0
162 182 0
159 179 0
160 179 0
154 174 0
160 178 0
158 177 0
158 176 0
162 182 0
161 179 0
153 171 0
150 168 0
153 171 0
157 174 0
150 167 0
157 174 0
144 161 0
149 165 0
151 168 0
153 170 0
152 169 0
149 165 0
149 166 0
149 166 0
150 165 0
151 167 0
150 165 0
140 155 0
153 169 0
140 154 0
140 154 0
137 151 0
147 162 0
148 163 0
141 156 0
140 153 0
139 153 0
139 152 0
139 153 0
128 141 0
138 150 0
132 146 0
130 143 0
131 143 0
133 146 0
128 141 0
129 142 0
127 139 0
123 135 0
133 145 0
118 129 0
124 135 0
127 139 0
129 141 0
122 133 0
118 127 0
131 143 0
129 140 0
119 130 0
123 133 0
119 128 0
130 141 0
122 130 0
131 141 0
128 139 0
127 136 0
123 131 0
130 140 0
129 138 0
131 140 0
125 132 0
138 149 0
140 149 0
137 144 0
129 136 0
135 143 0
129 138 0
135 145 0
132 140 0
130 138 0
128 133 0
136 143 0
130 137 0
136 146 0
126 132 0
134 140 0
142 148 0
140 147 0
124 130 0
136 144 0
132 139 0
136 141 0
135 140 0
141 150 0
134 140 0
136 142 0
135 137 0
140 148 0
135 142 0
145 152 0
130 135 0
145 153 0
144 151 0
135 144 0
140 144 0
141 148 0
141 145 0
140 141 0
135 139 0
141 146 0
142 147 0
138 141 0
141 147 0
139 144 0
146 154 0
142 142 0
142 145 0
135 135 0
148 152 0
141 147 0
141 143 0
149 156 0
141 144 0
134 135 0
134 132 0
142 147 0
141 142 0
150 157 0
142 144 0
144 146 0
137 139 0
134 134 0
140 142 0
136 138 0
144 142 0
139 141 0
142 142 0
136 132 0
132 127 0
134 130 0
140 138 0
130 121 0
138 134 0
132 125 0
142 140 0
134 130 0
130 123 0
134 133 0
127 120 0
134 128 0
130 119 0
137 132 0
129 123 0
132 124 0
133 124 0
121 111 0
124 110 0
123 107 0
136 126 0
121 107 0
122 108 0
122 107 0
118 104 0
126 112 0
122 107 0
124 112 0
127 114 0
124 111 0
117 99 0
119 103 0
119 104 0
113 100 0
105 82 0
119 107 0
113 93 0
110 92 0
114 101 0
117 104 0
102 84 0
106 87 0
111 95 0
123 114 0
116 102 0
111 94 0
116 101 0
110 92 0
107 84 0
115 97 0
117 102 0
122 104 0
116 94 0
119 106 0
108 86 0
109 93 0
112 99 0
115 93 0
114 97 0
119 107 0
114 95 0
124 113 0
117 100 0
117 99 0
122 106 0
124 112 0
131 115 0
125 111 0
121 105 0
129 111 0
134 122 0
133 125 0
127 115 0
129 111 0
129 116 0
131 121 0
130 119 0
127 113 0
132 120 0
144 135 0
123 108 0
125 112 0
132 120 0
139 132 0
130 119 0
141 131 0
142 138 0
130 120 0
139 129 0
138 133 0
141 136 0
138 128 0
135 126 0
141 130 0
137 132 0
145 144 0
143 136 0
144 139 0
146 143 0
134 123 0
146 146 0
149 146 0
147 146 0
144 142 0
144 141 0
146 146 0
146 147 0
145 142 0
143 141 0
145 147 0
138 132 0
147 151 0
138 136 0
143 143 0
146 145 0
139 134 0
136 127 0
150 151 0
140 137 0
147 149 0
143 139 0
148 149 0
137 135 0
150 149 0
140 135 0
147 145 0
144 138 0
148 143 0
132 125 0
138 139 0
137 128 0
140 133 0
141 133 0
144 140 0
143 139 0
140 137 0
143 141 0
140 136 0
138 131 0
137 129 0
136 128 0
143 142 0
141 136 0
139 134 0
135 129 0
140 140 0
136 129 0
142 137 0
135 127 0
140 135 0
140 136 0
134 126 0
136 131 0
137 131 0
143 139 0
136 129 0
134 128 0
138 133 0
128 122 0
133 123 0
133 124 0
136 130 0
134 128 0
132 124 0
135 129 0
131 125 0
133 128 0
133 125 0
134 127 0
124 116 0
126 122 0
132 125 0
137 130 0
128 120 0
122 113 0
126 117 0
128 118 0
133 126 0
131 126 0
134 130 0
135 129 0
130 126 0
135 131 0
145 143 0
142 140 0
139 134 0
139 137 0
136 132 0
138 135 0
143 139 0
142 140 0
146 143 0
147 144 0
143 142 0
148 148 0
147 146 0
145 144 0
152 152 0
150 154 0
154 157 0
153 156 0
151 154 0
152 155 0
150 150 0
153 155 0
152 158 0
157 163 0
160 167 0
156 159 0
156 160 0
159 165 0
158 166 0
160 168 0
160 169 0
156 164 0
161 167 0
158 167 0
157 165 0
158 165 0
159 168 0
164 175 0
158 168 0
168 179 0
163 173 0
164 174 0
163 172 0
166 176 0
164 174 0
163 173 0
168 181 0
167 181 0
166 180 0
169 184 0
167 181 0
167 181 0
163 177 0
168 181 0
166 186 0
165 186 0
169 188 0
159 177 0
163 184 0
158 178 0
165 185 0
159 179 0
157 176 0
161 180 0
163 183 0
157 176 0
165 184 0
155 174 0
157 177 0
156 175 0
162 180 0
154 171 0
157 176 0
157 175 0
155 173 0
152 170 0
150 167 0
155 173 0
152 169 0
155 173 0
151 167 0
154 171 0
150 167 0
149 166 0
146 162 0
145 160 0
149 165 0
147 162 0
147 163 0
149 164 0
150 166 0
138 152 0
145 160 0
146 161 0
142 157 0
138 152 0
144 158 0
131 145 0
135 148 0
133 146 0
137 151 0
127 140 0
131 143 0
130 142 0
137 150 0
126 138 0
123 136 0
124 136 0
125 137 0
125 136 0
129 141 0
127 139 0
117 128 0
123 133 0
125 137 0
126 137 0
125 135 0
130 142 0
126 136 0
123 131 0
134 144 0
128 138 0
124 132 0
120 130 0
132 142 0
120 125 0
129 136 0
124 131 0
119 128 0
126 135 0
136 146 0
130 137 0
133 143 0
132 143 0
121 129 0
126 131 0
138 148 0
126 134 0
130 139 0
139 147 0
133 141 0
134 139 0
135 145 0
136 145 0
134 142 0
127 135 0
131 137 0
138 147 0
138 144 0
140 147 0
143 152 0
136 143 0
138 145 0
137 144 0
145 157 0
127 130 0
137 145 0
142 151 0
136 139 0
133 137 0
135 143 0
141 148 0
135 141 0
143 151 0
133 135 0
141 144 0
130 131 0
134 141 0
145 150 0
144 153 0
142 151 0
145 153 0
141 143 0
144 147 0
145 151 0
143 151 0
142 150 0
142 146 0
144 147 0
142 145 0
141 137 0
142 147 0
137 140 0
137 142 0
135 133 0
135 136 0
143 145 0
145 147 0
136 139 0
144 144 0
148 152 0
141 143 0
139 141 0
140 139 0
146 147 0
141 140 0
145 148 0
141 141 0
144 143 0
138 133 0
130 127 0
136 134 0
137 132 0
139 139 0
135 136 0
143 141 0
139 139 0
140 137 0
133 126 0
140 137 0
136 130 0
132 124 0
133 122 0
124 113 0
135 128 0
128 116 0
130 119 0
133 124 0
133 127 0
132 124 0
133 127 0
124 111 0
118 101 0
131 124 0
131 121 0
125 118 0
121 105 0
119 103 0
127 116 0
123 110 0
123 114 0
122 108 0
125 116 0
118 107 0
123 110 0
115 99 0
114 100 0
120 110 0
117 101 0
111 97 0
118 100 0
107 85 0
119 102 0
114 96 0
122 106 0
120 105 0
122 107 0
115 99 0
115 93 0
119 104 0
119 104 0
110 92 0
113 94 0
122 108 0
114 91 0
121 112 0
122 110 0
125 109 0
111 93 0
117 102 0
116 93 0
126 106 0
127 112 0
130 121 0
122 104 0
115 96 0
134 121 0
126 116 0
133 115 0
129 112 0
134 125 0
127 110 0
129 117 0
131 118 0
136 128 0
136 126 0
128 114 0
136 129 0
137 126 0
138 131 0
134 125 0
126 111 0
130 119 0
139 133 0
134 131 0
139 132 0
141 135 0
141 132 0
144 138 0
139 130 0
137 129 0
138 134 0
143 138 0
136 131 0
133 126 0
138 131 0
136 129 0
142 137 0
142 137 0
143 141 0
141 136 0
144 142 0
147 148 0
141 136 0
147 143 0
144 141 0
145 143 0
145 145 0
148 146 0
142 140 0
145 143 0
152 155 0
141 140 0
142 140 0
144 142 0
149 146 0
143 139 0
145 142 0
145 146 0
138 138 0
146 145 0
146 142 0
142 143 0
140 141 0
149 148 0
137 135 0
143 142 0
143 143 0
146 146 0
144 141 0
144 146 0
143 145 0
147 148 0
139 132 0
140 132 0
146 146 0
143 141 0
142 138 0
143 139 0
143 143 0
144 142 0
141 135 0
142 138 0
138 132 0
135 128 0
138 135 0
135 129 0
137 130 0
139 134 0
146 146 0
142 140 0
142 141 0
138 132 0
136 127 0
145 142 0
138 133 0
133 126 0
136 132 0
126 119 0
137 132 0
143 140 0
133 127 0
134 126 0
134 124 0
138 133 0
134 131 0
135 130 0
136 131 0
142 140 0
140 138 0
146 142 0
132 127 0
134 128 0
132 125 0
133 127 0
137 130 0
137 133 0
141 137 0
134 129 0
135 130 0
134 127 0
131 122 0
133 127 0
136 129 0
134 128 0
134 130 0
138 136 0
142 138 0
145 141 0
138 136 0
140 138 0
136 131 0
145 140 0
135 131 0
146 145 0
149 152 0
143 140 0
143 143 0
146 148 0
150 150 0
148 149 0
149 150 0
153 155 0
151 150 0
147 146 0
157 160 0
157 161 0
154 157 0
154 159 0
156 159 0
157 162 0
155 161 0
162 168 0
159 166 0
158 165 0
161 170 0
159 164 0
162 172 0
159 165 0
163 172 0
160 169 0
160 170 0
163 172 0
162 173 0
159 166 0
162 172 0
169 180 0
167 178 0
167 178 0
161 169 0
163 173 0
165 177 0
164 176 0
169 182 0
164 177 0
164 175 0
163 176 0
168 181 0
158 178 0
160 181 0
158 177 0
161 180 0
163 185 0
159 179 0
159 179 0
154 172 0
163 181 0
159 179 0
160 179 0
158 176 0
162 181 0
162 182 0
159 177 0
155 173 0
161 179 0
157 176 0
159 178 0
153 170 0
155 172 0
158 175 0
154 172 0
146 162 0
151 167 0
151 167 0
158 175 0
146 162 0
141 157 0
156 173 0
156 173 0
147 164 0
143 159 0
148 164 0
143 159 0
144 159 0
141 156 0
141 155 0
146 162 0
134 148 0
146 161 0
139 152 0
136 149 0
136 149 0
133 146 0
134 147 0
146 160 0
139 151 0
133 146 0
134 147 0
127 138 0
133 144 0
130 142 0
128 141 0
134 145 0
131 143 0
132 144 0
131 142 0
139 150 0
134 145 0
135 147 0
125 137 0
128 140 0
130 141 0
131 140 0
133 141 0
127 135 0
134 145 0
121 130 0
129 138 0
131 142 0
124 133 0
135 145 0
132 143 0
128 138 0
133 140 0
132 142 0
140 150 0
127 136 0
130 139 0
147 158 0
132 141 0
126 132 0
133 143 0
135 145 0
145 157 0
140 151 0
137 148 0
134 140 0
137 143 0
133 137 0
135 145 0
145 153 0
135 140 0
137 144 0
137 143 0
140 150 0
138 143 0
132 136 0
136 145 0
133 138 0
149 160 0
136 140 0
143 150 0
143 151 0
137 141 0
137 141 0
137 142 0
140 143 0
142 148 0
146 154 0
142 150 0
142 149 0
143 148 0
141 150 0
139 144 0
142 145 0
143 147 0
149 156 0
142 144 0
144 146 0
141 147 0
142 146 0
147 153 0
142 149 0
138 143 0
140 143 0
140 141 0
139 142 0
139 142 0
140 141 0
145 150 0
146 150 0
137 138 0
133 131 0
142 144 0
142 145 0
140 143 0
136 134 0
140 144 0
142 145 0
141 143 0
137 141 0
139 138 0
136 134 0
137 135 0
140 136 0
132 127 0
131 124 0
135 133 0
139 135 0
136 132 0
132 130 0
140 137 0
136 133 0
134 128 0
142 143 0
134 124 0
129 119 0
136 130 0
136 129 0
132 126 0
133 129 0
138 134 0
128 119 0
125 117 0
127 116 0
136 126 0
131 122 0
129 115 0
128 116 0
139 133 0
124 110 0
134 126 0
132 122 0
124 107 0
120 105 0
130 117 0
128 120 0
123 108 0
127 117 0
126 111 0
119 103 0
124 109 0
121 103 0
122 106 0
111 97 0
114 96 0
115 101 0
118 102 0
121 105 0
120 106 0
117 99 0
124 112 0
112 98 0
110 90 0
120 108 0
123 109 0
127 113 0
123 105 0
122 107 0
123 107 0
119 100 0
125 109 0
122 101 0
133 123 0
123 108 0
118 99 0
129 119 0
131 115 0
130 122 0
129 114 0
124 110 0
128 115 0
132 122 0
134 120 0
125 109 0
139 128 0
136 128 0
141 135 0
126 112 0
134 122 0
132 120 0
138 132 0
138 133 0
138 125 0
138 130 0
148 149 0
136 130 0
144 139 0
139 129 0
137 128 0
140 134 0
139 131 0
139 136 0
140 132 0
138 130 0
134 125 0
148 146 0
142 137 0
144 142 0
144 142 0
146 145 0
139 136 0
145 144 0
145 146 0
140 141 0
141 134 0
143 139 0
145 142 0
144 142 0
138 136 0
141 142 0
148 148 0
144 141 0
142 138 0
147 149 0
147 146 0
146 145 0
146 144 0
144 143 0
143 138 0
143 140 0
148 145 0
144 142 0
140 138 0
140 131 0
146 150 0
145 143 0
150 151 0
138 138 0
146 141 0
143 141 0
150 152 0
136 133 0
147 144 0
145 141 0
146 144 0
148 147 0
145 145 0
148 144 0
151 153 0
147 147 0
145 144 0
141 135 0
143 140 0
147 146 0
146 147 0
141 139 0
142 142 0
148 146 0
138 137 0
147 146 0
142 141 0
141 138 0
141 136 0
143 142 0
148 147 0
142 138 0
141 138 0
137 129 0
140 136 0
140 139 0
142 138 0
134 127 0
131 125 0
133 128 0
139 135 0
140 134 0
141 139 0
129 124 0
138 131 0
137 134 0
141 134 0
137 133 0
137 134 0
133 126 0
138 137 0
135 131 0
128 120 0
137 130 0
137 134 0
134 126 0
131 125 0
142 141 0
137 135 0
134 127 0
133 129 0
137 134 0
137 133 0
145 143 0
140 138 0
136 131 0
134 128 0
143 140 0
141 139 0
135 132 0
146 139 0
148 147 0
141 138 0
151 154 0
140 135 0
150 149 0
151 151 0
143 141 0
146 145 0
147 146 0
146 144 0
152 154 0
154 158 0
150 151 0
160 165 0
156 159 0
151 152 0
155 158 0
157 161 0
153 157 0
161 165 0
159 164 0
156 161 0
160 167 0
161 169 0
165 173 0
160 166 0
158 166 0
161 168 0
158 166 0
158 165 0
166 176 0
163 173 0
164 172 0
161 172 0
163 174 0
167 177 0
160 170 0
165 176 0
163 174 0
164 177 0
165 176 0
167 179 0
168 181 0
162 175 0
165 178 0
167 180 0
164 184 0
166 186 0
160 180 0
164 184 0
163 183 0
161 180 0
160 179 0
159 178 0
161 179 0
155 175 0
163 183 0
157 175 0
157 174 0
158 178 0
158 177 0
158 176 0
158 176 0
156 173 0
151 168 0
152 171 0
150 168 0
153 170 0
147 164 0
158 175 0
156 173 0
156 173 0
147 164 0
144 160 0
149 164 0
146 162 0
147 163 0
145 161 0
144 160 0
152 166 0
141 155 0
138 152 0
145 160 0
146 161 0
146 161 0
145 160 0
133 147 0
144 160 0
137 151 0
143 157 0
134 148 0
146 162 0
133 145 0
129 143 0
120 130 0
136 149 0
136 148 0
137 150 0
134 148 0
131 143 0
140 154 0
133 144 0
139 153 0
126 139 0
135 148 0
129 139 0
130 142 0
130 143 0
137 149 0
130 139 0
131 143 0
127 137 0
129 138 0
127 137 0
129 138 0
131 140 0
136 147 0
139 149 0
133 143 0
136 146 0
131 138 0
142 155 0
133 139 0
133 142 0
139 149 0
137 147 0
135 142 0
135 144 0
134 141 0
138 146 0
132 138 0
136 145 0
136 145 0
132 139 0
134 142 0
141 146 0
147 159 0
134 141 0
140 150 0
136 141 0
141 150 0
140 149 0
144 154 0
135 144 0
138 143 0
142 150 0
141 147 0
141 146 0
136 143 0
142 150 0
147 155 0
138 143 0
142 148 0
140 148 0
146 153 0
146 157 0
146 154 0
138 144 0
148 156 0
143 152 0
145 153 0
139 142 0
141 145 0
145 150 0
145 152 0
136 137 0
138 139 0
139 146 0
142 145 0
146 151 0
145 147 0
140 141 0
145 151 0
143 148 0
139 142 0
146 151 0
145 150 0
136 137 0
147 150 0
148 152 0
144 149 0
142 144 0
142 145 0
145 143 0
140 141 0
141 138 0
141 145 0
140 139 0
138 137 0
139 139 0
143 143 0
144 148 0
143 145 0
132 127 0
139 138 0
133 127 0
136 133 0
140 142 0
138 135 0
141 136 0
136 134 0
132 130 0
134 130 0
135 129 0
130 126 0
138 130 0
135 132 0
126 115 0
143 140 0
128 115 0
132 121 0
129 120 0
129 122 0
128 119 0
129 119 0
131 122 0
128 118 0
136 127 0
124 109 0
128 118 0
137 131 0
124 112 0
132 125 0
127 117 0
127 109 0
121 113 0
125 116 0
124 110 0
121 108 0
123 109 0
116 104 0
119 102 0
129 119 0
125 115 0
124 112 0
131 122 0
115 95 0
117 97 0
124 111 0
119 100 0
125 108 0
123 103 0
126 113 0
119 98 0
120 106 0
127 113 0
120 100 0
124 104 0
132 120 0
127 114 0
135 126 0
128 117 0
125 110 0
126 109 0
135 127 0
137 127 0
133 122 0
131 119 0
122 106 0
127 113 0
134 122 0
139 130 0
129 117 0
134 121 0
134 126 0
137 127 0
131 123 0
140 133 0
133 126 0
137 128 0
134 118 0
139 133 0
134 130 0
140 133 0
136 127 0
142 137 0
143 138 0
139 136 0
143 138 0
142 134 0
138 135 0
141 138 0
137 128 0
142 140 0
141 133 0
145 143 0
145 141 0
136 128 0
147 141 0
146 144 0
141 139 0
148 146 0
140 134 0
148 150 0
135 127 0
140 135 0
142 140 0
146 143 0
139 134 0
137 124 0
148 150 0
139 130 0
150 149 0
146 146 0
145 144 0
146 146 0
149 150 0
148 152 0
147 145 0
148 148 0
146 147 0
148 151 0
155 161 0
147 148 0
146 148 0
150 148 0
144 142 0
147 148 0
152 154 0
146 146 0
153 154 0
149 150 0
142 141 0
144 141 0
152 156 0
145 142 0
144 142 0
135 129 0
143 140 0
140 137 0
145 142 0
147 148 0
144 139 0
149 147 0
146 146 0
145 140 0
141 138 0
140 134 0
139 135 0
150 150 0
140 138 0
141 135 0
145 143 0
144 140 0
143 141 0
143 139 0
141 139 0
144 140 0
137 134 0
142 140 0
144 139 0
141 141 0
142 139 0
144 140 0
135 129 0
138 133 0
136 131 0
142 137 0
140 133 0
136 131 0
139 133 0
146 145 0
142 139 0
139 134 0
141 136 0
139 136 0
141 135 0
135 128 0
135 131 0
144 141 0
135 127 0
142 139 0
135 131 0
142 136 0
134 128 0
147 146 0
144 142 0
148 149 0
136 133 0
135 129 0
142 139 0
141 140 0
143 140 0
142 140 0
137 136 0
147 144 0
138 135 0
141 139 0
150 150 0
142 140 0
149 148 0
148 148 0
144 142 0
147 146 0
158 162 0
157 162 0
152 154 0
150 149 0
152 156 0
153 157 0
153 156 0
159 166 0
161 165 0
159 165 0
157 164 0
156 160 0
156 161 0
156 164 0
161 171 0
159 165 0
162 168 0
155 161 0
160 166 0
160 169 0
162 172 0
163 171 0
160 168 0
159 169 0
163 173 0
162 171 0
170 182 0
166 177 0
162 172 0
163 172 0
164 175 0
168 183 0
165 176 0
165 176 0
164 176 0
164 175 0
162 182 0
161 180 0
159 179 0
162 182 0
164 183 0
158 176 0
155 173 0
161 180 0
156 175 0
156 174 0
157 175 0
159 177 0
156 174 0
162 180 0
156 173 0
159 177 0
156 174 0
161 179 0
158 177 0
158 176 0
159 176 0
148 164 0
154 172 0
154 172 0
154 171 0
157 174 0
154 171 0
148 165 0
152 168 0
147 163 0
149 164 0
141 156 0
146 162 0
146 162 0
146 161 0
144 160 0
148 164 0
148 163 0
133 147 0
140 154 0
141 154 0
145 160 0
138 150 0
138 152 0
137 151 0
138 152 0
139 153 0
145 158 0
142 156 0
134 144 0
132 145 0
131 142 0
143 157 0
134 146 0
137 151 0
142 155 0
135 147 0
127 138 0
139 150 0
134 145 0
131 142 0
139 150 0
139 152 0
127 135 0
132 142 0
139 149 0
132 142 0
141 152 0
136 145 0
129 138 0
132 144 0
134 144 0
133 142 0
132 142 0
133 142 0
138 149 0
135 146 0
144 156 0
132 141 0
134 142 0
141 152 0
145 157 0
132 141 0
133 139 0
144 156 0
133 138 0
137 144 0
142 151 0
129 137 0
142 149 0
140 152 0
131 140 0
141 152 0
138 145 0
140 148 0
133 141 0
149 160 0
143 150 0
144 152 0
134 137 0
143 151 0
150 158 0
143 151 0
149 157 0
151 159 0
143 149 0
142 148 0
140 145 0
144 151 0
143 147 0
142 148 0
141 145 0
142 146 0
147 155 0
151 158 0
151 158 0
140 141 0
143 148 0
142 146 0
145 151 0
147 153 0
145 152 0
136 138 0
145 150 0
151 161 0
142 146 0
136 136 0
143 150 0
142 148 0
144 149 0
148 157 0
147 154 0
140 140 0
145 146 0
144 146 0
146 150 0
142 149 0
142 144 0
142 141 0
134 129 0
140 137 0
147 150 0
143 141 0
135 133 0
144 144 0
141 138 0
142 141 0
134 131 0
138 134 0
139 133 0
142 139 0
139 138 0
133 126 0
139 132 0
141 136 0
128 121 0
138 137 0
134 125 0
131 124 0
136 128 0
146 139 0
140 134 0
135 126 0
132 123 0
134 126 0
134 130 0
123 114 0
138 137 0
130 120 0
129 115 0
127 111 0
134 123 0
128 116 0
127 112 0
124 112 0
124 110 0
132 121 0
131 122 0
128 115 0
130 119 0
124 114 0
121 104 0
132 124 0
123 111 0
133 123 0
126 116 0
131 118 0
126 112 0
131 121 0
133 123 0
117 94 0
131 118 0
135 122 0
121 110 0
121 106 0
128 115 0
123 108 0
127 114 0
125 108 0
130 116 0
132 125 0
127 109 0
130 116 0
126 115 0
126 111 0
134 120 0
129 116 0
131 120 0
124 107 0
126 113 0
128 112 0
134 118 0
132 118 0
136 130 0
132 127 0
132 120 0
136 127 0
143 138 0
130 118 0
139 132 0
130 116 0
135 127 0
138 131 0
133 125 0
136 124 0
145 144 0
147 144 0
140 125 0
138 130 0
134 128 0
146 140 0
143 137 0
142 136 0
141 136 0
141 134 0
142 138 0
144 142 0
142 138 0
142 139 0
138 130 0
143 140 0
142 136 0
147 149 0
147 144 0
138 129 0
142 136 0
140 134 0
148 145 0
144 140 0
151 153 0
142 141 0
145 143 0
144 144 0
146 146 0
144 137 0
149 150 0
142 140 0
144 145 0
149 151 0
151 154 0
148 151 0
143 138 0
143 137 0
148 147 0
147 147 0
144 146 0
151 153 0
142 141 0
151 149 0
147 148 0
144 143 0
143 139 0
151 152 0
146 146 0
147 147 0
146 147 0
144 143 0
144 144 0
144 139 0
147 149 0
146 142 0
150 149 0
142 139 0
150 152 0
144 143 0
146 147 0
144 141 0
152 155 0
145 144 0
149 148 0
147 144 0
150 150 0
146 147 0
142 139 0
153 157 0
145 139 0
138 132 0
147 143 0
143 139 0
143 140 0
148 147 0
149 149 0
141 142 0
147 145 0
145 142 0
142 140 0
142 141 0
140 134 0
139 139 0
141 136 0
142 139 0
138 132 0
145 143 0
138 133 0
138 138 0
146 147 0
137 132 0
136 132 0
147 144 0
141 139 0
148 147 0
142 139 0
140 133 0
137 132 0
136 131 0
139 133 0
139 136 0
140 135 0
140 136 0
142 137 0
143 142 0
142 139 0
142 140 0
143 136 0
154 154 0
148 147 0
139 137 0
144 141 0
143 142 0
156 160 0
141 139 0
138 133 0
142 138 0
138 137 0
147 146 0
147 149 0
149 149 0
148 147 0
150 153 0
150 152 0
149 147 0
153 156 0
153 155 0
155 159 0
154 157 0
157 163 0
154 156 0
155 160 0
152 156 0
152 156 0
157 162 0
161 167 0
161 166 0
154 158 0
160 164 0
160 165 0
166 178 0
162 169 0
160 167 0
162 169 0
165 173 0
159 168 0
163 171 0
167 177 0
158 167 0
162 169 0
162 171 0
164 174 0
166 178 0
163 173 0
161 171 0
166 178 0
166 179 0
168 182 0
162 182 0
160 179 0
162 181 0
161 180 0
158 177 0
162 181 0
156 174 0
160 178 0
153 171 0
160 179 0
160 178 0
157 175 0
157 175 0
159 178 0
158 176 0
153 171 0
154 172 0
151 168 0
155 173 0
150 166 0
156 173 0
154 169 0
154 171 0
150 165 0
149 166 0
150 167 0
148 164 0
150 166 0
146 161 0
144 160 0
149 165 0
150 166 0
146 161 0
148 164 0
146 161 0
141 156 0
149 164 0
144 158 0
139 154 0
141 155 0
137 151 0
140 154 0
142 156 0
138 151 0
136 149 0
138 152 0
135 148 0
133 146 0
143 158 0
142 155 0
142 155 0
134 146 0
135 148 0
133 145 0
139 151 0
141 155 0
142 155 0
130 141 0
136 149 0
125 135 0
135 148 0
134 145 0
137 147 0
133 144 0
137 148 0
135 145 0
138 149 0
142 152 0
132 144 0
137 147 0
137 150 0
136 148 0
144 155 0
140 151 0
137 148 0
143 155 0
138 150 0
143 155 0
141 150 0
143 153 0
143 156 0
141 153 0
140 147 0
148 162 0
150 159 0
137 145 0
137 146 0
143 151 0
141 146 0
142 149 0
144 153 0
147 159 0
142 150 0
142 150 0
143 152 0
145 151 0
142 149 0
142 149 0
141 152 0
144 152 0
139 147 0
141 148 0
153 167 0
143 149 0
137 142 0
150 161 0
145 153 0
140 146 0
142 147 0
138 143 0
138 142 0
145 156 0
143 151 0
145 152 0
143 148 0
143 152 0
141 144 0
142 145 0
148 151 0
143 150 0
146 149 0
141 144 0
142 149 0
138 139 0
142 144 0
143 149 0
145 149 0
143 148 0
147 151 0
141 144 0
140 142 0
143 146 0
140 142 0
143 148 0
148 154 0
141 146 0
136 136 0
141 141 0
141 143 0
141 142 0
140 140 0
147 153 0
148 149 0
136 133 0
140 141 0
142 139 0
139 137 0
138 135 0
138 134 0
145 145 0
136 132 0
141 141 0
144 142 0
140 134 0
136 134 0
138 135 0
148 150 0
139 137 0
140 137 0
133 126 0
135 124 0
139 131 0
130 122 0
141 136 0
143 138 0
135 129 0
134 129 0
137 132 0
137 133 0
136 131 0
140 127 0
135 127 0
133 123 0
135 126 0
133 121 0
132 122 0
133 121 0
129 118 0
131 123 0
130 121 0
131 118 0
128 114 0
123 113 0
130 119 0
133 120 0
125 115 0
130 124 0
123 110 0
125 108 0
126 109 0
126 113 0
128 114 0
131 122 0
126 112 0
135 122 0
134 124 0
127 117 0
125 110 0
133 127 0
123 110 0
122 107 0
131 119 0
132 118 0
126 109 0
132 126 0
138 129 0
131 117 0
134 119 0
134 123 0
131 121 0
135 121 0
133 119 0
129 115 0
138 128 0
126 112 0
136 128 0
137 126 0
131 120 0
133 121 0
130 118 0
138 127 0
146 141 0
141 135 0
137 131 0
136 125 0
143 135 0
140 133 0
142 134 0
140 133 0
136 130 0
147 143 0
149 144 0
138 132 0
144 138 0
144 146 0
138 132 0
143 137 0
142 137 0
142 136 0
140 135 0
145 142 0
134 127 0
144 142 0
140 133 0
143 135 0
145 142 0
139 134 0
145 139 0
137 132 0
146 145 0
148 146 0
145 143 0
147 142 0
147 145 0
148 150 0
143 143 0
146 146 0
152 152 0
137 130 0
147 150 0
150 151 0
148 149 0
145 142 0
149 151 0
147 152 0
140 137 0
144 144 0
147 148 0
146 149 0
146 145 0
146 146 0
143 142 0
150 151 0
143 141 0
147 149 0
147 148 0
148 150 0
149 155 0
144 143 0
146 144 0
148 150 0
144 143 0
143 144 0
143 143 0
151 151 0
144 144 0
152 152 0
145 139 0
147 149 0
153 154 0
144 143 0
152 156 0
143 142 0
148 148 0
146 146 0
140 135 0
144 142 0
146 146 0
144 139 0
140 140 0
148 146 0
143 140 0
139 134 0
141 141 0
140 134 0
148 147 0
147 144 0
145 143 0
138 134 0
142 138 0
148 147 0
145 143 0
145 142 0
142 136 0
139 133 0
143 141 0
138 134 0
149 150 0
141 139 0
139 137 0
146 144 0
144 142 0
148 150 0
137 132 0
143 141 0
142 139 0
144 142 0
137 130 0
142 141 0
143 141 0
149 152 0
138 134 0
143 141 0
145 146 0
143 140 0
142 140 0
147 145 0
140 135 0
148 148 0
143 144 0
146 147 0
146 147 0
146 147 0
147 146 0
143 144 0
157 159 0
149 151 0
151 153 0
151 153 0
154 158 0
151 153 0
154 156 0
151 152 0
151 154 0
153 154 0
154 156 0
157 160 0
158 163 0
153 154 0
155 157 0
156 159 0
157 162 0
150 154 0
154 155 0
159 165 0
156 162 0
160 167 0
161 171 0
156 162 0
164 175 0
159 165 0
158 164 0
161 169 0
159 166 0
162 172 0
162 173 0
162 173 0
163 173 0
160 169 0
163 173 0
163 176 0
166 176 0
165 179 0
162 175 0
164 184 0
164 184 0
163 181 0
161 181 0
163 182 0
155 174 0
155 174 0
159 177 0
157 174 0
156 174 0
156 174 0
156 174 0
156 174 0
162 180 0
159 178 0
156 173 0
156 174 0
155 171 0
155 172 0
153 170 0
146 162 0
155 172 0
150 166 0
151 168 0
146 162 0
150 166 0
145 161 0
147 163 0
150 167 0
153 169 0
142 157 0
144 160 0
146 162 0
152 168 0
142 157 0
134 147 0
148 164 0
145 161 0
141 156 0
139 153 0
142 156 0
138 152 0
144 159 0
137 150 0
137 151 0
143 158 0
142 155 0
146 161 0
137 150 0
137 151 0
136 149 0
134 146 0
141 155 0
136 147 0
135 147 0
135 146 0
141 154 0
136 147 0
145 158 0
142 155 0
136 150 0
140 153 0
140 153 0
139 150 0
143 155 0
132 143 0
138 150 0
133 144 0
134 144 0
144 157 0
143 154 0
143 154 0
146 158 0
139 149 0
138 149 0
144 155 0
137 149 0
147 158 0
142 152 0
145 156 0
139 145 0
147 156 0
140 152 0
138 147 0
144 154 0
146 155 0
134 139 0
138 146 0
137 143 0
141 149 0
144 153 0
143 149 0
143 152 0
145 153 0
147 159 0
141 154 0
145 153 0
139 148 0
139 148 0
145 155 0
151 159 0
142 149 0
143 150 0
144 152 0
150 161 0
136 142 0
144 152 0
141 147 0
148 157 0
139 146 0
143 150 0
143 147 0
149 159 0
145 150 0
148 152 0
146 151 0
148 156 0
145 148 0
149 154 0
147 150 0
143 152 0
145 151 0
142 144 0
147 150 0
140 143 0
141 144 0
146 152 0
148 154 0
138 141 0
143 150 0
147 152 0
146 148 0
144 151 0
142 145 0
147 153 0
141 144 0
146 152 0
138 142 0
149 157 0
139 140 0
136 135 0
144 142 0
148 150 0
139 136 0
141 142 0
142 142 0
143 144 0
141 143 0
142 136 0
139 133 0
142 145 0
131 123 0
139 138 0
131 127 0
141 141 0
134 128 0
138 138 0
131 125 0
137 133 0
137 130 0
140 140 0
134 131 0
136 131 0
131 127 0
135 128 0
131 122 0
136 133 0
138 132 0
136 126 0
132 122 0
132 119 0
126 119 0
138 132 0
132 127 0
135 128 0
126 116 0
133 122 0
131 124 0
134 124 0
134 123 0
122 105 0
138 133 0
129 118 0
133 125 0
133 127 0
127 113 0
126 115 0
133 122 0
129 114 0
127 117 0
131 120 0
124 110 0
132 119 0
127 113 0
130 120 0
125 118 0
130 117 0
130 119 0
131 119 0
134 121 0
139 132 0
130 118 0
134 126 0
124 104 0
134 121 0
135 124 0
129 119 0
132 122 0
136 124 0
132 120 0
136 129 0
138 134 0
138 131 0
135 122 0
134 128 0
135 128 0
138 130 0
135 125 0
134 120 0
134 125 0
129 117 0
136 126 0
139 131 0
132 124 0
145 141 0
138 132 0
146 142 0
146 142 0
141 130 0
140 130 0
137 122 0
141 138 0
146 140 0
132 120 0
137 130 0
147 143 0
143 139 0
148 147 0
146 143 0
153 153 0
145 137 0
142 136 0
144 134 0
150 148 0
138 129 0
142 139 0
141 137 0
144 137 0
143 142 0
142 137 0
143 140 0
154 157 0
152 153 0
145 141 0
147 147 0
148 147 0
143 141 0
147 149 0
153 155 0
150 151 0
144 143 0
146 146 0
153 158 0
149 148 0
143 143 0
144 143 0
141 136 0
148 149 0
142 140 0
147 147 0
149 152 0
151 153 0
147 144 0
149 151 0
148 149 0
151 154 0
149 150 0
144 143 0
146 144 0
151 153 0
152 151 0
146 144 0
144 142 0
143 143 0
148 151 0
151 154 0
146 145 0
147 148 0
146 145 0
150 152 0
144 140 0
147 148 0
146 146 0
144 142 0
148 145 0
152 156 0
145 142 0
147 144 0
150 149 0
144 139 0
147 148 0
147 148 0
137 132 0
143 139 0
139 133 0
143 136 0
148 149 0
146 143 0
143 138 0
142 136 0
146 146 0
148 149 0
147 148 0
147 145 0
145 145 0
147 145 0
144 139 0
146 143 0
139 137 0
145 143 0
141 138 0
141 138 0
137 131 0
139 136 0
141 138 0
151 153 0
137 132 0
143 139 0
142 139 0
138 133 0
147 149 0
144 144 0
143 143 0
148 149 0
145 142 0
141 140 0
147 148 0
148 146 0
141 140 0
150 151 0
152 155 0
152 151 0
148 150 0
144 142 0
148 144 0
149 152 0
140 138 0
147 147 0
150 153 0
149 151 0
149 150 0
148 148 0
151 153 0
153 157 0
153 157 0
148 148 0
153 156 0
157 163 0
154 157 0
158 161 0
156 163 0
159 165 0
153 154 0
157 163 0
161 168 0
157 164 0
160 166 0
157 161 0
160 167 0
159 167 0
156 162 0
160 168 0
164 175 0
162 172 0
158 167 0
159 169 0
164 174 0
163 172 0
163 172 0
162 170 0
158 166 0
166 179 0
162 173 0
165 175 0
168 188 0
160 179 0
161 180 0
166 184 0
157 175 0
157 176 0
157 177 0
161 181 0
154 172 0
161 180 0
152 169 0
156 174 0
152 169 0
159 177 0
149 167 0
154 172 0
154 170 0
149 166 0
148 165 0
155 173 0
146 163 0
143 160 0
146 162 0
149 166 0
154 170 0
145 162 0
150 166 0
140 155 0
144 159 0
148 165 0
152 168 0
147 163 0
141 157 0
142 157 0
148 164 0
144 159 0
149 165 0
147 162 0
144 158 0
138 151 0
140 155 0
137 150 0
142 157 0
136 149 0
141 156 0
144 158 0
145 160 0
144 156 0
144 158 0
147 162 0
137 149 0
137 151 0
139 153 0
145 159 0
145 158 0
136 149 0
131 143 0
140 152 0
139 153 0
139 150 0
142 153 0
137 150 0
146 158 0
139 150 0
133 144 0
140 152 0
144 156 0
143 153 0
145 157 0
141 151 0
147 160 0
139 148 0
143 151 0
135 145 0
137 148 0
141 151 0
145 157 0
140 147 0
152 163 0
147 158 0
139 149 0
143 154 0
141 148 0
142 151 0
149 159 0
145 157 0
141 149 0
151 160 0
145 156 0
147 158 0
143 153 0
135 142 0
144 155 0
144 151 0
147 158 0
146 155 0
140 149 0
145 153 0
144 153 0
150 162 0
144 153 0
144 151 0
143 154 0
145 155 0
143 149 0
146 153 0
146 155 0
145 149 0
143 152 0
138 148 0
138 145 0
148 154 0
152 161 0
149 155 0
148 154 0
143 146 0
144 153 0
143 149 0
145 151 0
148 156 0
143 150 0
143 146 0
151 157 0
148 153 0
149 156 0
140 140 0
139 142 0
146 150 0
141 142 0
140 142 0
149 153 0
140 142 0
137 135 0
145 149 0
138 139 0
145 152 0
141 143 0
147 152 0
144 148 0
146 145 0
144 143 0
141 143 0
140 135 0
144 147 0
141 142 0
142 145 0
141 139 0
138 129 0
143 143 0
143 141 0
137 133 0
143 141 0
139 139 0
136 127 0
139 137 0
144 142 0
135 130 0
140 138 0
142 136 0
141 134 0
141 137 0
143 135 0
142 135 0
139 135 0
145 145 0
138 133 0
133 123 0
139 138 0
133 124 0
138 129 0
137 133 0
139 134 0
131 116 0
131 120 0
135 126 0
130 122 0
139 133 0
142 133 0
134 122 0
131 117 0
137 129 0
142 136 0
133 120 0
127 112 0
134 128 0
135 121 0
126 111 0
138 128 0
133 123 0
131 119 0
133 124 0
134 122 0
137 125 0
138 124 0
134 123 0
125 110 0
133 123 0
136 123 0
131 123 0
133 123 0
133 125 0
133 125 0
137 131 0
133 125 0
130 116 0
134 125 0
136 123 0
136 132 0
141 135 0
136 122 0
141 134 0
140 135 0
136 125 0
139 133 0
137 128 0
141 137 0
142 137 0
143 140 0
133 122 0
141 133 0
139 129 0
141 134 0
140 130 0
147 144 0
139 134 0
139 128 0
145 141 0
148 142 0
146 143 0
138 133 0
134 124 0
146 144 0
146 141 0
150 148 0
145 139 0
142 140 0
143 138 0
145 145 0
143 139 0
150 150 0
146 146 0
148 147 0
146 139 0
140 134 0
149 153 0
150 152 0
147 148 0
145 145 0
144 144 0
147 147 0
151 154 0
150 152 0
151 151 0
151 150 0
149 148 0
144 141 0
141 139 0
146 144 0
146 146 0
143 143 0
149 154 0
146 144 0
145 143 0
153 159 0
146 146 0
143 142 0
148 150 0
143 142 0
150 153 0
143 141 0
150 154 0
145 140 0
143 139 0
146 146 0
149 148 0
146 147 0
147 150 0
148 150 0
149 150 0
152 154 0
147 148 0
145 143 0
152 153 0
152 155 0
145 142 0
142 139 0
147 148 0
149 149 0
147 146 0
145 147 0
147 148 0
144 147 0
142 143 0
149 151 0
144 146 0
144 142 0
149 150 0
142 137 0
146 146 0
151 152 0
149 146 0
144 144 0
137 133 0
140 136 0
148 147 0
154 156 0
154 159 0
150 152 0
149 148 0
144 146 0
150 154 0
146 144 0
142 142 0
152 151 0
147 144 0
148 148 0
149 150 0
149 152 0
147 143 0
148 147 0
141 135 0
145 144 0
145 145 0
151 152 0
150 153 0
144 143 0
141 136 0
144 142 0
146 143 0
142 141 0
142 140 0
146 142 0
144 141 0
142 142 0
138 133 0
153 157 0
148 147 0
148 147 0
148 145 0
146 147 0
148 150 0
151 152 0
148 146 0
144 142 0
146 145 0
150 153 0
147 146 0
147 146 0
147 147 0
150 152 0
153 156 0
157 161 0
151 153 0
156 159 0
148 147 0
155 158 0
148 147 0
152 156 0
155 161 0
152 154 0
158 162 0
159 164 0
156 162 0
158 165 0
153 155 0
159 165 0
156 159 0
161 169 0
157 162 0
155 161 0
156 163 0
161 168 0
161 167 0
154 161 0
160 169 0
161 169 0
163 172 0
166 177 0
166 175 0
163 172 0
161 168 0
164 174 0
161 169 0
164 175 0
160 179 0
160 179 0
160 179 0
159 177 0
157 176 0
158 175 0
158 177 0
159 178 0
158 177 0
153 171 0
158 176 0
153 170 0
151 167 0
152 169 0
152 168 0
152 169 0
152 168 0
153 170 0
153 171 0
155 172 0
146 162 0
147 164 0
151 167 0
147 163 0
151 167 0
154 170 0
149 166 0
150 166 0
144 160 0
151 166 0
146 161 0
145 161 0
144 159 0
147 163 0
151 166 0
142 156 0
139 154 0
145 160 0
138 152 0
149 162 0
138 152 0
141 155 0
142 156 0
150 165 0
140 153 0
138 149 0
144 157 0
145 159 0
146 160 0
149 163 0
132 144 0
144 157 0
145 159 0
131 142 0
141 154 0
144 157 0
143 156 0
141 151 0
141 153 0
141 154 0
142 154 0
148 161 0
142 153 0
137 148 0
144 155 0
148 159 0
141 153 0
149 162 0
140 151 0
145 154 0
145 156 0
148 159 0
146 159 0
134 142 0
134 144 0
144 154 0
142 151 0
138 147 0
148 158 0
148 158 0
145 157 0
149 158 0
144 153 0
138 148 0
147 156 0
147 157 0
150 162 0
144 152 0
141 148 0
151 162 0
146 156 0
139 147 0
143 149 0
146 155 0
148 158 0
144 150 0
149 161 0
142 150 0
141 148 0
146 155 0
145 153 0
139 147 0
149 154 0
150 157 0
151 162 0
151 159 0
146 155 0
143 154 0
144 151 0
148 159 0
144 152 0
151 159 0
140 146 0
149 155 0
145 152 0
140 148 0
144 150 0
151 160 0
148 155 0
142 147 0
147 155 0
149 159 0
148 155 0
150 157 0
139 142 0
147 151 0
149 151 0
151 154 0
143 149 0
142 146 0
150 151 0
142 148 0
145 148 0
144 148 0
147 149 0
143 149 0
144 146 0
148 154 0
144 146 0
139 139 0
137 135 0
140 140 0
142 149 0
143 145 0
144 144 0
136 135 0
147 154 0
143 141 0
141 142 0
145 145 0
140 137 0
134 130 0
146 144 0
140 138 0
141 134 0
140 136 0
139 135 0
144 144 0
135 135 0
138 135 0
143 141 0
137 133 0
137 133 0
129 118 0
137 130 0
138 130 0
135 131 0
132 121 0
141 137 0
134 125 0
127 111 0
136 132 0
142 137 0
126 115 0
129 120 0
138 129 0
130 124 0
131 120 0
144 133 0
143 140 0
136 130 0
135 131 0
143 137 0
139 136 0
139 136 0
131 121 0
138 125 0
138 134 0
131 121 0
136 132 0
131 117 0
126 111 0
136 129 0
128 117 0
139 128 0
141 136 0
138 135 0
141 130 0
137 129 0
127 112 0
136 129 0
130 118 0
137 127 0
139 134 0
139 133 0
132 120 0
141 134 0
134 122 0
136 123 0
139 131 0
138 126 0
140 131 0
138 133 0
135 126 0
139 131 0
137 124 0
135 123 0
141 132 0
133 122 0
135 124 0
142 136 0
135 126 0
140 132 0
138 134 0
145 143 0
144 140 0
148 143 0
147 143 0
148 145 0
136 126 0
142 137 0
142 132 0
143 139 0
146 146 0
145 142 0
139 137 0
147 146 0
142 138 0
141 134 0
143 141 0
141 139 0
146 139 0
147 149 0
146 146 0
140 135 0
146 146 0
152 155 0
149 153 0
146 147 0
150 151 0
146 149 0
148 149 0
146 143 0
148 154 0
149 153 0
148 147 0
151 158 0
144 139 0
145 139 0
146 148 0
146 139 0
148 150 0
152 154 0
144 141 0
152 155 0
150 151 0
153 158 0
144 143 0
147 150 0
145 143 0
152 155 0
151 153 0
148 149 0
149 149 0
155 160 0
147 149 0
146 148 0
150 150 0
150 151 0
150 150 0
148 151 0
147 148 0
150 151 0
149 149 0
147 147 0
145 145 0
146 143 0
150 150 0
157 160 0
151 151 0
152 154 0
152 153 0
147 147 0
152 153 0
149 149 0
144 146 0
147 147 0
149 151 0
148 143 0
146 142 0
143 141 0
151 156 0
144 143 0
145 145 0
148 146 0
150 152 0
152 153 0
149 151 0
147 145 0
149 149 0
150 149 0
146 148 0
147 148 0
151 152 0
153 156 0
150 150 0
150 152 0
146 144 0
150 149 0
149 150 0
147 148 0
145 141 0
144 142 0
147 145 0
150 149 0
146 140 0
146 143 0
148 149 0
148 147 0
149 149 0
148 147 0
143 141 0
150 149 0
146 147 0
150 154 0
142 141 0
143 142 0
148 150 0
148 148 0
156 158 0
153 156 0
150 150 0
151 151 0
151 153 0
144 141 0
147 145 0
149 151 0
156 159 0
155 156 0
148 149 0
152 151 0
154 154 0
156 159 0
153 153 0
156 161 0
153 155 0
154 155 0
153 157 0
157 163 0
155 158 0
155 160 0
153 155 0
155 158 0
158 163 0
160 167 0
159 163 0
155 158 0
150 150 0
158 163 0
156 162 0
162 169 0
159 166 0
158 163 0
155 161 0
163 167 0
156 162 0
161 170 0
162 169 0
161 167 0
165 175 0
160 169 0
162 172 0
163 173 0
165 177 0
155 174 0
156 175 0
158 177 0
156 175 0
156 174 0
154 171 0
156 174 0
154 173 0
157 174 0
156 173 0
154 171 0
152 169 0
154 173 0
149 166 0
153 170 0
150 167 0
159 176 0
155 172 0
149 165 0
153 170 0
146 162 0
151 169 0
154 172 0
154 171 0
144 159 0
154 170 0
144 159 0
147 163 0
143 159 0
142 158 0
142 157 0
150 166 0
150 168 0
140 155 0
137 152 0
152 168 0
148 163 0
144 157 0
142 155 0
144 159 0
150 165 0
145 161 0
139 152 0
144 157 0
145 160 0
139 152 0
147 162 0
140 153 0
143 156 0
152 167 0
136 150 0
145 160 0
146 157 0
142 155 0
142 156 0
137 148 0
143 158 0
138 151 0
139 150 0
139 150 0
143 156 0
143 155 0
146 154 0
145 156 0
139 153 0
140 150 0
144 153 0
144 156 0
138 147 0
149 164 0
136 145 0
147 156 0
145 158 0
139 148 0
145 156 0
136 147 0
147 157 0
143 152 0
138 146 0
146 159 0
149 160 0
142 151 0
148 160 0
141 148 0
147 158 0
142 153 0
142 156 0
145 153 0
145 155 0
142 150 0
147 156 0
142 153 0
151 162 0
139 147 0
140 148 0
151 164 0
142 151 0
145 155 0
153 166 0
145 156 0
148 158 0
146 154 0
137 142 0
146 153 0
144 149 0
149 156 0
143 149 0
136 140 0
150 156 0
149 156 0
146 157 0
153 160 0
145 153 0
140 142 0
145 153 0
154 161 0
146 158 0
140 137 0
147 150 0
143 149 0
142 146 0
148 155 0
144 152 0
154 161 0
146 152 0
149 154 0
149 156 0
150 160 0
149 158 0
147 148 0
150 154 0
151 154 0
144 147 0
148 156 0
141 145 0
146 147 0
147 149 0
135 134 0
143 146 0
150 151 0
144 146 0
144 146 0
150 157 0
146 146 0
140 138 0
145 146 0
146 149 0
142 144 0
142 142 0
143 142 0
134 131 0
139 139 0
145 147 0
142 141 0
137 136 0
144 141 0
137 136 0
145 147 0
145 140 0
139 128 0
137 133 0
142 137 0
142 139 0
133 127 0
138 132 0
137 131 0
144 144 0
139 133 0
142 140 0
139 133 0
138 135 0
136 127 0
140 135 0
136 128 0
139 130 0
137 128 0
139 126 0
142 138 0
140 137 0
129 121 0
137 125 0
137 133 0
126 117 0
137 131 0
136 130 0
139 133 0
139 130 0
133 118 0
135 124 0
133 117 0
133 123 0
133 120 0
131 119 0
129 119 0
137 127 0
135 125 0
131 121 0
137 125 0
134 116 0
141 134 0
138 129 0
137 128 0
131 120 0
134 121 0
138 132 0
136 128 0
135 124 0
138 129 0
135 124 0
131 120 0
137 128 0
129 116 0
144 135 0
140 128 0
137 131 0
145 141 0
148 146 0
142 137 0
142 134 0
142 134 0
145 140 0
144 143 0
140 130 0
138 134 0
142 140 0
145 141 0
137 127 0
140 132 0
147 145 0
150 149 0
142 137 0
145 140 0
145 138 0
142 135 0
143 139 0
146 147 0
136 128 0
144 138 0
149 147 0
145 143 0
148 148 0
140 135 0
144 141 0
151 152 0
146 140 0
142 139 0
148 151 0
147 148 0
144 141 0
149 147 0
152 156 0
150 150 0
144 144 0
149 149 0
150 148 0
153 155 0
152 153 0
151 155 0
145 143 0
149 148 0
140 136 0
147 144 0
155 160 0
150 152 0
154 158 0
155 158 0
152 154 0
151 153 0
152 153 0
140 133 0
147 148 0
151 155 0
151 151 0
150 150 0
149 153 0
151 152 0
145 147 0
146 146 0
150 153 0
150 152 0
146 148 0
152 155 0
150 151 0
151 153 0
150 155 0
148 153 0
154 157 0
145 143 0
143 143 0
151 152 0
151 154 0
143 141 0
151 156 0
148 148 0
148 151 0
151 152 0
149 148 0
146 149 0
154 156 0
148 152 0
143 141 0
151 152 0
151 154 0
150 154 0
148 149 0
144 144 0
146 146 0
147 146 0
145 146 0
150 151 0
143 142 0
149 151 0
143 141 0
154 154 0
146 148 0
156 159 0
151 153 0
147 148 0
147 145 0
148 149 0
145 144 0
143 144 0
145 144 0
151 155 0
151 153 0
144 144 0
147 146 0
146 143 0
150 152 0
149 148 0
146 142 0
144 144 0
151 154 0
146 148 0
148 149 0
148 149 0
152 153 0
149 148 0
151 153 0
145 142 0
147 146 0
153 158 0
142 139 0
146 145 0
153 154 0
148 148 0
154 158 0
149 152 0
153 156 0
153 156 0
147 146 0
157 162 0
152 157 0
151 151 0
149 153 0
149 150 0
151 153 0
156 161 0
159 165 0
154 158 0
154 159 0
156 159 0
155 159 0
155 162 0
156 159 0
154 158 0
163 169 0
164 171 0
152 157 0
159 163 0
157 161 0
163 173 0
163 173 0
160 169 0
161 168 0
160 167 0
156 164 0
163 173 0
159 165 0
164 175 0
161 168 0
161 173 0
161 172 0
160 167 0
159 176 0
159 177 0
163 182 0
159 178 0
156 174 0
160 179 0
154 171 0
157 174 0
155 173 0
156 173 0
154 172 0
155 172 0
153 170 0
151 168 0
150 167 0
153 170 0
155 171 0
152 168 0
151 167 0
147 164 0
154 172 0
145 161 0
151 167 0
154 171 0
153 169 0
150 166 0
149 166 0
149 165 0
144 158 0
146 162 0
147 162 0
145 159 0
148 163 0
138 152 0
147 161 0
140 154 0
144 160 0
144 157 0
144 157 0
154 168 0
142 156 0
145 160 0
144 158 0
145 159 0
144 158 0
142 155 0
151 167 0
136 148 0
142 157 0
142 154 0
146 160 0
140 154 0
138 148 0
141 152 0
148 161 0
152 168 0
143 156 0
142 152 0
147 159 0
144 158 0
145 157 0
145 157 0
148 161 0
140 153 0
148 160 0
143 154 0
142 155 0
144 155 0
143 155 0
144 155 0
145 154 0
147 157 0
142 151 0
144 157 0
150 161 0
149 163 0
147 160 0
147 157 0
144 157 0
142 151 0
145 159 0
144 154 0
153 166 0
145 157 0
148 159 0
137 144 0
144 154 0
143 154 0
151 163 0
144 153 0
148 163 0
153 162 0
147 157 0
143 153 0
152 162 0
146 154 0
145 151 0
142 150 0
150 161 0
144 152 0
151 161 0
136 141 0
149 160 0
148 154 0
148 159 0
149 158 0
147 155 0
154 163 0
148 156 0
136 139 0
148 156 0
146 157 0
143 149 0
141 149 0
148 157 0
147 150 0
145 151 0
150 158 0
149 155 0
146 151 0
147 153 0
151 156 0
146 154 0
139 142 0
147 150 0
140 143 0
144 150 0
140 142 0
143 147 0
143 144 0
147 148 0
143 151 0
148 153 0
148 152 0
145 146 0
151 159 0
149 155 0
143 144 0
143 147 0
141 142 0
135 133 0
145 148 0
145 149 0
145 148 0
153 156 0
149 152 0
149 149 0
143 144 0
140 139 0
140 137 0
144 142 0
136 128 0
139 140 0
137 130 0
145 139 0
145 147 0
143 141 0
145 145 0
138 133 0
139 136 0
140 138 0
146 147 0
145 140 0
139 130 0
134 124 0
134 126 0
146 148 0
136 130 0
138 129 0
131 124 0
144 141 0
136 129 0
140 135 0
138 132 0
141 138 0
143 140 0
136 128 0
136 129 0
136 128 0
145 142 0
135 124 0
136 126 0
142 137 0
140 137 0
141 137 0
130 121 0
136 131 0
129 115 0
134 125 0
136 129 0
130 123 0
128 117 0
131 121 0
142 139 0
140 130 0
138 132 0
145 139 0
136 128 0
133 127 0
133 124 0
138 121 0
132 123 0
133 123 0
133 121 0
133 120 0
139 135 0
136 126 0
135 131 0
133 124 0
139 132 0
133 124 0
143 137 0
140 137 0
141 131 0
141 134 0
146 143 0
142 134 0
140 131 0
145 138 0
139 129 0
141 136 0
139 127 0
136 128 0
146 142 0
145 144 0
139 134 0
139 132 0
145 138 0
146 144 0
143 137 0
144 140 0
137 129 0
144 144 0
144 138 0
144 137 0
144 143 0
147 146 0
149 148 0
143 143 0
147 147 0
145 143 0
150 147 0
157 163 0
146 145 0
147 147 0
151 153 0
145 140 0
146 146 0
151 151 0
152 154 0
153 157 0
152 158 0
147 147 0
150 151 0
146 146 0
141 133 0
147 147 0
148 152 0
144 142 0
150 152 0
151 153 0
146 146 0
145 145 0
149 147 0
150 150 0
149 152 0
151 155 0
147 146 0
145 144 0
149 154 0
149 152 0
148 151 0
149 152 0
147 148 0
147 151 0
142 143 0
149 147 0
153 157 0
148 150 0
156 162 0
150 153 0
151 152 0
149 149 0
152 156 0
151 153 0
154 160 0
151 153 0
151 151 0
145 146 0
150 153 0
150 151 0
147 146 0
149 151 0
144 147 0
148 148 0
143 141 0
147 148 0
151 155 0
149 147 0
148 149 0
157 166 0
150 152 0
157 161 0
150 152 0
152 154 0
150 151 0
153 156 0
144 146 0
149 147 0
151 152 0
145 144 0
141 140 0
149 150 0
154 156 0
150 150 0
149 149 0
151 153 0
155 158 0
140 136 0
150 150 0
147 148 0
153 157 0
150 148 0
146 147 0
152 154 0
144 145 0
146 147 0
149 148 0
152 154 0
148 148 0
146 148 0
146 142 0
150 152 0
148 149 0
152 154 0
147 147 0
150 152 0
148 149 0
151 151 0
152 153 0
150 151 0
143 140 0
152 155 0
147 146 0
151 153 0
151 153 0
153 156 0
150 153 0
155 158 0
149 150 0
156 158 0
154 155 0
151 150 0
154 160 0
157 163 0
160 163 0
152 154 0
158 161 0
157 160 0
149 148 0
152 155 0
148 152 0
151 154 0
157 164 0
156 162 0
157 161 0
158 166 0
159 165 0
158 163 0
152 158 0
157 163 0
162 172 0
158 165 0
158 164 0
160 166 0
159 166 0
158 166 0
157 165 0
163 170 0
164 172 0
159 169 0
162 171 0
162 171 0
167 180 0
159 178 0
151 168 0
158 177 0
157 175 0
156 173 0
158 176 0
165 184 0
158 176 0
155 172 0
153 170 0
151 169 0
155 171 0
157 175 0
148 166 0
153 169 0
155 172 0
150 167 0
151 168 0
147 164 0
153 169 0
151 167 0
150 166 0
149 165 0
153 169 0
147 164 0
154 171 0
149 164 0
158 174 0
148 165 0
151 168 0
148 162 0
152 169 0
149 163 0
144 159 0
150 167 0
150 165 0
154 170 0
140 154 0
149 165 0
145 160 0
144 159 0
143 157 0
148 162 0
146 159 0
136 150 0
149 164 0
150 167 0
152 167 0
150 165 0
144 157 0
151 165 0
145 159 0
147 161 0
152 166 0
146 157 0
138 149 0
149 161 0
143 155 0
151 165 0
142 154 0
142 154 0
144 157 0
142 154 0
138 149 0
144 155 0
141 152 0
146 159 0
150 162 0
145 158 0
146 157 0
140 151 0
143 150 0
138 145 0
150 163 0
144 156 0
148 159 0
146 157 0
143 150 0
147 158 0
149 161 0
146 157 0
148 158 0
150 163 0
151 161 0
149 162 0
150 162 0
144 155 0
148 158 0
148 157 0
150 161 0
143 152 0
146 155 0
148 160 0
148 157 0
150 160 0
147 156 0
145 153 0
151 163 0
144 153 0
145 150 0
145 154 0
148 159 0
146 152 0
149 158 0
151 160 0
148 156 0
140 147 0
148 157 0
138 143 0
139 146 0
145 150 0
149 154 0
147 156 0
145 153 0
154 161 0
147 156 0
147 157 0
147 153 0
141 147 0
141 147 0
148 157 0
149 156 0
150 158 0
148 153 0
147 151 0
151 157 0
148 156 0
150 158 0
145 153 0
149 154 0
147 156 0
146 152 0
144 152 0
148 156 0
148 152 0
139 138 0
149 155 0
144 147 0
141 142 0
144 145 0
145 146 0
141 142 0
148 150 0
145 147 0
139 136 0
147 144 0
150 152 0
146 149 0
138 134 0
144 143 0
148 148 0
148 149 0
145 143 0
134 123 0
142 143 0
141 141 0
144 142 0
147 148 0
144 143 0
143 139 0
141 134 0
144 143 0
146 149 0
140 138 0
140 139 0
146 147 0
143 138 0
137 132 0
137 134 0
140 135 0
138 129 0
137 123 0
137 128 0
138 130 0
138 130 0
145 144 0
138 130 0
143 142 0
146 141 0
138 130 0
140 136 0
140 136 0
137 130 0
137 132 0
132 122 0
141 133 0
138 130 0
139 130 0
134 128 0
139 130 0
133 128 0
137 128 0
136 125 0
143 132 0
136 126 0
139 131 0
139 128 0
137 129 0
140 131 0
135 126 0
139 133 0
138 129 0
141 134 0
146 147 0
142 133 0
134 121 0
141 139 0
143 137 0
141 134 0
138 131 0
138 132 0
138 129 0
140 137 0
145 143 0
142 136 0
143 132 0
139 132 0
136 126 0
142 134 0
146 141 0
143 134 0
147 144 0
140 130 0
145 142 0
142 133 0
149 144 0
141 136 0
141 135 0
144 142 0
139 135 0
144 140 0
143 135 0
140 132 0
144 142 0
142 135 0
148 146 0
145 142 0
152 153 0
144 142 0
152 152 0
148 146 0
150 146 0
146 141 0
153 155 0
142 137 0
146 147 0
152 150 0
150 147 0
149 151 0
148 149 0
142 141 0
146 142 0
151 153 0
149 149 0
144 144 0
148 147 0
146 143 0
146 146 0
143 142 0
147 147 0
147 148 0
152 153 0
150 152 0
148 147 0
154 158 0
152 155 0
151 156 0
148 148 0
151 156 0
148 147 0
146 150 0
147 144 0
149 150 0
154 160 0
153 155 0
144 147 0
147 145 0
148 150 0
145 145 0
149 151 0
149 151 0
149 153 0
149 151 0
148 150 0
151 155 0
152 157 0
148 148 0
148 149 0
150 151 0
144 144 0
153 154 0
148 152 0
150 152 0
153 155 0
146 151 0
152 155 0
154 154 0
148 152 0
148 144 0
157 164 0
147 149 0
150 153 0
154 159 0
151 154 0
144 143 0
147 145 0
148 152 0
146 143 0
152 153 0
148 149 0
151 156 0
146 147 0
149 149 0
145 144 0
150 151 0
154 152 0
146 147 0
148 149 0
148 151 0
152 155 0
148 149 0
149 145 0
154 153 0
144 146 0
143 142 0
151 152 0
156 159 0
142 139 0
153 155 0
140 140 0
156 162 0
147 148 0
146 146 0
151 155 0
155 161 0
147 149 0
151 153 0
152 152 0
151 151 0
152 153 0
150 153 0
151 154 0
150 153 0
150 151 0
146 147 0
153 153 0
152 156 0
148 150 0
154 156 0
148 150 0
150 151 0
155 159 0
148 148 0
157 160 0
154 157 0
152 153 0
158 165 0
157 161 0
149 152 0
156 161 0
158 161 0
156 161 0
154 161 0
154 158 0
153 157 0
156 162 0
155 156 0
158 163 0
153 154 0
158 164 0
156 161 0
160 166 0
162 170 0
159 168 0
158 165 0
159 166 0
162 167 0
161 170 0
159 169 0
164 175 0
157 163 0
162 171 0
161 170 0
164 175 0
162 182 0
156 175 0
154 172 0
152 170 0
152 170 0
159 176 0
157 175 0
149 166 0
153 170 0
151 167 0
153 172 0
154 173 0
152 171 0
154 170 0
158 175 0
149 165 0
156 173 0
152 169 0
155 173 0
150 167 0
148 164 0
153 170 0
158 177 0
154 171 0
153 170 0
147 162 0
143 159 0
137 152 0
149 165 0
158 174 0
147 162 0
145 160 0
150 167 0
146 161 0
148 162 0
142 157 0
144 159 0
145 160 0
145 158 0
146 160 0
153 167 0
147 163 0
146 160 0
152 166 0
146 159 0
154 170 0
150 165 0
141 154 0
154 169 0
138 151 0
147 158 0
144 158 0
152 166 0
147 162 0
145 159 0
140 152 0
139 150 0
150 166 0
142 154 0
149 162 0
148 161 0
144 155 0
138 147 0
151 163 0
153 165 0
146 161 0
143 156 0
144 155 0
147 158 0
144 152 0
137 147 0
146 157 0
144 156 0
151 164 0
146 159 0
148 158 0
145 154 0
150 162 0
138 147 0
152 164 0
148 155 0
149 159 0
155 168 0
146 155 0
140 148 0
148 158 0
147 155 0
148 158 0
142 152 0
146 154 0
149 159 0
142 153 0
149 159 0
151 161 0
148 155 0
146 155 0
149 160 0
153 161 0
146 154 0
145 151 0
144 157 0
140 146 0
151 161 0
150 160 0
146 156 0
144 154 0
155 165 0
141 147 0
147 156 0
149 154 0
142 145 0
149 158 0
147 156 0
146 153 0
147 152 0
146 151 0
145 150 0
146 153 0
147 156 0
147 153 0
147 155 0
148 158 0
148 151 0
150 158 0
148 156 0
154 162 0
149 157 0
152 163 0
152 159 0
144 147 0
148 153 0
142 143 0
147 151 0
146 149 0
139 140 0
147 151 0
151 154 0
145 146 0
143 144 0
136 138 0
142 142 0
145 144 0
143 145 0
149 151 0
148 154 0
145 147 0
147 151 0
142 143 0
144 144 0
148 150 0
148 149 0
153 158 0
143 142 0
141 142 0
150 152 0
143 148 0
133 127 0
141 136 0
143 138 0
144 139 0
151 151 0
148 147 0
133 126 0
134 125 0
148 147 0
151 148 0
144 142 0
146 144 0
134 127 0
135 126 0
146 144 0
148 145 0
140 135 0
146 145 0
147 147 0
133 123 0
144 139 0
144 144 0
141 138 0
142 138 0
134 123 0
140 139 0
146 141 0
141 139 0
133 120 0
148 144 0
144 142 0
145 140 0
143 136 0
135 124 0
133 122 0
141 138 0
141 133 0
133 119 0
137 129 0
138 128 0
141 135 0
140 135 0
141 134 0
139 130 0
139 131 0
141 135 0
144 139 0
140 133 0
142 135 0
149 144 0
134 124 0
145 142 0
141 132 0
138 129 0
141 136 0
141 128 0
140 131 0
146 140 0
146 138 0
142 137 0
140 133 0
142 136 0
147 145 0
142 138 0
142 138 0
143 131 0
145 142 0
149 145 0
147 148 0
144 142 0
142 134 0
141 133 0
148 146 0
148 144 0
150 151 0
142 138 0
141 136 0
153 153 0
140 135 0
147 141 0
148 149 0
147 143 0
142 135 0
149 150 0
138 133 0
153 154 0
146 142 0
146 143 0
147 147 0
145 144 0
146 147 0
154 157 0
146 145 0
152 155 0
152 156 0
150 155 0
151 147 0
144 144 0
151 152 0
153 159 0
146 146 0
152 151 0
150 151 0
154 160 0
146 146 0
146 141 0
144 142 0
150 154 0
157 165 0
145 146 0
150 153 0
144 145 0
145 148 0
155 158 0
153 156 0
150 150 0
151 155 0
153 160 0
158 163 0
154 159 0
149 154 0
152 157 0
151 155 0
149 147 0
144 143 0
150 155 0
151 152 0
150 150 0
149 150 0
148 149 0
154 158 0
148 150 0
150 149 0
146 147 0
148 151 0
148 151 0
149 152 0
150 151 0
151 155 0
148 150 0
149 149 0
148 149 0
150 153 0
153 157 0
155 158 0
148 150 0
147 147 0
153 155 0
149 153 0
149 149 0
151 154 0
150 154 0
151 156 0
149 150 0
144 145 0
140 141 0
149 150 0
152 155 0
146 146 0
156 160 0
142 141 0
146 148 0
153 155 0
148 148 0
150 153 0
144 142 0
144 143 0
154 159 0
151 152 0
150 150 0
151 154 0
151 152 0
151 152 0
153 155 0
149 149 0
147 150 0
150 150 0
147 145 0
157 162 0
154 155 0
151 152 0
157 162 0
149 150 0
146 147 0
152 154 0
152 155 0
149 149 0
151 149 0
149 149 0
157 162 0
153 158 0
152 156 0
149 149 0
151 153 0
155 161 0
150 152 0
149 147 0
157 160 0
150 155 0
156 160 0
153 155 0
155 158 0
152 155 0
159 164 0
153 157 0
155 161 0
159 163 0
156 159 0
153 158 0
154 158 0
153 159 0
156 160 0
161 166 0
156 164 0
161 170 0
154 161 0
161 166 0
153 157 0
160 165 0
160 165 0
160 169 0
157 162 0
159 167 0
160 168 0
163 171 0
161 170 0
157 165 0
164 173 0
157 176 0
161 179 0
160 179 0
162 180 0
151 168 0
159 177 0
158 175 0
155 172 0
156 175 0
165 184 0
152 169 0
157 175 0
152 169 0
149 165 0
152 169 0
151 168 0
153 170 0
152 170 0
148 164 0
149 166 0
151 167 0
150 166 0
154 170 0
149 166 0
153 169 0
146 160 0
144 159 0
147 161 0
152 168 0
147 162 0
156 172 0
150 165 0
148 163 0
148 164 0
149 163 0
149 163 0
149 163 0
152 166 0
150 165 0
146 160 0
153 170 0
145 159 0
147 162 0
147 162 0
146 159 0
150 162 0
149 163 0
140 152 0
154 167 0
151 166 0
149 164 0
149 164 0
146 158 0
148 163 0
145 158 0
147 159 0
143 157 0
147 161 0
149 163 0
153 166 0
147 159 0
150 164 0
145 157 0
146 158 0
148 161 0
153 164 0
148 161 0
148 160 0
150 163 0
148 160 0
149 163 0
148 161 0
148 157 0
147 159 0
150 163 0
145 155 0
149 160 0
147 157 0
141 150 0
147 159 0
152 163 0
150 159 0
150 165 0
151 163 0
146 158 0
145 154 0
145 157 0
147 160 0
145 153 0
147 155 0
147 155 0
147 157 0
153 165 0
152 163 0
149 158 0
147 155 0
147 153 0
148 154 0
147 157 0
150 161 0
146 153 0
150 159 0
147 156 0
147 155 0
152 163 0
148 155 0
149 157 0
147 155 0
152 161 0
150 162 0
143 147 0
151 157 0
148 157 0
146 155 0
152 164 0
151 160 0
154 165 0
147 155 0
144 153 0
146 156 0
147 154 0
151 159 0
149 152 0
146 150 0
143 144 0
151 157 0
152 156 0
150 159 0
141 147 0
144 148 0
150 157 0
151 159 0
154 163 0
148 154 0
146 152 0
146 152 0
146 152 0
143 144 0
151 155 0
145 147 0
153 158 0
145 150 0
147 149 0
149 152 0
150 155 0
146 151 0
148 150 0
149 152 0
142 141 0
148 154 0
149 151 0
145 142 0
145 146 0
146 149 0
144 141 0
140 137 0
143 139 0
145 148 0
144 141 0
146 144 0
140 136 0
150 152 0
141 136 0
141 135 0
148 147 0
146 145 0
142 141 0
143 144 0
136 132 0
148 147 0
135 127 0
148 144 0
145 143 0
144 142 0
141 135 0
137 128 0
147 144 0
141 137 0
144 137 0
148 148 0
141 136 0
141 137 0
141 132 0
141 132 0
146 141 0
145 134 0
140 135 0
148 147 0
146 145 0
144 143 0
140 135 0
141 134 0
137 127 0
140 136 0
137 126 0
138 127 0
139 133 0
143 135 0
141 135 0
143 140 0
137 129 0
146 142 0
145 141 0
136 127 0
136 127 0
146 139 0
143 138 0
142 138 0
142 134 0
138 130 0
146 139 0
139 133 0
147 144 0
143 134 0
141 139 0
149 145 0
144 143 0
142 136 0
145 137 0
146 143 0
145 143 0
142 137 0
145 139 0
148 146 0
141 137 0
144 133 0
144 141 0
144 144 0
148 144 0
142 140 0
149 147 0
144 141 0
145 147 0
148 151 0
146 145 0
152 152 0
148 145 0
148 149 0
146 148 0
142 142 0
144 141 0
151 157 0
142 145 0
146 142 0
144 142 0
149 149 0
152 155 0
148 148 0
150 150 0
146 144 0
147 142 0
154 155 0
144 144 0
146 145 0
152 155 0
147 146 0
153 155 0
149 154 0
157 163 0
148 154 0
153 158 0
150 154 0
150 153 0
149 149 0
155 159 0
150 153 0
149 150 0
149 148 0
152 156 0
158 163 0
148 150 0
152 152 0
150 152 0
152 155 0
149 150 0
150 152 0
154 159 0
150 154 0
148 149 0
149 151 0
155 158 0
154 161 0
154 156 0
154 157 0
152 155 0
154 158 0
152 156 0
151 154 0
147 148 0
151 152 0
151 152 0
150 152 0
149 150 0
153 160 0
149 151 0
154 157 0
153 160 0
148 151 0
154 160 0
151 154 0
149 147 0
149 153 0
146 146 0
154 159 0
147 151 0
149 152 0
146 146 0
154 158 0
154 158 0
153 156 0
152 154 0
147 149 0
154 161 0
155 157 0
147 146 0
149 150 0
152 155 0
147 143 0
155 160 0
151 154 0
150 148 0
156 159 0
150 153 0
146 142 0
144 143 0
152 155 0
147 148 0
152 156 0
152 153 0
155 159 0
150 153 0
155 157 0
148 145 0
152 154 0
147 146 0
157 163 0
154 158 0
152 156 0
150 152 0
154 159 0
150 153 0
148 149 0
152 153 0
148 152 0
153 158 0
151 151 0
151 153 0
155 159 0
160 167 0
155 160 0
155 159 0
151 155 0
161 166 0
153 153 0
157 161 0
155 159 0
160 166 0
153 154 0
158 164 0
153 156 0
158 163 0
157 163 0
160 165 0
158 165 0
158 164 0
153 157 0
161 168 0
156 161 0
156 162 0
160 167 0
158 166 0
161 170 0
154 161 0
154 161 0
162 169 0
156 162 0
159 166 0
162 168 0
158 165 0
162 168 0
162 171 0
160 169 0
160 165 0
162 171 0
154 171 0
155 173 0
154 173 0
157 174 0
155 173 0
151 168 0
160 177 0
147 165 0
153 169 0
155 171 0
156 174 0
156 173 0
152 169 0
154 172 0
151 168 0
154 171 0
148 164 0
160 177 0
152 170 0
149 165 0
151 166 0
155 171 0
159 177 0
157 173 0
150 166 0
152 168 0
154 169 0
146 159 0
151 166 0
148 164 0
151 167 0
151 165 0
155 172 0
146 162 0
149 164 0
151 166 0
153 168 0
145 159 0
154 168 0
145 162 0
152 167 0
143 156 0
149 164 0
140 150 0
145 159 0
145 159 0
146 159 0
148 161 0
149 163 0
148 161 0
150 165 0
149 162 0
147 158 0
149 162 0
147 160 0
150 163 0
146 161 0
149 164 0
149 162 0
146 157 0
145 156 0
153 168 0
150 163 0
148 158 0
144 155 0
149 159 0
147 159 0
150 164 0
146 158 0
142 150 0
145 156 0
148 159 0
147 160 0
143 156 0
150 164 0
149 164 0
157 171 0
148 161 0
144 152 0
144 153 0
143 151 0
140 150 0
148 158 0
139 150 0
153 165 0
153 163 0
158 172 0
137 147 0
148 157 0
146 156 0
152 162 0
147 157 0
150 161 0
148 158 0
146 152 0
149 158 0
155 166 0
148 158 0
149 161 0
149 158 0
151 159 0
148 159 0
145 154 0
148 158 0
149 157 0
148 155 0
151 159 0
151 159 0
148 157 0
146 153 0
154 164 0
154 165 0
152 163 0
146 153 0
146 152 0
148 157 0
149 156 0
152 160 0
152 162 0
150 158 0
147 156 0
151 159 0
145 149 0
150 157 0
145 148 0
150 156 0
148 154 0
148 156 0
150 153 0
151 160 0
151 157 0
147 150 0
142 142 0
150 156 0
146 149 0
144 146 0
149 153 0
145 145 0
151 153 0
151 152 0
145 146 0
145 146 0
144 144 0
149 155 0
147 151 0
146 147 0
145 149 0
152 157 0
145 149 0
139 137 0
145 144 0
143 140 0
151 156 0
145 145 0
141 139 0
139 137 0
146 146 0
147 149 0
141 143 0
148 149 0
142 133 0
146 139 0
136 129 0
138 134 0
147 147 0
145 143 0
147 145 0
139 138 0
138 136 0
145 144 0
143 137 0
144 140 0
140 137 0
146 143 0
144 142 0
141 132 0
146 146 0
143 138 0
139 133 0
140 134 0
141 132 0
138 133 0
139 132 0
144 137 0
146 147 0
138 129 0
144 140 0
140 142 0
139 137 0
135 125 0
142 139 0
135 129 0
139 134 0
141 136 0
147 150 0
146 148 0
140 131 0
139 128 0
143 140 0
135 127 0
138 133 0
141 139 0
140 131 0
145 139 0
146 142 0
147 144 0
145 140 0
135 126 0
142 139 0
143 138 0
146 147 0
147 142 0
140 136 0
142 136 0
146 141 0
143 136 0
145 142 0
148 145 0
145 139 0
148 148 0
144 136 0
148 151 0
145 142 0
141 137 0
143 137 0
147 145 0
149 145 0
152 150 0
144 139 0
139 131 0
150 151 0
148 149 0
145 144 0
146 142 0
146 147 0
151 152 0
143 139 0
148 147 0
150 148 0
139 129 0
151 155 0
152 154 0
146 146 0
143 139 0
147 145 0
148 150 0
153 155 0
145 142 0
150 151 0
151 151 0
148 148 0
145 142 0
146 146 0
156 160 0
151 154 0
146 142 0
149 151 0
151 158 0
151 151 0
151 151 0
155 158 0
143 142 0
151 154 0
151 156 0
155 158 0
150 152 0
153 158 0
148 151 0
149 152 0
150 157 0
145 142 0
148 150 0
149 152 0
147 149 0
157 163 0
149 152 0
156 161 0
144 141 0
155 158 0
151 156 0
151 152 0
156 164 0
153 155 0
153 156 0
150 149 0
150 151 0
152 153 0
153 155 0
155 161 0
153 154 0
151 155 0
153 155 0
149 152 0
147 147 0
149 148 0
154 157 0
152 159 0
150 154 0
149 153 0
153 159 0
150 153 0
147 148 0
149 155 0
151 154 0
154 158 0
156 163 0
150 156 0
152 154 0
156 161 0
149 153 0
155 159 0
157 164 0
155 162 0
146 148 0
149 150 0
145 145 0
151 155 0
153 153 0
150 150 0
153 159 0
147 149 0
148 146 0
150 153 0
147 146 0
152 154 0
148 148 0
152 155 0
149 148 0
145 143 0
151 156 0
151 152 0
154 162 0
153 156 0
153 158 0
149 150 0
152 153 0
149 149 0
151 152 0
154 157 0
154 160 0
154 160 0
155 159 0
156 161 0
151 153 0
158 163 0
153 156 0
152 152 0
150 154 0
157 164 0
157 162 0
145 147 0
147 150 0
151 153 0
158 163 0
151 153 0
156 162 0
154 157 0
156 159 0
154 161 0
160 167 0
155 161 0
159 165 0
155 161 0
156 162 0
158 164 0
158 164 0
157 163 0
160 168 0
156 162 0
160 168 0
157 165 0
161 166 0
160 167 0
160 165 0
163 172 0
158 164 0
162 170 0
160 167 0
160 168 0
160 167 0
167 179 0
161 171 0
161 169 0
160 166 0
156 173 0
157 176 0
158 176 0
153 171 0
160 179 0
160 177 0
156 174 0
154 171 0
153 171 0
153 170 0
156 174 0
153 170 0
151 167 0
152 167 0
152 168 0
150 166 0
157 174 0
152 169 0
155 173 0
150 166 0
142 157 0
151 166 0
152 167 0
152 168 0
150 164 0
144 159 0
148 163 0
152 168 0
153 169 0
154 168 0
145 159 0
145 160 0
145 160 0
149 165 0
150 164 0
145 159 0
155 171 0
151 164 0
145 159 0
150 164 0
150 165 0
151 166 0
150 163 0
152 167 0
150 165 0
154 169 0
154 169 0
144 159 0
148 162 0
148 159 0
151 166 0
144 156 0
143 157 0
145 157 0
156 168 0
152 168 0
140 152 0
148 162 0
153 167 0
150 163 0
151 165 0
148 160 0
141 153 0
144 156 0
149 162 0
149 160 0
158 172 0
155 167 0
153 169 0
144 152 0
151 166 0
145 152 0
149 161 0
147 158 0
142 151 0
153 164 0
144 152 0
150 160 0
144 154 0
147 156 0
146 154 0
151 163 0
154 164 0
147 158 0
143 155 0
149 159 0
155 168 0
145 154 0
147 157 0
151 161 0
138 148 0
149 160 0
147 157 0
140 150 0
150 161 0
146 156 0
146 154 0
145 152 0
144 149 0
147 157 0
146 157 0
147 158 0
153 163 0
149 158 0
147 157 0
152 163 0
146 152 0
152 162 0
152 162 0
145 152 0
153 161 0
156 166 0
152 161 0
146 157 0
149 153 0
152 162 0
151 158 0
149 153 0
153 164 0
153 160 0
144 148 0
149 156 0
144 151 0
148 152 0
141 144 0
150 157 0
146 149 0
148 155 0
142 148 0
145 147 0
147 152 0
151 156 0
148 154 0
147 150 0
145 147 0
143 146 0
145 144 0
140 141 0
156 158 0
152 155 0
152 155 0
144 147 0
150 153 0
148 150 0
148 151 0
156 165 0
150 154 0
146 146 0
148 151 0
144 145 0
144 144 0
146 149 0
147 148 0
153 157 0
145 141 0
146 145 0
144 143 0
132 125 0
144 143 0
145 144 0
147 145 0
137 127 0
141 141 0
147 147 0
143 138 0
141 141 0
150 151 0
146 146 0
146 143 0
146 147 0
148 146 0
142 136 0
144 137 0
143 140 0
138 132 0
144 142 0
141 139 0
140 131 0
146 146 0
146 146 0
139 131 0
149 151 0
145 141 0
145 142 0
142 132 0
137 130 0
144 140 0
149 146 0
139 137 0
149 145 0
144 139 0
143 139 0
141 132 0
148 146 0
137 129 0
138 135 0
145 140 0
140 131 0
143 139 0
139 132 0
144 133 0
146 146 0
147 145 0
142 135 0
148 148 0
147 144 0
147 144 0
143 139 0
139 131 0
143 139 0
144 135 0
146 144 0
150 150 0
143 138 0
147 142 0
144 136 0
145 143 0
144 137 0
144 134 0
152 153 0
142 134 0
148 144 0
149 149 0
141 137 0
149 150 0
146 142 0
148 147 0
144 141 0
150 150 0
152 147 0
148 146 0
151 151 0
152 152 0
146 141 0
147 146 0
152 156 0
151 153 0
143 141 0
150 149 0
149 151 0
147 149 0
148 145 0
157 162 0
151 153 0
144 145 0
152 152 0
155 159 0
151 149 0
149 151 0
156 161 0
153 152 0
150 151 0
150 154 0
152 153 0
148 148 0
144 144 0
149 150 0
153 160 0
149 153 0
155 157 0
154 157 0
151 151 0
150 154 0
151 152 0
149 150 0
150 149 0
154 160 0
150 154 0
152 155 0
153 159 0
150 152 0
156 161 0
147 147 0
155 160 0
153 158 0
154 158 0
151 152 0
153 154 0
150 153 0
152 155 0
154 159 0
148 150 0
151 153 0
152 155 0
156 161 0
155 159 0
145 144 0
151 158 0
159 166 0
149 154 0
152 155 0
152 155 0
153 154 0
153 157 0
152 157 0
152 151 0
154 158 0
153 152 0
156 164 0
151 155 0
149 148 0
148 153 0
150 154 0
157 161 0
155 159 0
150 153 0
156 162 0
151 155 0
157 164 0
149 147 0
151 154 0
151 155 0
147 146 0
152 152 0
152 157 0
149 154 0
157 160 0
150 148 0
150 154 0
152 153 0
153 159 0
151 153 0
146 146 0
152 155 0
151 155 0
150 154 0
152 154 0
155 159 0
153 156 0
151 155 0
148 149 0
156 160 0
146 151 0
154 154 0
150 152 0
151 152 0
155 159 0
153 157 0
151 153 0
154 162 0
153 156 0
152 158 0
150 152 0
153 155 0
151 153 0
151 158 0
151 153 0
151 152 0
154 158 0
156 157 0
153 158 0
156 162 0
159 164 0
156 163 0
155 158 0
158 162 0
160 165 0
161 167 0
158 162 0
153 156 0
155 159 0
153 156 0
161 170 0
152 154 0
157 163 0
158 163 0
159 166 0
160 167 0
157 165 0
155 160 0
156 164 0
160 165 0
156 161 0
155 162 0
160 166 0
161 166 0
163 170 0
155 161 0
157 165 0
162 172 0
156 160 0
162 172 0
160 167 0
159 166 0
155 173 0
150 168 0
156 173 0
154 173 0
158 175 0
157 174 0
155 172 0
153 170 0
153 170 0
157 175 0
150 167 0
152 170 0
149 164 0
152 169 0
151 165 0
154 172 0
149 165 0
148 164 0
158 175 0
151 167 0
151 167 0
155 171 0
151 166 0
148 165 0
150 166 0
149 163 0
151 167 0
150 165 0
151 165 0
147 162 0
145 157 0
147 163 0
146 163 0
151 167 0
151 165 0
152 167 0
156 171 0
146 161 0
150 166 0
151 167 0
157 173 0
150 164 0
150 165 0
147 158 0
154 167 0
148 161 0
148 164 0
155 170 0
147 160 0
147 161 0
148 161 0
147 161 0
150 164 0
155 165 0
155 169 0
152 164 0
149 163 0
142 153 0
149 162 0
143 156 0
148 160 0
143 156 0
149 160 0
145 158 0
153 166 0
151 167 0
152 165 0
147 159 0
150 163 0
147 156 0
142 156 0
148 162 0
149 161 0
155 167 0
151 161 0
154 167 0
147 159 0
155 169 0
143 151 0
150 160 0
145 154 0
152 163 0
150 161 0
145 153 0
146 155 0
148 156 0
142 151 0
151 161 0
147 158 0
150 163 0
138 147 0
149 155 0
151 161 0
150 159 0
142 151 0
151 162 0
147 159 0
148 157 0
151 161 0
149 159 0
151 164 0
149 160 0
152 161 0
141 147 0
156 167 0
148 159 0
148 157 0
148 160 0
149 157 0
149 160 0
156 167 0
147 157 0
147 154 0
147 155 0
155 164 0
151 158 0
152 163 0
149 158 0
152 160 0
151 159 0
153 164 0
141 143 0
150 159 0
155 161 0
151 161 0
150 157 0
149 150 0
155 163 0
155 164 0
146 150 0
147 152 0
148 155 0
155 164 0
149 153 0
149 153 0
146 154 0
157 167 0
149 158 0
147 151 0
148 148 0
149 154 0
148 147 0
147 148 0
150 152 0
149 151 0
147 152 0
143 145 0
143 143 0
147 147 0
152 154 0
147 150 0
147 148 0
148 147 0
148 148 0
146 148 0
148 151 0
149 148 0
147 147 0
147 150 0
144 140 0
147 147 0
145 145 0
149 145 0
147 146 0
142 138 0
143 142 0
143 143 0
141 138 0
146 142 0
145 143 0
142 138 0
144 137 0
145 146 0
142 138 0
146 143 0
141 136 0
147 143 0
146 143 0
146 146 0
143 141 0
148 144 0
140 129 0
143 137 0
147 145 0
143 139 0
147 146 0
146 143 0
143 137 0
146 143 0
146 142 0
149 143 0
147 143 0
144 138 0
145 143 0
148 143 0
150 147 0
149 145 0
147 144 0
145 139 0
150 145 0
144 141 0
147 144 0
144 139 0
151 151 0
144 143 0
135 123 0
145 142 0
143 140 0
144 139 0
144 142 0
147 145 0
144 135 0
144 139 0
146 143 0
145 140 0
141 135 0
144 136 0
143 134 0
147 143 0
144 137 0
147 146 0
143 137 0
142 137 0
151 152 0
146 140 0
154 153 0
146 142 0
150 147 0
151 152 0
148 146 0
149 148 0
142 139 0
147 144 0
142 137 0
149 146 0
142 137 0
146 145 0
148 148 0
147 145 0
151 152 0
146 144 0
148 151 0
143 141 0
151 153 0
150 151 0
150 150 0
156 159 0
150 150 0
145 141 0
149 148 0
154 161 0
154 159 0
159 164 0
149 152 0
157 159 0
153 158 0
150 154 0
156 159 0
153 158 0
150 155 0
148 149 0
152 154 0
150 152 0
150 148 0
149 150 0
155 157 0
150 152 0
156 157 0
150 151 0
156 160 0
154 157 0
154 162 0
154 157 0
151 156 0
160 170 0
154 158 0
155 159 0
153 155 0
152 154 0
150 154 0
152 160 0
152 156 0
151 152 0
153 157 0
149 152 0
156 160 0
157 166 0
153 157 0
151 153 0
150 157 0
158 163 0
156 160 0
155 161 0
152 153 0
155 163 0
154 160 0
152 157 0
153 154 0
147 152 0
153 157 0
153 156 0
152 152 0
152 155 0
158 166 0
148 148 0
152 156 0
147 151 0
149 151 0
154 160 0
148 151 0
159 167 0
151 150 0
154 158 0
155 160 0
147 148 0
156 161 0
150 152 0
152 156 0
149 154 0
155 156 0
155 164 0
157 161 0
156 160 0
152 157 0
153 156 0
151 155 0
154 156 0
156 159 0
150 154 0
154 157 0
157 163 0
152 156 0
155 160 0
151 154 0
150 150 0
156 163 0
155 157 0
154 156 0
158 163 0
155 160 0
150 152 0
152 154 0
151 153 0
155 158 0
154 158 0
152 154 0
147 148 0
150 155 0
158 164 0
154 159 0
155 159 0
157 164 0
155 159 0
154 160 0
156 160 0
152 156 0
163 172 0
149 152 0
158 162 0
153 156 0
154 157 0
157 161 0
156 163 0
156 161 0
155 160 0
160 169 0
157 162 0
162 168 0
153 160 0
157 165 0
161 168 0
160 167 0
164 176 0
160 167 0
153 157 0
161 167 0
164 171 0
155 162 0
159 167 0
157 164 0
158 166 0
158 166 0
163 172 0
161 172 0
148 164 0
155 172 0
155 173 0
157 174 0
158 176 0
160 178 0
154 171 0
154 170 0
154 172 0
158 175 0
145 162 0
150 167 0
152 169 0
154 172 0
151 168 0
150 166 0
150 166 0
153 169 0
151 166 0
149 165 0
155 172 0
156 172 0
153 170 0
151 167 0
150 166 0
151 167 0
157 173 0
147 162 0
147 161 0
149 166 0
148 162 0
149 164 0
151 166 0
146 161 0
146 159 0
158 174 0
152 165 0
147 162 0
147 162 0
154 170 0
147 161 0
145 158 0
155 170 0
148 160 0
150 166 0
151 166 0
154 168 0
148 161 0
156 170 0
142 155 0
151 166 0
150 165 0
154 169 0
149 161 0
149 162 0
148 160 0
149 164 0
147 157 0
150 163 0
151 164 0
150 163 0
150 166 0
159 175 0
152 162 0
151 165 0
152 163 0
150 164 0
152 165 0
148 158 0
157 170 0
149 162 0
145 157 0
154 168 0
155 170 0
148 160 0
155 167 0
148 160 0
147 158 0
147 159 0
153 166 0
153 164 0
151 161 0
148 157 0
143 152 0
147 157 0
150 158 0
146 157 0
150 162 0
145 154 0
148 159 0
150 162 0
145 154 0
147 156 0
143 149 0
153 164 0
150 160 0
148 156 0
155 165 0
152 164 0
149 161 0
151 162 0
145 152 0
152 160 0
152 161 0
144 151 0
146 155 0
148 157 0
154 161 0
145 152 0
153 163 0
153 164 0
153 166 0
154 162 0
153 162 0
153 159 0
152 162 0
145 153 0
146 153 0
147 151 0
148 154 0
150 160 0
147 152 0
149 154 0
154 162 0
151 156 0
151 162 0
143 149 0
149 151 0
149 154 0
146 153 0
150 156 0
147 149 0
144 147 0
143 147 0
146 149 0
147 153 0
147 150 0
146 149 0
150 155 0
153 159 0
155 161 0
147 152 0
143 146 0
145 146 0
149 152 0
147 148 0
151 155 0
148 148 0
149 150 0
141 140 0
142 142 0
148 148 0
154 157 0
139 139 0
143 143 0
148 147 0
155 161 0
153 157 0
152 154 0
143 142 0
146 143 0
140 140 0
145 145 0
149 151 0
150 148 0
145 146 0
137 128 0
136 134 0
149 148 0
147 146 0
145 142 0
142 138 0
149 148 0
141 138 0
145 144 0
149 149 0
145 135 0
146 145 0
144 145 0
144 143 0
151 151 0
149 148 0
145 142 0
143 137 0
145 142 0
147 147 0
147 150 0
144 142 0
143 136 0
151 152 0
144 143 0
138 131 0
142 132 0
148 147 0
143 140 0
144 138 0
148 147 0
150 148 0
142 137 0
143 139 0
143 138 0
152 153 0
142 141 0
149 145 0
145 142 0
150 147 0
150 149 0
148 144 0
141 133 0
145 142 0
151 154 0
144 139 0
150 150 0
148 146 0
148 148 0
145 144 0
147 143 0
143 137 0
143 139 0
146 145 0
151 152 0
144 145 0
147 141 0
149 148 0
147 141 0
144 142 0
141 133 0
142 138 0
144 141 0
151 153 0
148 146 0
150 149 0
148 147 0
146 143 0
146 144 0
144 142 0
154 156 0
148 150 0
146 146 0
145 142 0
145 142 0
152 155 0
151 157 0
152 154 0
153 154 0
149 150 0
151 153 0
147 144 0
153 152 0
150 154 0
156 160 0
153 155 0
153 154 0
150 154 0
151 151 0
156 159 0
153 157 0
150 151 0
153 155 0
152 158 0
148 151 0
156 158 0
152 155 0
149 150 0
151 156 0
154 157 0
152 157 0
150 154 0
154 161 0
154 158 0
148 150 0
154 160 0
149 153 0
150 152 0
155 157 0
153 154 0
151 153 0
153 157 0
155 157 0
155 159 0
153 159 0
160 165 0
152 158 0
151 151 0
149 154 0
154 160 0
148 152 0
153 155 0
153 156 0
154 160 0
158 168 0
149 152 0
154 159 0
149 153 0
154 161 0
152 154 0
146 149 0
154 156 0
153 161 0
157 164 0
151 154 0
148 148 0
155 158 0
158 164 0
158 165 0
153 159 0
158 165 0
155 163 0
153 154 0
152 154 0
148 153 0
153 156 0
150 156 0
152 156 0
158 164 0
148 152 0
151 150 0
155 161 0
156 161 0
159 166 0
155 161 0
149 152 0
152 155 0
157 164 0
154 157 0
154 157 0
154 158 0
150 153 0
151 154 0
153 159 0
152 157 0
156 162 0
150 150 0
151 152 0
153 160 0
157 163 0
154 156 0
154 158 0
154 158 0
153 155 0
144 145 0
156 159 0
151 153 0
153 156 0
155 160 0
156 163 0
156 161 0
156 162 0
155 161 0
158 162 0
154 156 0
157 161 0
153 157 0
157 164 0
154 160 0
153 157 0
153 157 0
151 154 0
160 166 0
155 158 0
157 162 0
154 158 0
153 158 0
159 166 0
153 154 0
157 161 0
157 165 0
154 159 0
151 151 0
160 168 0
157 163 0
149 152 0
157 164 0
160 168 0
160 169 0
153 159 0
159 167 0
162 171 0
162 169 0
156 163 0
163 171 0
161 170 0
163 174 0
157 162 0
156 173 0
160 177 0
156 175 0
156 173 0
159 177 0
157 174 0
152 170 0
157 175 0
152 169 0
154 171 0
155 173 0
157 175 0
153 169 0
157 175 0
151 167 0
149 165 0
159 176 0
154 170 0
155 171 0
155 169 0
148 164 0
152 168 0
155 171 0
157 173 0
153 170 0
146 160 0
150 165 0
152 169 0
157 174 0
157 173 0
153 170 0
150 165 0
155 171 0
154 171 0
152 169 0
154 170 0
148 163 0
156 171 0
148 163 0
148 162 0
152 167 0
155 170 0
154 167 0
153 168 0
149 163 0
152 166 0
143 156 0
147 161 0
147 160 0
149 163 0
142 156 0
151 167 0
154 171 0
148 161 0
147 160 0
148 159 0
152 164 0
149 159 0
146 155 0
149 161 0
151 165 0
141 152 0
153 167 0
149 162 0
154 167 0
152 166 0
146 157 0
146 156 0
153 166 0
152 163 0
151 161 0
146 154 0
148 157 0
153 167 0
151 162 0
150 160 0
154 168 0
151 164 0
153 165 0
148 160 0
145 157 0
153 166 0
142 151 0
147 155 0
151 162 0
142 153 0
148 161 0
148 161 0
153 164 0
150 161 0
153 166 0
153 168 0
148 159 0
151 164 0
151 161 0
148 161 0
154 167 0
148 158 0
149 161 0
147 155 0
145 153 0
151 160 0
155 165 0
153 163 0
155 167 0
150 160 0
153 165 0
149 157 0
154 164 0
153 166 0
151 159 0
153 160 0
152 159 0
151 163 0
150 158 0
151 161 0
146 152 0
144 150 0
155 164 0
155 165 0
150 156 0
148 153 0
151 159 0
145 151 0
149 156 0
146 150 0
152 156 0
149 154 0
150 153 0
150 155 0
144 144 0
152 161 0
155 163 0
147 153 0
151 157 0
143 149 0
143 142 0
148 156 0
151 156 0
152 160 0
146 146 0
145 148 0
151 152 0
150 157 0
149 156 0
150 155 0
152 157 0
149 149 0
142 139 0
149 153 0
142 141 0
148 153 0
151 155 0
155 157 0
144 144 0
147 150 0
146 148 0
150 152 0
147 151 0
147 144 0
147 150 0
152 154 0
147 148 0
150 154 0
144 146 0
143 138 0
154 161 0
144 141 0
138 134 0
144 139 0
148 147 0
152 154 0
143 136 0
146 143 0
148 147 0
142 138 0
139 136 0
148 147 0
149 148 0
147 150 0
153 156 0
147 145 0
148 144 0
150 154 0
148 148 0
140 134 0
145 138 0
147 146 0
148 147 0
140 137 0
141 134 0
145 140 0
150 147 0
144 140 0
154 159 0
144 136 0
149 149 0
147 147 0
150 149 0
154 154 0
142 138 0
152 152 0
138 132 0
143 139 0
143 136 0
151 152 0
150 155 0
149 147 0
150 154 0
142 135 0
148 149 0
138 125 0
152 154 0
146 144 0
154 155 0
149 151 0
148 143 0
148 147 0
143 141 0
151 149 0
148 147 0
153 156 0
153 152 0
145 143 0
151 146 0
148 148 0
145 147 0
151 149 0
154 157 0
152 151 0
153 155 0
152 159 0
146 142 0
148 148 0
147 144 0
150 154 0
144 140 0
149 145 0
154 154 0
156 158 0
150 151 0
150 151 0
148 150 0
150 148 0
149 151 0
148 151 0
157 163 0
155 159 0
146 147 0
149 155 0
152 156 0
155 157 0
157 162 0
150 150 0
146 143 0
152 154 0
149 149 0
153 158 0
154 158 0
154 158 0
157 162 0
149 154 0
150 153 0
155 162 0
154 156 0
150 156 0
151 156 0
151 153 0
154 162 0
157 162 0
150 152 0
154 158 0
157 162 0
159 169 0
152 156 0
149 151 0
149 149 0
151 154 0
150 153 0
155 159 0
154 159 0
155 158 0
153 156 0
155 161 0
151 155 0
159 167 0
152 154 0
156 164 0
151 157 0
151 156 0
154 164 0
155 159 0
153 158 0
153 156 0
153 157 0
155 161 0
156 164 0
152 155 0
156 163 0
150 149 0
155 160 0
158 166 0
160 171 0
154 158 0
149 151 0
153 160 0
157 165 0
156 158 0
160 165 0
149 153 0
149 154 0
155 162 0
157 164 0
155 161 0
154 160 0
156 167 0
150 151 0
160 166 0
155 161 0
153 157 0
153 158 0
148 151 0
156 163 0
151 155 0
158 163 0
154 158 0
151 153 0
153 158 0
150 152 0
149 154 0
156 161 0
155 157 0
152 159 0
154 156 0
155 161 0
153 156 0
157 163 0
152 154 0
156 163 0
153 161 0
155 160 0
149 153 0
152 156 0
155 158 0
156 161 0
148 149 0
155 161 0
157 164 0
159 166 0
158 163 0
152 158 0
156 159 0
159 164 0
151 157 0
157 162 0
153 154 0
156 161 0
154 159 0
156 160 0
152 158 0
156 161 0
157 163 0
153 159 0
159 165 0
156 160 0
153 156 0
161 168 0
153 159 0
157 163 0
157 163 0
164 172 0
161 169 0
160 168 0
160 170 0
158 165 0
160 169 0
161 170 0
160 169 0
161 170 0
160 167 0
161 170 0
161 168 0
162 170 0
158 169 0
158 177 0
161 178 0
152 169 0
158 176 0
157 174 0
155 171 0
153 170 0
152 169 0
156 174 0
156 174 0
158 175 0
152 169 0
148 165 0
160 178 0
152 167 0
155 173 0
154 170 0
159 177 0
159 176 0
152 169 0
152 167 0
151 166 0
156 173 0
154 171 0
155 171 0
151 167 0
149 163 0
149 164 0
154 170 0
147 162 0
154 169 0
155 172 0
154 169 0
147 163 0
152 166 0
149 163 0
144 157 0
146 161 0
147 159 0
152 166 0
150 165 0
152 168 0
152 166 0
148 161 0
151 166 0
153 170 0
154 170 0
148 162 0
153 167 0
153 166 0
148 161 0
153 165 0
148 161 0
149 163 0
159 175 0
147 158 0
154 168 0
150 164 0
155 167 0
152 167 0
145 158 0
150 162 0
144 156 0
158 175 0
150 163 0
148 159 0
150 162 0
149 164 0
145 157 0
147 161 0
156 168 0
154 169 0
153 166 0
152 165 0
149 162 0
148 159 0
151 164 0
144 155 0
151 163 0
148 160 0
152 165 0
150 164 0
149 158 0
147 158 0
150 164 0
147 160 0
156 169 0
147 157 0
151 165 0
149 157 0
150 162 0
149 164 0
150 159 0
152 166 0
147 158 0
149 159 0
147 155 0
155 161 0
152 163 0
150 161 0
154 164 0
155 162 0
149 157 0
152 156 0
152 162 0
151 156 0
152 163 0
151 161 0
150 162 0
150 160 0
153 163 0
152 161 0
154 163 0
151 160 0
152 162 0
157 169 0
151 158 0
155 163 0
153 162 0
148 155 0
152 159 0
149 156 0
150 156 0
155 165 0
153 160 0
148 155 0
154 164 0
154 162 0
149 153 0
151 157 0
150 155 0
149 152 0
151 159 0
156 166 0
150 157 0
151 157 0
143 144 0
151 157 0
152 160 0
146 149 0
144 147 0
150 157 0
149 153 0
146 150 0
150 155 0
149 153 0
148 151 0
150 151 0
151 153 0
152 156 0
155 159 0
149 151 0
150 153 0
147 148 0
149 152 0
148 152 0
142 140 0
151 155 0
148 147 0
146 148 0
150 150 0
150 150 0
151 153 0
149 151 0
151 152 0
149 154 0
147 147 0
146 144 0
146 147 0
144 140 0
148 146 0
152 155 0
154 159 0
148 146 0
149 151 0
154 159 0
152 149 0
148 146 0
147 148 0
143 140 0
148 146 0
149 152 0
145 141 0
145 140 0
147 145 0
144 139 0
148 143 0
151 153 0
150 151 0
153 151 0
146 147 0
150 146 0
147 146 0
150 149 0
146 142 0
146 146 0
144 141 0
150 151 0
148 146 0
148 148 0
146 142 0
142 140 0
144 141 0
150 147 0
150 148 0
146 143 0
150 150 0
148 148 0
147 142 0
151 152 0
148 148 0
147 143 0
146 142 0
142 139 0
146 147 0
147 141 0
146 146 0
148 146 0
144 137 0
150 153 0
145 139 0
150 147 0
147 146 0
145 142 0
146 145 0
148 146 0
148 143 0
151 154 0
146 144 0
148 148 0
151 151 0
148 149 0
149 148 0
149 152 0
153 161 0
150 148 0
153 156 0
143 141 0
155 154 0
147 147 0
149 151 0
154 157 0
145 145 0
149 151 0
149 151 0
148 152 0
145 140 0
148 150 0
155 157 0
146 143 0
149 151 0
153 156 0
152 154 0
148 147 0
153 157 0
153 158 0
154 156 0
154 157 0
153 158 0
147 149 0
154 157 0
150 153 0
150 148 0
151 157 0
147 151 0
147 149 0
146 149 0
153 157 0
148 150 0
153 157 0
158 163 0
154 159 0
150 152 0
147 151 0
155 160 0
159 170 0
155 160 0
155 163 0
158 168 0
152 155 0
154 159 0
158 164 0
149 153 0
156 165 0
152 159 0
154 162 0
154 160 0
153 161 0
154 162 0
148 149 0
155 163 0
157 165 0
151 154 0
155 162 0
154 158 0
157 162 0
154 156 0
159 168 0
155 161 0
154 160 0
157 164 0
157 166 0
151 156 0
155 160 0
152 157 0
151 156 0
154 164 0
158 164 0
153 154 0
159 167 0
149 153 0
152 155 0
157 162 0
154 159 0
157 159 0
148 150 0
156 163 0
151 154 0
158 164 0
156 163 0
156 161 0
154 157 0
153 155 0
152 156 0
151 156 0
152 157 0
152 152 0
154 157 0
152 155 0
153 158 0
155 162 0
153 155 0
158 167 0
156 162 0
152 157 0
156 163 0
153 158 0
156 158 0
151 154 0
153 156 0
155 162 0
159 168 0
157 163 0
152 156 0
146 145 0
151 155 0
156 163 0
152 157 0
158 163 0
153 159 0
154 158 0
152 157 0
152 154 0
154 159 0
156 162 0
155 161 0
160 169 0
160 168 0
155 161 0
150 155 0
155 159 0
150 152 0
156 162 0
154 162 0
152 157 0
153 158 0
164 172 0
160 167 0
163 171 0
161 167 0
159 166 0
157 164 0
158 166 0
158 165 0
159 166 0
159 167 0
163 172 0
159 168 0
159 164 0
159 168 0
159 167 0
163 172 0
156 165 0
159 164 0
159 177 0
159 177 0
153 171 0
158 176 0
153 169 0
159 177 0
152 169 0
159 177 0
150 167 0
153 170 0
157 174 0
158 175 0
157 174 0
147 162 0
155 172 0
149 164 0
146 162 0
150 166 0
154 171 0
154 170 0
152 168 0
154 172 0
153 169 0
150 164 0
157 172 0
153 170 0
155 170 0
149 164 0
152 168 0
154 171 0
158 175 0
149 165 0
150 164 0
148 163 0
154 168 0
151 166 0
152 167 0
154 170 0
154 169 0
150 166 0
149 165 0
154 169 0
148 161 0
157 175 0
150 163 0
149 164 0
155 170 0
147 157 0
149 163 0
150 163 0
153 168 0
143 153 0
157 172 0
153 168 0
149 159 0
148 161 0
158 172 0
152 165 0
149 163 0
150 163 0
153 166 0
155 170 0
155 167 0
150 163 0
151 163 0
154 169 0
158 173 0
151 161 0
152 164 0
149 162 0
148 160 0
150 158 0
149 160 0
153 165 0
156 170 0
155 168 0
152 166 0
154 165 0
158 171 0
152 165 0
152 161 0
152 164 0
148 158 0
156 168 0
148 155 0
153 163 0
156 167 0
147 159 0
158 170 0
156 167 0
149 161 0
155 167 0
148 156 0
152 161 0
150 162 0
150 163 0
154 163 0
150 157 0
155 168 0
145 153 0
146 153 0
150 160 0
151 162 0
154 168 0
158 170 0
158 169 0
154 167 0
155 163 0
146 156 0
161 175 0
153 163 0
148 155 0
157 169 0
154 164 0
149 155 0
158 169 0
152 163 0
152 161 0
153 161 0
154 162 0
154 164 0
151 159 0
145 152 0
155 161 0
151 157 0
150 158 0
151 151 0
153 161 0
146 153 0
151 156 0
154 163 0
151 157 0
156 166 0
151 155 0
146 149 0
142 142 0
151 155 0
150 156 0
146 151 0
152 161 0
147 146 0
147 149 0
150 153 0
149 154 0
149 151 0
143 144 0
153 159 0
149 148 0
149 152 0
144 138 0
147 153 0
150 154 0
149 154 0
144 146 0
148 150 0
153 157 0
147 153 0
141 135 0
152 158 0
149 148 0
149 150 0
152 158 0
147 151 0
157 162 0
143 142 0
150 150 0
150 150 0
149 146 0
147 146 0
145 145 0
149 151 0
142 138 0
150 146 0
154 158 0
146 142 0
148 142 0
145 139 0
145 141 0
145 143 0
147 146 0
139 133 0
151 153 0
150 148 0
148 148 0
143 141 0
148 148 0
147 143 0
147 146 0
144 140 0
147 145 0
146 141 0
148 148 0
153 152 0
155 159 0
142 137 0
148 144 0
148 146 0
149 146 0
149 149 0
149 148 0
140 135 0
152 151 0
145 146 0
147 142 0
146 146 0
150 149 0
154 155 0
144 140 0
149 147 0
153 154 0
152 150 0
145 145 0
157 160 0
147 145 0
144 140 0
151 151 0
147 145 0
146 148 0
150 148 0
149 146 0
151 148 0
149 142 0
152 153 0
150 148 0
150 149 0
150 152 0
148 147 0
152 157 0
145 144 0
153 152 0
151 153 0
149 147 0
155 159 0
153 155 0
150 150 0
154 160 0
155 160 0
151 151 0
148 143 0
156 161 0
148 148 0
156 164 0
154 155 0
150 152 0
148 146 0
150 148 0
144 143 0
151 152 0
154 156 0
148 149 0
157 164 0
149 150 0
152 150 0
150 151 0
156 162 0
147 150 0
147 147 0
156 161 0
148 148 0
154 159 0
148 150 0
151 155 0
153 156 0
156 166 0
160 169 0
154 159 0
152 153 0
154 158 0
151 155 0
151 154 0
158 164 0
152 153 0
155 158 0
154 161 0
154 162 0
158 168 0
155 161 0
150 152 0
155 159 0
157 162 0
156 161 0
155 161 0
159 167 0
157 164 0
149 151 0
155 160 0
155 161 0
155 163 0
154 157 0
151 155 0
157 165 0
154 156 0
154 157 0
156 164 0
155 161 0
154 161 0
156 161 0
156 161 0
157 165 0
152 156 0
156 164 0
150 152 0
152 156 0
150 153 0
158 163 0
151 155 0
153 156 0
152 155 0
158 164 0
153 159 0
153 159 0
157 166 0
157 166 0
155 163 0
159 168 0
160 168 0
156 161 0
153 157 0
154 161 0
155 160 0
159 166 0
152 160 0
153 158 0
156 161 0
154 158 0
153 157 0
153 157 0
153 155 0
152 158 0
156 163 0
154 157 0
154 160 0
154 158 0
151 156 0
153 162 0
150 153 0
156 158 0
153 158 0
158 164 0
154 157 0
157 163 0
153 159 0
154 157 0
159 165 0
155 161 0
156 161 0
159 165 0
151 155 0
159 168 0
161 169 0
156 161 0
156 161 0
153 156 0
157 163 0
153 159 0
154 160 0
160 167 0
152 156 0
156 163 0
158 165 0
162 171 0
161 168 0
158 164 0
156 164 0
161 170 0
155 161 0
155 162 0
158 167 0
156 161 0
159 167 0
158 167 0
164 174 0
156 162 0
157 166 0
159 166 0
163 172 0
161 167 0
162 167 0
161 169 0
163 171 0
156 164 0
162 172 0
159 168 0
160 168 0
157 175 0
158 177 0
154 172 0
161 180 0
153 169 0
147 163 0
159 177 0
157 175 0
148 164 0
151 168 0
159 175 0
158 176 0
151 168 0
153 171 0
153 170 0
155 171 0
158 174 0
154 170 0
145 159 0
150 165 0
161 176 0
156 172 0
152 169 0
156 173 0
151 166 0
158 174 0
152 166 0
154 171 0
153 169 0
150 167 0
149 163 0
150 166 0
148 164 0
150 164 0
152 166 0
152 165 0
152 168 0
153 168 0
153 169 0
149 164 0
151 164 0
153 167 0
147 160 0
149 162 0
152 167 0
157 173 0
145 157 0
149 162 0
149 163 0
150 163 0
156 170 0
154 167 0
151 164 0
152 166 0
145 158 0
149 162 0
154 168 0
152 163 0
152 164 0
158 172 0
159 174 0
149 163 0
157 170 0
153 166 0
155 168 0
151 165 0
157 170 0
157 170 0
156 171 0
154 166 0
152 162 0
156 169 0
150 164 0
157 171 0
147 161 0
146 159 0
150 163 0
156 169 0
156 168 0
153 165 0
146 157 0
148 160 0
147 159 0
150 162 0
151 161 0
153 165 0
149 161 0
156 166 0
155 168 0
150 161 0
146 155 0
151 163 0
147 156 0
155 166 0
154 166 0
148 159 0
152 164 0
157 169 0
149 156 0
152 163 0
149 155 0
153 163 0
159 172 0
150 161 0
156 165 0
154 165 0
154 165 0
155 169 0
155 169 0
150 158 0
148 153 0
146 160 0
155 166 0
149 157 0
144 148 0
150 160 0
153 164 0
152 158 0
154 161 0
157 165 0
151 158 0
154 165 0
155 161 0
148 155 0
146 152 0
154 163 0
151 158 0
150 155 0
152 161 0
146 151 0
150 155 0
154 162 0
151 158 0
146 148 0
145 150 0
148 150 0
149 153 0
146 144 0
148 151 0
147 150 0
154 163 0
150 156 0
152 158 0
143 145 0
150 153 0
152 155 0
151 157 0
148 150 0
151 155 0
153 160 0
144 147 0
154 164 0
151 151 0
144 140 0
151 156 0
150 152 0
150 157 0
150 152 0
149 152 0
146 144 0
144 143 0
149 147 0
153 154 0
150 151 0
144 142 0
148 153 0
146 148 0
152 154 0
145 147 0
150 149 0
149 148 0
151 151 0
142 143 0
148 147 0
149 150 0
157 161 0
149 147 0
147 146 0
154 158 0
146 144 0
154 156 0
148 143 0
148 149 0
151 153 0
149 147 0
146 141 0
144 138 0
155 156 0
148 142 0
151 153 0
154 156 0
155 157 0
154 155 0
153 155 0
148 149 0
147 144 0
149 151 0
150 147 0
146 144 0
153 154 0
147 145 0
152 151 0
151 150 0
149 149 0
147 143 0
146 147 0
150 151 0
144 143 0
142 141 0
151 154 0
152 152 0
141 135 0
143 140 0
148 150 0
155 158 0
147 149 0
143 142 0
149 151 0
152 148 0
146 144 0
150 148 0
152 150 0
155 160 0
155 160 0
149 150 0
146 147 0
153 155 0
146 146 0
147 145 0
154 162 0
154 157 0
151 153 0
149 148 0
150 152 0
148 146 0
153 158 0
150 149 0
150 148 0
152 159 0
149 153 0
155 155 0
153 151 0
153 157 0
148 150 0
157 164 0
147 144 0
152 153 0
152 153 0
152 157 0
151 154 0
151 152 0
149 149 0
159 165 0
151 157 0
152 157 0
148 149 0
151 153 0
149 154 0
151 155 0
155 159 0
153 158 0
159 165 0
154 158 0
154 157 0
159 165 0
155 162 0
154 158 0
158 167 0
151 155 0
155 161 0
150 152 0
149 151 0
154 161 0
154 158 0
153 159 0
150 154 0
155 161 0
153 160 0
154 161 0
148 154 0
152 155 0
157 165 0
154 156 0
151 154 0
154 163 0
154 158 0
156 163 0
155 159 0
155 161 0
157 165 0
153 161 0
153 158 0
149 154 0
159 166 0
149 154 0
154 161 0
147 152 0
158 166 0
155 160 0
151 154 0
150 154 0
149 152 0
156 164 0
153 158 0
159 167 0
149 156 0
149 152 0
156 162 0
153 156 0
155 162 0
155 160 0
154 156 0
154 156 0
158 166 0
159 164 0
157 164 0
156 164 0
155 161 0
156 162 0
153 161 0
157 160 0
155 160 0
155 159 0
152 155 0
160 169 0
161 171 0
149 153 0
153 158 0
154 160 0
154 158 0
160 168 0
153 157 0
153 158 0
156 159 0
158 164 0
152 154 0
157 163 0
152 157 0
161 172 0
159 165 0
149 152 0
153 158 0
154 158 0
151 153 0
154 158 0
159 167 0
157 164 0
151 155 0
158 167 0
156 162 0
154 159 0
155 160 0
151 155 0
157 161 0
152 158 0
158 163 0
158 164 0
156 163 0
158 163 0
150 153 0
157 164 0
162 168 0
152 157 0
156 160 0
158 166 0
159 167 0
154 158 0
160 169 0
155 163 0
152 157 0
158 165 0
156 162 0
154 158 0
156 161 0
160 169 0
158 164 0
161 169 0
163 172 0
157 164 0
163 173 0
158 162 0
157 165 0
163 174 0
162 171 0
157 175 0
154 171 0
156 172 0
160 179 0
161 179 0
157 175 0
164 183 0
153 170 0
159 177 0
160 178 0
156 174 0
146 163 0
152 168 0
155 173 0
151 167 0
151 166 0
151 168 0
155 172 0
156 173 0
154 171 0
157 174 0
157 172 0
149 165 0
153 168 0
149 163 0
148 164 0
154 167 0
154 170 0
154 171 0
151 167 0
151 165 0
155 172 0
152 169 0
154 169 0
148 163 0
156 172 0
156 172 0
151 167 0
153 165 0
157 173 0
160 173 0
151 166 0
147 160 0
155 170 0
155 170 0
152 166 0
153 165 0
154 165 0
144 155 0
157 172 0
152 168 0
147 160 0
157 170 0
152 166 0
148 159 0
147 160 0
147 155 0
149 164 0
152 165 0
156 171 0
146 159 0
152 167 0
150 164 0
151 162 0
151 163 0
148 162 0
147 160 0
153 167 0
151 161 0
155 170 0
157 173 0
153 165 0
153 165 0
150 161 0
146 156 0
151 165 0
154 167 0
151 163 0
150 163 0
154 167 0
153 164 0
147 157 0
156 169 0
156 171 0
143 152 0
154 166 0
157 169 0
146 156 0
155 167 0
151 163 0
154 166 0
153 162 0
155 168 0
150 159 0
149 158 0
154 167 0
147 157 0
155 162 0
148 157 0
157 170 0
156 167 0
151 163 0
148 157 0
151 164 0
153 160 0
149 158 0
154 162 0
154 163 0
148 155 0
154 160 0
153 163 0
151 162 0
149 157 0
156 165 0
146 153 0
153 161 0
151 160 0
153 155 0
152 163 0
154 163 0
146 150 0
147 154 0
149 154 0
154 159 0
155 164 0
149 157 0
157 165 0
154 163 0
150 156 0
155 164 0
147 150 0
154 162 0
149 158 0
148 153 0
148 151 0
154 159 0
154 160 0
151 155 0
153 158 0
148 153 0
144 143 0
147 150 0
154 159 0
153 158 0
149 147 0
149 152 0
154 162 0
149 150 0
149 149 0
149 153 0
154 161 0
148 156 0
148 152 0
149 154 0
152 155 0
155 161 0
151 154 0
154 159 0
143 140 0
152 156 0
148 145 0
148 153 0
152 158 0
155 157 0
152 154 0
151 152 0
150 151 0
147 151 0
155 156 0
151 153 0
149 149 0
149 148 0
149 149 0
147 144 0
150 152 0
150 155 0
147 142 0
146 143 0
149 148 0
145 144 0
146 145 0
147 147 0
147 145 0
152 150 0
150 150 0
152 155 0
150 146 0
154 156 0
145 141 0
152 153 0
144 142 0
148 145 0
147 148 0
142 138 0
151 153 0
142 134 0
150 147 0
149 147 0
150 149 0
145 145 0
152 153 0
147 150 0
146 141 0
148 148 0
145 146 0
149 145 0
145 143 0
151 152 0
146 142 0
146 146 0
148 149 0
148 148 0
150 150 0
150 147 0
152 153 0
152 149 0
156 158 0
149 147 0
142 138 0
148 148 0
148 150 0
149 148 0
152 152 0
146 141 0
149 151 0
147 146 0
149 150 0
149 150 0
148 147 0
152 152 0
151 154 0
150 151 0
147 146 0
152 155 0
151 151 0
161 168 0
153 156 0
148 146 0
155 160 0
152 153 0
144 144 0
152 156 0
148 147 0
148 149 0
148 151 0
153 157 0
152 155 0
152 157 0
151 150 0
149 147 0
149 152 0
145 144 0
154 162 0
152 156 0
150 153 0
154 162 0
155 161 0
148 150 0
158 167 0
152 160 0
152 157 0
152 154 0
156 158 0
149 151 0
156 159 0
155 156 0
154 158 0
152 157 0
156 162 0
149 154 0
156 164 0
158 164 0
159 168 0
153 159 0
151 156 0
158 164 0
151 153 0
155 160 0
153 162 0
155 165 0
157 162 0
157 165 0
154 158 0
156 162 0
156 164 0
158 168 0
148 151 0
157 167 0
156 163 0
152 159 0
156 162 0
154 160 0
156 161 0
159 163 0
157 162 0
157 165 0
154 160 0
154 160 0
156 162 0
157 165 0
159 166 0
153 159 0
151 154 0
153 158 0
152 155 0
152 161 0
158 167 0
156 162 0
154 158 0
152 156 0
154 161 0
149 152 0
161 168 0
154 159 0
158 164 0
157 163 0
158 166 0
154 158 0
156 159 0
156 163 0
157 162 0
152 156 0
159 166 0
155 161 0
150 151 0
152 159 0
155 162 0
155 160 0
155 162 0
154 159 0
155 160 0
157 161 0
158 165 0
155 158 0
156 162 0
156 162 0
160 168 0
156 159 0
154 156 0
156 161 0
148 152 0
155 160 0
159 168 0
156 165 0
159 170 0
159 164 0
151 154 0
159 167 0
157 166 0
157 164 0
157 163 0
153 157 0
160 168 0
156 163 0
155 160 0
157 162 0
154 158 0
157 163 0
158 166 0
159 167 0
157 165 0
160 168 0
157 164 0
154 160 0
158 165 0
158 167 0
155 160 0
155 163 0
161 168 0
161 171 0
161 170 0
155 162 0
159 169 0
159 168 0
161 170 0
156 162 0
162 170 0
161 170 0
162 173 0
162 171 0
162 169 0
160 168 0
163 171 0
161 171 0
159 177 0
152 169 0
157 173 0
160 178 0
152 169 0
155 171 0
158 176 0
158 176 0
154 171 0
155 173 0
152 171 0
156 173 0
152 168 0
154 171 0
152 167 0
154 171 0
150 165 0
152 167 0
153 170 0
152 169 0
155 171 0
156 173 0
150 166 0
156 172 0
153 171 0
154 172 0
154 169 0
154 169 0
152 169 0
153 167 0
151 166 0
155 170 0
154 167 0
153 170 0
146 161 0
154 170 0
155 170 0
155 172 0
150 165 0
151 163 0
147 161 0
153 168 0
154 169 0
146 159 0
152 166 0
153 168 0
156 169 0
154 168 0
149 163 0
153 169 0
153 168 0
153 165 0
158 173 0
149 164 0
158 173 0
156 170 0
146 158 0
145 153 0
154 167 0
147 158 0
151 165 0
151 163 0
152 163 0
149 158 0
150 162 0
157 170 0
151 162 0
148 163 0
152 167 0
149 163 0
161 175 0
152 167 0
152 166 0
145 155 0
152 165 0
156 172 0
158 172 0
156 172 0
158 173 0
146 154 0
150 160 0
149 159 0
150 160 0
148 159 0
152 165 0
151 161 0
148 153 0
155 165 0
157 168 0
155 165 0
148 159 0
146 152 0
151 159 0
151 161 0
152 164 0
152 165 0
154 165 0
155 169 0
153 162 0
157 171 0
152 164 0
154 164 0
151 164 0
144 152 0
154 166 0
156 170 0
154 166 0
154 164 0
154 165 0
148 155 0
155 166 0
150 160 0
154 164 0
155 164 0
153 162 0
150 153 0
157 166 0
155 165 0
159 170 0
151 162 0
157 167 0
152 158 0
150 157 0
154 164 0
144 149 0
154 161 0
151 157 0
149 155 0
147 150 0
154 160 0
150 155 0
154 158 0
148 153 0
153 162 0
151 157 0
152 158 0
150 154 0
154 164 0
150 154 0
150 157 0
149 156 0
152 155 0
147 150 0
149 149 0
146 154 0
152 158 0
149 150 0
149 153 0
153 163 0
155 163 0
153 157 0
152 158 0
154 158 0
148 148 0
156 164 0
153 157 0
150 150 0
151 156 0
156 157 0
147 148 0
151 154 0
149 148 0
146 144 0
152 151 0
157 164 0
151 154 0
148 151 0
152 152 0
151 155 0
150 152 0
152 156 0
148 149 0
150 152 0
154 158 0
148 144 0
151 153 0
151 156 0
157 159 0
150 151 0
151 153 0
146 148 0
151 151 0
144 145 0
153 151 0
151 154 0
149 151 0
148 145 0
147 144 0
153 157 0
153 157 0
152 157 0
146 143 0
147 146 0
151 149 0
146 144 0
153 155 0
143 140 0
147 145 0
147 144 0
147 142 0
147 146 0
154 155 0
151 151 0
152 155 0
149 148 0
149 152 0
154 156 0
154 152 0
149 150 0
150 146 0
147 142 0
147 145 0
148 148 0
152 155 0
147 144 0
156 159 0
150 148 0
149 154 0
146 144 0
153 155 0
154 156 0
150 151 0
152 151 0
155 158 0
158 165 0
153 156 0
150 153 0
152 152 0
153 150 0
152 148 0
147 147 0
150 150 0
153 152 0
149 148 0
148 147 0
152 156 0
152 154 0
153 152 0
147 141 0
149 151 0
153 158 0
147 149 0
151 151 0
156 159 0
152 155 0
158 160 0
152 157 0
152 155 0
148 149 0
149 149 0
157 169 0
151 153 0
155 162 0
153 155 0
155 158 0
153 156 0
148 148 0
150 152 0
159 163 0
154 158 0
151 154 0
156 159 0
148 149 0
153 160 0
154 159 0
158 163 0
158 166 0
149 152 0
152 158 0
156 162 0
156 161 0
150 155 0
155 159 0
155 162 0
155 161 0
156 160 0
159 166 0
154 157 0
150 155 0
155 158 0
154 162 0
157 164 0
156 162 0
157 164 0
152 155 0
159 164 0
153 157 0
155 162 0
157 162 0
156 161 0
153 155 0
156 164 0
151 154 0
156 161 0
155 161 0
152 157 0
152 154 0
157 161 0
161 174 0
160 171 0
160 169 0
152 160 0
153 159 0
151 158 0
153 160 0
156 163 0
156 164 0
156 161 0
157 166 0
151 159 0
155 160 0
155 163 0
155 159 0
153 160 0
156 163 0
158 166 0
149 152 0
152 157 0
160 168 0
155 161 0
155 161 0
155 160 0
154 159 0
156 162 0
157 162 0
155 163 0
157 161 0
155 161 0
151 151 0
157 163 0
155 163 0
155 162 0
158 163 0
156 162 0
158 166 0
154 156 0
155 164 0
157 164 0
154 162 0
157 163 0
159 166 0
158 165 0
158 166 0
156 165 0
153 157 0
158 167 0
156 161 0
152 156 0
151 154 0
155 159 0
160 167 0
159 167 0
159 166 0
158 161 0
159 168 0
158 165 0
158 166 0
161 168 0
157 161 0
156 163 0
158 162 0
157 162 0
154 157 0
157 163 0
160 167 0
156 161 0
157 165 0
159 165 0
156 164 0
161 172 0
157 160 0
161 168 0
156 165 0
159 166 0
160 166 0
157 162 0
156 162 0
159 168 0
156 162 0
157 164 0
158 165 0
159 168 0
155 160 0
160 167 0
154 169 0
156 175 0
150 166 0
156 175 0
157 173 0
157 175 0
158 177 0
154 171 0
152 168 0
150 167 0
160 179 0
157 174 0
159 175 0
157 173 0
162 178 0
160 177 0
146 160 0
148 164 0
154 171 0
152 168 0
153 168 0
149 164 0
151 165 0
154 171 0
160 179 0
152 167 0
152 167 0
153 169 0
155 171 0
155 172 0
150 168 0
157 173 0
150 163 0
151 167 0
155 170 0
157 174 0
153 167 0
158 172 0
149 164 0
155 170 0
157 173 0
151 167 0
146 160 0
154 170 0
151 166 0
153 170 0
158 173 0
150 162 0
153 167 0
153 167 0
147 159 0
148 159 0
145 156 0
148 162 0
155 169 0
155 170 0
154 165 0
156 170 0
148 160 0
153 166 0
149 165 0
151 164 0
149 162 0
156 170 0
149 160 0
157 171 0
150 164 0
153 168 0
155 168 0
148 158 0
154 167 0
151 162 0
156 169 0
153 166 0
154 168 0
156 169 0
155 169 0
149 159 0
147 155 0
153 166 0
156 169 0
139 145 0
160 171 0
151 164 0
155 170 0
146 160 0
156 166 0
153 162 0
150 160 0
159 173 0
150 160 0
155 169 0
155 168 0
156 164 0
150 161 0
154 168 0
154 163 0
149 159 0
162 174 0
148 159 0
159 170 0
145 154 0
155 167 0
155 169 0
151 162 0
152 159 0
158 168 0
151 159 0
151 161 0
154 161 0
154 165 0
155 167 0
155 163 0
153 162 0
152 161 0
151 161 0
143 149 0
150 157 0
150 160 0
155 162 0
154 164 0
156 169 0
151 160 0
151 156 0
150 156 0
151 161 0
150 159 0
156 163 0
152 161 0
151 157 0
152 159 0
151 157 0
151 160 0
157 164 0
152 160 0
151 154 0
154 162 0
150 154 0
154 159 0
157 168 0
154 160 0
152 158 0
152 155 0
148 148 0
154 160 0
151 153 0
151 156 0
154 160 0
153 157 0
153 160 0
150 154 0
151 157 0
148 151 0
155 159 0
153 158 0
149 150 0
148 152 0
155 164 0
154 158 0
146 147 0
154 157 0
151 156 0
158 168 0
146 143 0
147 148 0
151 149 0
152 155 0
150 151 0
153 157 0
147 144 0
150 151 0
149 149 0
150 148 0
147 142 0
145 144 0
144 142 0
148 147 0
147 149 0
149 149 0
150 155 0
145 142 0
158 162 0
153 156 0
151 153 0
150 149 0
140 136 0
153 158 0
151 149 0
149 150 0
148 150 0
152 157 0
149 145 0
149 151 0
149 142 0
152 153 0
149 151 0
149 149 0
150 148 0
153 154 0
145 144 0
148 150 0
149 143 0
148 145 0
146 144 0
148 145 0
151 148 0
149 145 0
153 155 0
153 154 0
153 155 0
150 149 0
152 156 0
154 157 0
147 140 0
149 146 0
147 149 0
147 143 0
155 159 0
152 153 0
148 146 0
145 144 0
148 148 0
146 144 0
146 146 0
149 149 0
150 150 0
149 152 0
151 156 0
147 142 0
149 145 0
148 145 0
152 151 0
155 157 0
154 153 0
148 149 0
149 150 0
153 157 0
150 149 0
149 153 0
149 151 0
154 156 0
151 151 0
155 161 0
147 146 0
150 151 0
154 159 0
155 159 0
152 156 0
149 148 0
154 160 0
151 155 0
152 158 0
147 148 0
155 162 0
154 159 0
151 156 0
153 156 0
156 164 0
152 157 0
153 157 0
154 155 0
151 156 0
154 161 0
155 156 0
152 156 0
150 148 0
154 160 0
150 155 0
154 162 0
156 161 0
158 167 0
154 162 0
154 162 0
153 157 0
157 164 0
152 154 0
153 158 0
156 164 0
154 161 0
148 150 0
151 157 0
153 160 0
157 166 0
156 162 0
156 162 0
153 158 0
152 157 0
153 156 0
154 159 0
159 169 0
154 161 0
154 162 0
157 166 0
155 161 0
146 149 0
154 155 0
156 164 0
148 151 0
148 154 0
157 162 0
161 168 0
154 162 0
153 158 0
158 166 0
156 164 0
150 155 0
152 155 0
156 160 0
155 159 0
153 158 0
156 164 0
160 169 0
158 163 0
157 166 0
152 159 0
160 165 0
160 168 0
155 162 0
158 166 0
157 161 0
154 161 0
157 161 0
157 165 0
153 158 0
155 163 0
162 170 0
154 161 0
157 165 0
151 151 0
155 160 0
156 160 0
154 162 0
160 168 0
157 166 0
160 171 0
156 163 0
162 167 0
154 160 0
156 161 0
157 165 0
158 167 0
159 164 0
156 163 0
158 164 0
159 165 0
156 162 0
156 160 0
160 166 0
157 163 0
159 164 0
157 164 0
155 162 0
159 165 0
155 161 0
152 157 0
161 170 0
155 161 0
151 154 0
156 163 0
155 161 0
159 168 0
155 161 0
158 165 0
156 163 0
163 169 0
161 166 0
160 169 0
159 165 0
159 166 0
161 167 0
154 157 0
161 172 0
153 156 0
160 166 0
156 165 0
160 168 0
156 165 0
160 168 0
159 166 0
159 168 0
156 164 0
157 162 0
162 172 0
155 159 0
160 180 0
160 177 0
156 173 0
160 179 0
157 174 0
159 176 0
155 173 0
154 170 0
154 171 0
154 172 0
156 173 0
153 170 0
157 173 0
157 173 0
151 168 0
152 169 0
151 167 0
160 177 0
150 163 0
154 171 0
154 169 0
158 174 0
151 166 0
156 173 0
153 170 0
150 166 0
156 172 0
153 167 0
152 165 0
161 176 0
148 162 0
154 170 0
157 175 0
151 167 0
147 160 0
151 166 0
157 174 0
156 171 0
151 166 0
150 164 0
158 171 0
157 172 0
150 164 0
158 172 0
151 162 0
156 169 0
159 173 0
151 164 0
150 164 0
152 166 0
149 164 0
156 172 0
159 173 0
155 171 0
148 161 0
155 169 0
155 168 0
146 159 0
148 157 0
156 170 0
149 162 0
151 166 0
159 172 0
151 162 0
150 162 0
160 177 0
147 158 0
155 170 0
149 162 0
155 167 0
155 169 0
153 166 0
152 165 0
154 167 0
148 161 0
156 168 0
151 162 0
150 159 0
156 168 0
153 166 0
150 157 0
155 167 0
149 162 0
159 176 0
157 172 0
153 163 0
152 163 0
159 171 0
146 158 0
153 165 0
149 162 0
152 164 0
152 162 0
156 168 0
148 158 0
156 169 0
156 168 0
154 165 0
151 161 0
145 151 0
155 167 0
152 163 0
156 167 0
146 155 0
156 164 0
148 156 0
156 166 0
150 159 0
153 159 0
147 154 0
160 171 0
151 160 0
149 157 0
153 163 0
154 167 0
153 162 0
151 164 0
152 162 0
155 164 0
148 152 0
148 155 0
155 166 0
150 157 0
153 163 0
153 162 0
155 164 0
152 161 0
157 165 0
152 160 0
152 159 0
151 158 0
153 159 0
146 153 0
151 153 0
153 159 0
158 168 0
149 154 0
149 157 0
152 158 0
152 158 0
157 165 0
151 155 0
155 161 0
153 159 0
152 161 0
153 158 0
146 145 0
155 163 0
151 158 0
147 151 0
151 153 0
152 156 0
154 160 0
149 152 0
157 165 0
153 158 0
155 159 0
149 152 0
144 141 0
150 155 0
146 147 0
148 152 0
149 146 0
149 150 0
151 151 0
149 152 0
150 154 0
155 163 0
150 153 0
151 154 0
155 161 0
152 153 0
153 152 0
153 154 0
154 156 0
151 156 0
152 157 0
149 149 0
152 154 0
149 152 0
146 146 0
157 162 0
153 157 0
148 144 0
151 154 0
145 140 0
154 155 0
148 149 0
147 140 0
147 145 0
151 150 0
148 145 0
148 146 0
149 148 0
149 149 0
158 163 0
155 158 0
151 151 0
147 147 0
152 155 0
154 160 0
148 148 0
151 154 0
152 152 0
154 160 0
152 150 0
147 146 0
151 147 0
150 149 0
153 153 0
143 136 0
156 161 0
150 154 0
151 153 0
150 148 0
148 152 0
150 151 0
148 147 0
147 143 0
148 148 0
147 147 0
150 149 0
155 157 0
152 154 0
152 154 0
155 159 0
156 160 0
156 158 0
150 154 0
155 156 0
158 161 0
155 157 0
147 144 0
155 160 0
152 153 0
155 161 0
152 157 0
150 149 0
154 157 0
155 159 0
154 157 0
150 153 0
154 156 0
156 161 0
144 142 0
153 158 0
152 155 0
156 161 0
154 161 0
151 153 0
155 158 0
152 156 0
149 149 0
158 163 0
159 164 0
153 157 0
156 161 0
151 153 0
155 160 0
159 165 0
155 161 0
152 154 0
158 165 0
157 163 0
151 153 0
156 158 0
158 163 0
156 160 0
152 157 0
157 166 0
151 156 0
154 158 0
155 164 0
160 167 0
154 157 0
156 163 0
153 157 0
149 149 0
153 159 0
152 154 0
153 156 0
155 161 0
158 165 0
149 152 0
153 160 0
147 151 0
151 156 0
158 166 0
160 168 0
160 167 0
155 162 0
153 163 0
155 162 0
154 157 0
151 157 0
158 164 0
157 162 0
152 155 0
155 162 0
163 174 0
159 165 0
153 157 0
156 162 0
155 161 0
157 167 0
157 165 0
156 165 0
153 157 0
154 159 0
153 156 0
150 156 0
149 154 0
158 165 0
154 161 0
155 159 0
154 159 0
159 166 0
157 167 0
155 164 0
154 162 0
161 169 0
155 160 0
156 161 0
157 167 0
161 168 0
151 156 0
158 166 0
161 165 0
152 155 0
154 160 0
156 159 0
157 165 0
157 163 0
157 165 0
156 160 0
157 167 0
158 168 0
158 166 0
154 163 0
158 167 0
153 159 0
160 165 0
157 165 0
158 164 0
155 158 0
157 165 0
152 158 0
160 166 0
156 163 0
160 167 0
160 167 0
160 167 0
151 156 0
151 157 0
160 169 0
161 169 0
156 163 0
159 165 0
160 166 0
154 159 0
162 171 0
164 174 0
162 168 0
156 163 0
162 172 0
160 168 0
157 163 0
158 167 0
158 162 0
159 167 0
159 168 0
158 165 0
151 158 0
157 164 0
166 176 0
162 171 0
162 172 0
160 167 0
159 165 0
155 161 0
160 166 0
161 169 0
165 174 0
159 167 0
157 174 0
158 176 0
161 179 0
160 178 0
156 174 0
160 178 0
159 176 0
154 171 0
154 171 0
155 173 0
153 170 0
154 168 0
153 170 0
155 170 0
155 172 0
156 174 0
154 169 0
160 178 0
156 173 0
160 178 0
159 176 0
155 172 0
153 170 0
160 177 0
156 172 0
156 172 0
153 169 0
150 166 0
160 174 0
154 170 0
156 171 0
155 172 0
153 167 0
153 169 0
157 174 0
152 165 0
150 163 0
149 163 0
155 169 0
160 177 0
157 170 0
152 166 0
155 170 0
155 170 0
157 171 0
155 170 0
157 172 0
150 163 0
148 161 0
158 174 0
152 166 0
149 162 0
153 168 0
153 166 0
146 159 0
159 175 0
153 166 0
151 164 0
156 172 0
151 165 0
155 171 0
156 173 0
152 165 0
155 170 0
152 164 0
156 168 0
152 163 0
152 166 0
155 165 0
150 164 0
144 153 0
154 168 0
156 169 0
158 171 0
156 168 0
158 171 0
148 159 0
151 163 0
149 160 0
156 169 0
147 156 0
152 164 0
151 160 0
153 167 0
153 165 0
149 158 0
157 170 0
150 162 0
156 167 0
155 165 0
155 166 0
150 159 0
158 171 0
153 163 0
152 160 0
160 175 0
154 168 0
152 165 0
151 163 0
156 168 0
149 159 0
159 172 0
151 158 0
152 162 0
154 167 0
158 172 0
147 155 0
151 160 0
151 163 0
155 164 0
150 162 0
146 151 0
152 161 0
158 169 0
156 166 0
153 164 0
155 168 0
158 172 0
153 161 0
154 162 0
155 164 0
154 161 0
147 151 0
152 161 0
155 163 0
155 161 0
153 158 0
155 161 0
152 160 0
154 163 0
155 162 0
150 161 0
146 148 0
156 166 0
158 165 0
156 165 0
149 155 0
151 155 0
154 160 0
155 163 0
151 157 0
151 155 0
154 159 0
152 156 0
151 153 0
152 161 0
149 150 0
148 153 0
153 160 0
155 160 0
156 164 0
149 150 0
156 164 0
149 151 0
148 151 0
152 153 0
153 158 0
150 154 0
154 156 0
153 160 0
155 157 0
151 151 0
150 153 0
143 144 0
151 156 0
151 157 0
154 158 0
147 144 0
152 156 0
153 155 0
154 159 0
150 149 0
144 138 0
149 151 0
153 154 0
149 151 0
148 148 0
147 147 0
148 149 0
151 149 0
150 152 0
155 160 0
147 146 0
151 151 0
154 158 0
147 143 0
151 153 0
151 154 0
149 148 0
149 147 0
151 149 0
152 156 0
150 150 0
152 153 0
151 153 0
149 152 0
150 151 0
152 154 0
157 157 0
156 162 0
154 157 0
150 149 0
156 162 0
153 157 0
151 149 0
151 153 0
152 153 0
154 158 0
152 150 0
153 152 0
152 152 0
152 151 0
152 157 0
144 139 0
152 155 0
146 145 0
147 150 0
156 159 0
148 149 0
154 156 0
152 153 0
150 150 0
154 158 0
153 159 0
148 151 0
153 155 0
153 155 0
149 148 0
155 159 0
156 158 0
152 155 0
150 152 0
156 160 0
153 154 0
152 153 0
152 157 0
153 157 0
153 154 0
154 157 0
157 163 0
154 158 0
155 159 0
157 160 0
150 152 0
155 161 0
160 166 0
157 163 0
154 155 0
153 157 0
153 160 0
155 159 0
152 159 0
154 159 0
154 156 0
151 156 0
150 152 0
153 157 0
157 161 0
152 153 0
157 161 0
149 148 0
156 164 0
150 152 0
157 165 0
156 166 0
152 156 0
154 162 0
159 167 0
157 160 0
154 155 0
154 163 0
155 158 0
154 162 0
155 161 0
154 159 0
155 158 0
155 160 0
159 167 0
153 158 0
155 158 0
157 167 0
154 162 0
155 162 0
154 164 0
156 163 0
155 162 0
152 155 0
158 164 0
155 162 0
155 162 0
156 163 0
156 164 0
154 164 0
154 162 0
157 168 0
157 166 0
156 163 0
155 163 0
155 161 0
153 156 0
153 157 0
156 163 0
158 164 0
154 160 0
158 168 0
158 165 0
160 169 0
155 161 0
153 160 0
159 166 0
160 167 0
151 156 0
158 168 0
159 168 0
160 170 0
156 163 0
152 158 0
154 158 0
155 161 0
155 159 0
159 167 0
155 161 0
160 170 0
160 168 0
158 164 0
157 167 0
151 149 0
153 159 0
152 156 0
156 165 0
161 171 0
157 164 0
162 173 0
150 156 0
158 164 0
149 149 0
159 168 0
156 162 0
162 172 0
154 161 0
153 159 0
158 163 0
160 170 0
155 163 0
157 162 0
155 164 0
158 166 0
160 168 0
155 162 0
158 169 0
152 158 0
156 163 0
157 162 0
159 168 0
156 164 0
157 165 0
151 157 0
154 161 0
160 167 0
161 169 0
159 166 0
158 165 0
154 160 0
162 174 0
161 169 0
158 165 0
160 169 0
160 170 0
164 175 0
158 164 0
163 170 0
162 169 0
160 168 0
161 171 0
163 173 0
162 173 0
156 163 0
159 166 0
159 166 0
160 166 0
163 171 0
159 168 0
158 168 0
162 168 0
161 180 0
161 180 0
156 174 0
156 175 0
155 173 0
158 176 0
157 175 0
160 177 0
158 177 0
155 173 0
157 175 0
154 171 0
155 173 0
158 175 0
148 163 0
158 174 0
156 173 0
156 173 0
152 168 0
148 161 0
157 173 0
154 169 0
156 173 0
155 171 0
150 166 0
155 172 0
158 175 0
153 170 0
156 170 0
156 171 0
152 169 0
154 169 0
151 166 0
162 179 0
153 169 0
153 166 0
152 167 0
157 175 0
158 173 0
160 175 0
155 171 0
152 166 0
156 173 0
154 169 0
151 163 0
159 176 0
154 169 0
153 168 0
155 169 0
159 173 0
157 172 0
157 173 0
152 167 0
154 170 0
156 171 0
158 170 0
153 166 0
153 165 0
154 171 0
154 167 0
152 163 0
150 162 0
153 169 0
158 172 0
151 164 0
156 168 0
156 167 0
151 165 0
153 167 0
152 161 0
155 166 0
158 175 0
161 175 0
157 171 0
158 173 0
154 166 0
149 159 0
153 168 0
154 166 0
154 166 0
157 168 0
152 167 0
154 166 0
161 176 0
155 168 0
153 168 0
154 166 0
154 165 0
148 161 0
149 159 0
152 162 0
160 173 0
157 168 0
154 165 0
152 160 0
154 163 0
151 157 0
156 163 0
148 158 0
147 157 0
153 165 0
149 157 0
156 167 0
154 166 0
150 162 0
155 167 0
156 165 0
152 164 0
149 160 0
154 159 0
152 159 0
155 165 0
154 165 0
156 170 0
155 169 0
147 152 0
153 159 0
152 159 0
153 160 0
158 167 0
157 168 0
156 168 0
154 160 0
150 155 0
159 169 0
155 161 0
157 167 0
154 159 0
154 161 0
151 159 0
150 156 0
154 158 0
155 161 0
149 157 0
150 155 0
155 164 0
154 160 0
154 161 0
152 159 0
149 152 0
152 160 0
154 160 0
149 155 0
156 162 0
150 155 0
152 157 0
150 153 0
149 155 0
146 149 0
151 153 0
146 147 0
150 150 0
151 156 0
152 159 0
152 159 0
155 161 0
154 159 0
146 143 0
153 159 0
155 155 0
152 157 0
151 155 0
153 157 0
148 150 0
154 160 0
150 153 0
153 157 0
151 158 0
155 160 0
153 156 0
151 155 0
153 157 0
148 147 0
149 149 0
151 155 0
154 160 0
146 148 0
154 158 0
154 161 0
155 158 0
147 145 0
157 163 0
150 151 0
153 158 0
149 151 0
151 153 0
148 148 0
157 161 0
151 150 0
152 155 0
152 156 0
145 144 0
144 144 0
149 152 0
148 150 0
151 155 0
144 148 0
152 154 0
158 160 0
151 151 0
149 149 0
146 142 0
152 155 0
146 146 0
148 147 0
156 162 0
149 150 0
152 155 0
153 156 0
153 157 0
149 151 0
150 148 0
148 148 0
150 152 0
154 154 0
150 149 0
148 144 0
151 158 0
148 146 0
153 155 0
153 159 0
155 156 0
150 151 0
158 162 0
158 162 0
149 145 0
151 155 0
151 154 0
153 159 0
153 156 0
152 156 0
144 140 0
148 147 0
155 158 0
157 159 0
150 151 0
150 153 0
150 150 0
150 148 0
151 156 0
156 161 0
156 164 0
155 157 0
150 151 0
154 159 0
157 163 0
154 156 0
151 152 0
153 158 0
153 154 0
156 164 0
152 157 0
154 157 0
156 161 0
154 155 0
153 160 0
158 163 0
155 164 0
158 162 0
153 159 0
158 169 0
156 163 0
155 163 0
154 161 0
154 161 0
149 151 0
157 164 0
154 160 0
153 160 0
154 159 0
155 160 0
155 161 0
155 162 0
158 164 0
152 153 0
156 161 0
157 165 0
151 158 0
156 166 0
158 170 0
156 161 0
156 164 0
156 164 0
157 167 0
164 177 0
159 167 0
154 161 0
153 161 0
158 165 0
156 163 0
157 164 0
156 161 0
160 167 0
154 162 0
161 172 0
158 165 0
154 161 0
159 167 0
156 163 0
157 165 0
160 170 0
157 163 0
154 162 0
156 165 0
158 168 0
160 172 0
152 159 0
157 164 0
150 157 0
158 166 0
157 167 0
160 168 0
157 167 0
155 164 0
151 157 0
158 167 0
157 165 0
154 159 0
158 165 0
155 162 0
158 166 0
159 165 0
157 165 0
157 166 0
152 158 0
155 162 0
157 167 0
158 168 0
156 164 0
158 168 0
156 163 0
158 165 0
156 163 0
154 162 0
157 165 0
157 161 0
155 164 0
159 164 0
151 157 0
157 166 0
158 167 0
156 162 0
158 166 0
159 167 0
164 176 0
161 169 0
162 167 0
156 160 0
157 162 0
153 159 0
157 164 0
159 169 0
159 168 0
158 164 0
158 161 0
160 167 0
157 164 0
161 170 0
159 164 0
160 167 0
163 174 0
159 167 0
160 167 0
161 168 0
161 169 0
158 166 0
162 170 0
160 171 0
162 172 0
162 171 0
163 171 0
161 170 0
160 167 0
158 167 0
158 166 0
162 172 0
157 163 0
160 168 0
154 160 0
164 175 0
159 168 0
162 171 0
161 171 0
158 165 0
151 168 0
154 172 0
156 171 0
160 179 0
158 176 0
151 169 0
163 182 0
155 172 0
159 177 0
158 177 0
158 175 0
154 171 0
158 175 0
157 173 0
154 171 0
160 179 0
158 176 0
152 169 0
160 179 0
150 165 0
156 172 0
156 174 0
154 169 0
153 168 0
158 175 0
159 177 0
155 172 0
155 171 0
149 166 0
154 171 0
157 174 0
159 176 0
148 164 0
149 162 0
151 164 0
156 173 0
153 167 0
152 162 0
153 168 0
155 173 0
149 162 0
156 169 0
161 177 0
153 167 0
154 168 0
154 169 0
152 165 0
159 177 0
157 173 0
152 166 0
159 175 0
154 168 0
155 167 0
150 163 0
152 165 0
150 162 0
158 172 0
156 169 0
153 167 0
149 163 0
150 162 0
155 167 0
157 174 0
157 172 0
152 167 0
153 166 0
151 167 0
156 166 0
148 163 0
151 162 0
153 168 0
155 167 0
157 171 0
152 163 0
153 168 0
153 167 0
155 164 0
156 170 0
155 166 0
158 172 0
156 169 0
156 171 0
155 167 0
156 166 0
157 169 0
157 170 0
155 165 0
155 166 0
158 171 0
153 166 0
150 161 0
156 166 0
157 168 0
158 170 0
151 162 0
153 163 0
151 163 0
152 161 0
158 169 0
157 169 0
161 175 0
150 161 0
149 158 0
156 170 0
157 171 0
152 164 0
153 161 0
152 161 0
158 167 0
159 172 0
156 165 0
157 169 0
156 170 0
149 155 0
157 166 0
150 156 0
153 161 0
160 176 0
160 172 0
151 159 0
156 168 0
151 159 0
150 160 0
156 168 0
149 156 0
152 158 0
155 164 0
150 158 0
155 164 0
155 162 0
152 162 0
156 163 0
153 161 0
151 159 0
152 159 0
144 149 0
146 151 0
152 159 0
158 170 0
157 162 0
155 160 0
152 159 0
159 168 0
154 158 0
148 152 0
149 154 0
154 162 0
147 148 0
152 159 0
154 162 0
153 157 0
153 157 0
149 153 0
149 152 0
151 155 0
151 155 0
143 143 0
151 155 0
157 158 0
153 156 0
152 153 0
151 155 0
143 141 0
154 159 0
145 147 0
152 154 0
150 155 0
152 155 0
151 155 0
152 154 0
153 158 0
151 151 0
150 153 0
147 140 0
151 154 0
157 163 0
150 153 0
149 147 0
152 151 0
149 148 0
150 151 0
152 155 0
157 161 0
153 160 0
153 157 0
150 151 0
150 153 0
149 150 0
155 159 0
152 154 0
151 151 0
149 153 0
152 154 0
157 161 0
147 145 0
155 158 0
151 153 0
152 152 0
154 159 0
150 153 0
154 156 0
149 149 0
151 158 0
153 157 0
150 155 0
149 148 0
148 144 0
148 147 0
150 152 0
149 152 0
153 157 0
148 145 0
153 157 0
155 158 0
153 157 0
150 154 0
156 156 0
156 163 0
139 135 0
150 154 0
149 149 0
149 149 0
156 158 0
153 154 0
148 152 0
153 153 0
155 159 0
150 154 0
152 157 0
149 154 0
154 157 0
155 161 0
154 161 0
155 157 0
151 151 0
159 163 0
155 157 0
155 161 0
150 154 0
153 157 0
148 148 0
153 156 0
151 152 0
157 160 0
155 158 0
157 163 0
154 161 0
156 162 0
152 157 0
151 155 0
151 154 0
151 152 0
159 168 0
153 157 0
147 146 0
157 162 0
153 159 0
150 153 0
155 160 0
157 166 0
158 166 0
159 167 0
152 156 0
155 162 0
159 165 0
157 163 0
159 167 0
154 159 0
156 158 0
149 152 0
153 157 0
156 165 0
157 166 0
155 163 0
162 170 0
153 158 0
155 163 0
152 157 0
156 162 0
155 162 0
152 158 0
149 156 0
157 167 0
151 156 0
160 167 0
155 160 0
157 163 0
152 157 0
153 160 0
157 165 0
156 163 0
155 161 0
159 168 0
154 157 0
154 162 0
159 166 0
161 173 0
159 168 0
154 160 0
157 166 0
162 174 0
152 156 0
156 163 0
159 168 0
158 166 0
160 170 0
154 159 0
161 172 0
157 164 0
158 166 0
157 169 0
154 161 0
155 160 0
157 165 0
159 168 0
157 163 0
157 167 0
157 161 0
159 166 0
155 161 0
161 169 0
160 168 0
160 172 0
160 168 0
162 174 0
159 170 0
155 165 0
157 167 0
156 162 0
156 163 0
158 167 0
155 160 0
155 164 0
158 168 0
163 173 0
159 167 0
154 160 0
156 164 0
156 161 0
156 162 0
162 169 0
160 167 0
160 167 0
157 164 0
156 163 0
156 164 0
160 169 0
159 165 0
159 169 0
160 167 0
156 162 0
162 170 0
160 169 0
160 170 0
159 164 0
156 162 0
160 172 0
157 165 0
157 163 0
158 164 0
160 170 0
160 168 0
156 163 0
157 165 0
161 169 0
161 168 0
158 165 0
158 165 0
156 165 0
160 169 0
161 168 0
159 167 0
156 164 0
161 169 0
161 169 0
165 176 0
161 168 0
161 167 0
160 166 0
161 167 0
164 174 0
164 175 0
163 170 0
162 171 0
152 169 0
152 168 0
157 174 0
161 178 0
156 171 0
150 166 0
158 176 0
157 175 0
152 167 0
159 176 0
151 166 0
157 174 0
155 172 0
157 174 0
158 174 0
154 171 0
151 167 0
164 182 0
158 175 0
152 166 0
157 173 0
153 170 0
153 170 0
157 172 0
154 171 0
151 166 0
155 171 0
152 168 0
155 170 0
150 164 0
154 172 0
152 165 0
153 167 0
155 169 0
155 172 0
151 165 0
156 172 0
153 168 0
151 162 0
156 174 0
157 173 0
158 174 0
151 165 0
152 167 0
157 171 0
154 169 0
152 164 0
153 166 0
150 162 0
151 165 0
159 174 0
156 173 0
152 163 0
151 166 0
159 176 0
160 176 0
158 176 0
158 172 0
152 166 0
153 165 0
153 166 0
156 169 0
156 170 0
150 163 0
160 174 0
161 176 0
157 174 0
156 170 0
152 164 0
154 167 0
153 165 0
152 161 0
148 159 0
145 156 0
152 167 0
156 170 0
158 173 0
153 167 0
150 160 0
153 163 0
156 169 0
150 160 0
151 162 0
160 170 0
156 171 0
153 165 0
156 171 0
153 166 0
152 161 0
157 169 0
156 169 0
155 166 0
152 164 0
153 167 0
162 175 0
157 170 0
153 164 0
153 166 0
156 165 0
151 163 0
157 170 0
157 171 0
156 165 0
155 168 0
149 158 0
147 154 0
147 155 0
157 171 0
156 167 0
155 167 0
156 167 0
146 151 0
157 166 0
155 164 0
152 157 0
154 169 0
152 166 0
157 166 0
150 155 0
148 154 0
155 164 0
149 151 0
158 167 0
150 157 0
155 164 0
156 165 0
154 162 0
159 168 0
155 163 0
151 160 0
148 156 0
156 164 0
151 157 0
147 151 0
154 165 0
150 156 0
150 156 0
153 157 0
153 162 0
157 163 0
157 165 0
145 148 0
154 163 0
154 160 0
147 148 0
148 147 0
150 154 0
158 166 0
152 158 0
153 158 0
156 164 0
149 148 0
152 158 0
151 157 0
147 150 0
149 152 0
153 156 0
148 151 0
154 156 0
151 157 0
150 153 0
153 156 0
157 159 0
155 160 0
157 163 0
156 163 0
150 154 0
150 153 0
156 164 0
150 153 0
155 160 0
152 153 0
146 144 0
152 154 0
150 154 0
150 153 0
156 162 0
152 153 0
153 156 0
149 151 0
153 155 0
150 151 0
145 146 0
157 163 0
149 148 0
147 147 0
153 157 0
154 157 0
151 154 0
149 156 0
154 159 0
152 150 0
151 151 0
153 156 0
154 156 0
153 155 0
149 150 0
154 153 0
150 149 0
151 155 0
156 160 0
155 158 0
151 155 0
154 154 0
155 159 0
149 142 0
154 155 0
151 155 0
158 160 0
150 150 0
150 152 0
148 147 0
152 152 0
149 152 0
152 152 0
146 147 0
153 158 0
151 151 0
155 161 0
152 151 0
157 161 0
151 153 0
155 158 0
154 162 0
150 152 0
151 153 0
156 162 0
155 159 0
155 159 0
154 156 0
156 163 0
155 161 0
154 157 0
157 162 0
155 162 0
150 153 0
153 156 0
156 162 0
150 151 0
154 160 0
154 157 0
152 158 0
158 165 0
154 159 0
156 163 0
151 156 0
154 156 0
153 155 0
154 160 0
155 161 0
154 161 0
153 156 0
152 158 0
150 154 0
156 161 0
158 162 0
155 155 0
160 169 0
151 152 0
156 164 0
160 165 0
161 166 0
151 153 0
165 177 0
156 165 0
161 167 0
157 166 0
157 158 0
154 160 0
155 161 0
155 162 0
155 158 0
159 166 0
153 160 0
151 158 0
158 165 0
157 165 0
156 163 0
156 163 0
153 159 0
155 162 0
150 155 0
155 160 0
158 166 0
152 157 0
157 164 0
157 160 0
157 165 0
158 168 0
152 154 0
160 170 0
153 159 0
153 160 0
154 161 0
155 160 0
157 166 0
159 169 0
157 164 0
163 172 0
155 160 0
151 152 0
153 158 0
157 163 0
155 163 0
152 159 0
162 173 0
158 164 0
156 163 0
156 161 0
154 156 0
159 170 0
156 163 0
155 164 0
156 165 0
153 163 0
153 160 0
156 164 0
156 163 0
158 168 0
158 169 0
156 166 0
156 166 0
158 166 0
153 157 0
158 168 0
155 161 0
158 167 0
159 169 0
158 163 0
156 164 0
157 165 0
160 173 0
156 165 0
155 161 0
157 161 0
160 171 0
156 164 0
157 164 0
157 169 0
160 168 0
156 164 0
161 167 0
156 162 0
162 171 0
156 165 0
162 173 0
156 164 0
157 166 0
157 163 0
159 168 0
157 163 0
157 165 0
160 168 0
157 162 0
162 172 0
156 162 0
157 166 0
160 169 0
158 167 0
159 169 0
156 164 0
158 167 0
162 172 0
155 164 0
159 165 0
157 167 0
162 171 0
157 165 0
159 167 0
162 171 0
157 163 0
154 162 0
156 162 0
161 168 0
160 170 0
155 160 0
161 169 0
159 168 0
163 172 0
163 173 0
159 167 0
164 174 0
162 173 0
156 160 0
157 174 0
153 169 0
160 176 0
159 177 0
157 173 0
153 170 0
156 172 0
158 175 0
158 174 0
158 175 0
160 175 0
156 168 0
160 177 0
159 175 0
156 171 0
158 175 0
157 173 0
160 176 0
159 175 0
155 171 0
156 172 0
157 174 0
155 170 0
159 175 0
157 174 0
159 176 0
160 176 0
150 165 0
153 167 0
155 172 0
160 177 0
157 171 0
157 172 0
156 171 0
159 176 0
156 172 0
158 173 0
151 164 0
159 175 0
157 170 0
154 168 0
153 167 0
155 171 0
158 173 0
155 171 0
154 168 0
149 164 0
160 177 0
155 170 0
156 173 0
151 165 0
155 171 0
155 165 0
151 165 0
152 163 0
157 170 0
154 168 0
153 167 0
153 162 0
156 169 0
151 164 0
153 168 0
155 170 0
159 172 0
152 166 0
158 172 0
149 163 0
155 167 0
155 170 0
154 165 0
148 157 0
159 171 0
156 169 0
152 162 0
155 167 0
160 176 0
158 170 0
162 180 0
149 163 0
152 163 0
154 168 0
158 173 0
154 167 0
149 161 0
155 168 0
149 160 0
156 170 0
157 170 0
153 165 0
162 178 0
154 167 0
154 161 0
154 168 0
150 158 0
154 163 0
157 168 0
156 167 0
149 158 0
155 166 0
155 164 0
151 161 0
159 173 0
155 166 0
155 168 0
156 166 0
152 157 0
154 163 0
151 162 0
161 176 0
157 173 0
162 176 0
162 177 0
154 167 0
154 163 0
158 169 0
159 169 0
159 172 0
153 158 0
156 167 0
149 155 0
154 161 0
159 168 0
151 159 0
150 156 0
154 161 0
155 163 0
151 156 0
147 152 0
155 164 0
151 161 0
155 163 0
157 164 0
151 157 0
158 168 0
153 166 0
150 157 0
155 159 0
156 168 0
154 161 0
154 161 0
154 158 0
152 159 0
151 158 0
153 159 0
151 154 0
156 159 0
154 161 0
157 168 0
155 159 0
150 149 0
151 157 0
157 163 0
151 152 0
151 157 0
151 152 0
155 160 0
151 154 0
150 154 0
157 165 0
155 163 0
156 161 0
153 157 0
153 154 0
157 163 0
151 155 0
151 153 0
150 152 0
155 162 0
153 153 0
153 158 0
154 158 0
158 163 0
156 162 0
155 161 0
148 148 0
148 147 0
153 154 0
150 152 0
153 158 0
155 159 0
150 151 0
151 152 0
147 148 0
151 156 0
156 163 0
154 155 0
152 155 0
153 153 0
154 158 0
151 153 0
153 157 0
156 163 0
158 162 0
154 158 0
150 147 0
148 148 0
148 148 0
149 150 0
153 157 0
147 147 0
146 148 0
153 156 0
158 163 0
154 159 0
152 152 0
156 157 0
157 164 0
152 154 0
152 151 0
151 154 0
150 153 0
152 153 0
153 156 0
156 160 0
154 156 0
148 148 0
154 161 0
152 154 0
156 159 0
151 153 0
147 145 0
155 159 0
154 159 0
152 159 0
152 153 0
157 160 0
151 156 0
152 157 0
152 151 0
156 161 0
154 155 0
157 164 0
156 160 0
155 160 0
153 153 0
152 155 0
155 159 0
154 161 0
154 156 0
156 160 0
153 154 0
156 162 0
153 155 0
158 164 0
154 158 0
155 160 0
158 163 0
158 164 0
154 156 0
152 154 0
159 166 0
156 163 0
153 155 0
152 157 0
157 165 0
155 158 0
154 158 0
158 164 0
162 168 0
158 165 0
156 164 0
153 161 0
154 156 0
161 169 0
153 158 0
146 148 0
159 164 0
154 160 0
161 175 0
156 162 0
155 165 0
156 165 0
153 158 0
155 160 0
155 164 0
154 157 0
157 164 0
148 148 0
160 169 0
157 165 0
159 166 0
155 160 0
155 164 0
153 161 0
158 163 0
163 173 0
153 159 0
156 164 0
155 158 0
158 169 0
155 161 0
160 169 0
154 158 0
157 164 0
155 159 0
157 164 0
153 161 0
153 161 0
157 162 0
157 169 0
151 154 0
156 166 0
155 161 0
158 165 0
156 162 0
153 155 0
157 164 0
160 169 0
156 164 0
155 160 0
161 171 0
159 170 0
155 163 0
165 175 0
155 162 0
155 161 0
155 166 0
157 164 0
160 169 0
162 176 0
162 170 0
159 168 0
159 171 0
161 172 0
157 163 0
159 165 0
157 167 0
157 165 0
160 169 0
160 172 0
160 168 0
162 171 0
159 169 0
162 173 0
154 161 0
159 166 0
156 160 0
157 164 0
159 169 0
157 165 0
162 170 0
157 163 0
159 166 0
158 164 0
156 165 0
164 174 0
155 164 0
160 169 0
162 171 0
159 168 0
158 163 0
160 168 0
163 174 0
157 165 0
158 167 0
158 162 0
163 175 0
156 160 0
159 168 0
160 169 0
155 162 0
157 160 0
158 166 0
155 163 0
157 164 0
157 162 0
161 170 0
164 171 0
159 167 0
166 177 0
160 167 0
161 170 0
161 169 0
156 163 0
158 166 0
156 166 0
158 165 0
157 164 0
160 169 0
156 165 0
162 171 0
161 173 0
160 169 0
158 165 0
156 174 0
154 168 0
159 176 0
159 176 0
162 181 0
163 182 0
154 170 0
158 175 0
159 176 0
155 172 0
163 182 0
158 175 0
149 164 0
152 166 0
155 169 0
162 181 0
158 174 0
156 171 0
158 175 0
154 169 0
160 175 0
155 170 0
153 170 0
155 170 0
149 162 0
157 175 0
155 171 0
153 168 0
150 166 0
159 176 0
156 171 0
156 171 0
152 166 0
156 171 0
159 177 0
156 168 0
160 175 0
158 173 0
154 167 0
158 174 0
154 168 0
155 170 0
150 165 0
155 172 0
152 166 0
157 175 0
156 171 0
159 172 0
160 178 0
152 165 0
154 167 0
158 170 0
162 177 0
158 174 0
156 171 0
153 168 0
158 175 0
153 166 0
153 165 0
155 168 0
151 166 0
155 169 0
152 165 0
156 169 0
154 169 0
153 168 0
151 162 0
157 173 0
156 167 0
156 170 0
153 167 0
151 163 0
158 173 0
162 178 0
156 170 0
160 171 0
155 169 0
158 171 0
152 162 0
158 174 0
153 163 0
154 168 0
158 175 0
152 164 0
155 169 0
151 159 0
155 168 0
156 169 0
157 171 0
157 169 0
159 175 0
152 163 0
154 165 0
149 159 0
152 161 0
153 162 0
158 169 0
157 167 0
159 169 0
162 174 0
155 167 0
153 161 0
148 160 0
151 164 0
155 163 0
150 160 0
158 169 0
157 171 0
155 167 0
153 157 0
158 173 0
159 169 0
154 161 0
146 148 0
152 159 0
151 158 0
157 167 0
153 165 0
159 166 0
155 162 0
154 165 0
154 163 0
157 165 0
146 155 0
153 160 0
157 168 0
152 162 0
157 169 0
156 167 0
151 160 0
154 162 0
155 164 0
151 156 0
153 163 0
151 156 0
153 160 0
155 163 0
145 149 0
154 162 0
155 155 0
151 158 0
148 158 0
156 164 0
158 164 0
153 159 0
154 162 0
149 152 0
156 161 0
155 165 0
154 159 0
144 145 0
149 155 0
158 166 0
155 162 0
152 157 0
150 152 0
149 152 0
149 149 0
156 161 0
157 166 0
153 156 0
152 154 0
149 156 0
154 160 0
152 156 0
154 164 0
156 162 0
153 155 0
155 156 0
148 149 0
154 158 0
159 163 0
153 158 0
156 161 0
150 151 0
155 161 0
153 155 0
150 152 0
148 148 0
150 152 0
152 159 0
152 155 0
153 158 0
153 157 0
155 158 0
152 152 0
154 160 0
152 151 0
150 148 0
154 161 0
155 157 0
156 164 0
153 158 0
157 163 0
152 153 0
152 151 0
155 160 0
153 153 0
149 150 0
157 164 0
156 160 0
155 158 0
150 154 0
150 152 0
150 150 0
148 145 0
153 151 0
155 161 0
157 163 0
145 146 0
151 157 0
151 150 0
153 156 0
150 152 0
156 156 0
153 157 0
155 158 0
158 160 0
152 152 0
144 143 0
152 157 0
152 154 0
150 154 0
152 158 0
149 152 0
151 154 0
157 163 0
148 148 0
153 152 0
154 158 0
155 159 0
151 150 0
155 158 0
157 163 0
154 157 0
159 164 0
153 158 0
157 165 0
151 153 0
155 157 0
154 158 0
157 162 0
156 166 0
152 152 0
160 164 0
149 148 0
151 156 0
159 167 0
155 160 0
160 168 0
152 158 0
157 165 0
162 169 0
158 165 0
157 164 0
158 161 0
160 165 0
157 167 0
156 166 0
156 164 0
156 164 0
157 163 0
159 164 0
158 167 0
158 168 0
161 172 0
155 163 0
160 166 0
155 163 0
152 152 0
162 176 0
154 163 0
153 158 0
153 157 0
157 162 0
155 160 0
153 158 0
156 166 0
154 159 0
158 164 0
157 163 0
161 170 0
155 164 0
154 159 0
158 168 0
157 162 0
154 162 0
156 162 0
157 165 0
160 170 0
152 160 0
159 169 0
156 163 0
150 154 0
158 166 0
163 175 0
156 162 0
152 156 0
158 169 0
154 160 0
154 162 0
160 168 0
157 165 0
159 169 0
158 168 0
155 164 0
153 161 0
155 162 0
157 167 0
158 166 0
156 164 0
157 162 0
156 163 0
154 160 0
160 170 0
160 169 0
156 162 0
157 165 0
160 170 0
159 167 0
164 174 0
154 161 0
160 170 0
153 162 0
153 161 0
163 174 0
154 160 0
160 170 0
157 164 0
162 171 0
158 162 0
157 165 0
156 163 0
155 162 0
158 165 0
158 170 0
155 161 0
159 169 0
157 164 0
157 165 0
156 162 0
160 170 0
156 166 0
158 167 0
158 164 0
157 164 0
158 169 0
156 163 0
159 166 0
155 163 0
158 163 0
163 174 0
161 172 0
158 165 0
158 166 0
161 170 0
159 168 0
156 164 0
160 168 0
158 163 0
160 169 0
158 165 0
160 170 0
160 170 0
163 170 0
157 164 0
154 158 0
158 165 0
160 168 0
159 169 0
161 168 0
160 168 0
157 165 0
159 164 0
161 169 0
160 170 0
160 169 0
160 170 0
157 166 0
162 170 0
159 170 0
158 166 0
159 169 0
161 170 0
152 169 0
155 170 0
156 174 0
154 171 0
163 182 0
157 173 0
163 182 0
154 170 0
157 174 0
154 168 0
159 177 0
158 174 0
161 178 0
151 168 0
162 180 0
158 175 0
160 175 0
158 173 0
160 178 0
160 177 0
151 164 0
154 172 0
155 173 0
153 168 0
155 169 0
158 175 0
157 174 0
145 158 0
161 179 0
160 178 0
161 175 0
155 172 0
154 171 0
153 170 0
156 173 0
149 161 0
157 173 0
159 174 0
159 174 0
156 168 0
152 163 0
152 165 0
157 174 0
158 173 0
155 168 0
159 174 0
156 170 0
161 177 0
152 164 0
152 169 0
154 166 0
158 174 0
148 158 0
160 178 0
152 165 0
159 176 0
159 174 0
155 171 0
153 168 0
154 168 0
156 171 0
157 172 0
151 164 0
160 175 0
153 166 0
156 170 0
155 168 0
156 171 0
154 168 0
156 167 0
146 157 0
161 175 0
151 162 0
161 174 0
153 168 0
162 177 0
151 163 0
154 168 0
153 167 0
157 170 0
153 161 0
151 165 0
152 165 0
158 172 0
157 172 0
158 171 0
158 170 0
160 174 0
152 162 0
154 172 0
152 160 0
155 166 0
157 167 0
156 165 0
153 164 0
147 153 0
151 165 0
155 166 0
160 175 0
154 165 0
156 169 0
156 166 0
154 166 0
152 162 0
153 162 0
151 159 0
159 172 0
157 169 0
151 159 0
153 168 0
157 170 0
156 169 0
158 167 0
159 169 0
155 163 0
159 169 0
153 162 0
153 162 0
156 169 0
159 172 0
159 170 0
158 167 0
149 156 0
158 167 0
153 162 0
160 172 0
154 165 0
152 158 0
159 170 0
156 164 0
150 158 0
154 163 0
154 161 0
150 158 0
153 159 0
157 166 0
149 155 0
161 173 0
154 161 0
149 154 0
152 159 0
151 156 0
154 163 0
155 160 0
151 155 0
155 166 0
157 165 0
155 164 0
155 163 0
158 169 0
158 167 0
152 158 0
150 156 0
152 157 0
157 167 0
153 160 0
151 153 0
150 148 0
148 152 0
152 154 0
154 163 0
153 158 0
155 162 0
154 157 0
155 161 0
154 160 0
150 154 0
157 162 0
156 162 0
159 168 0
158 165 0
152 159 0
147 148 0
147 151 0
148 149 0
155 160 0
153 151 0
154 161 0
154 159 0
153 154 0
153 160 0
151 153 0
153 153 0
151 155 0
156 159 0
151 153 0
152 160 0
154 156 0
154 155 0
157 161 0
159 167 0
152 156 0
155 159 0
157 159 0
150 151 0
154 158 0
151 152 0
151 151 0
154 158 0
149 148 0
153 157 0
151 148 0
154 156 0
154 156 0
148 147 0
155 155 0
160 168 0
153 158 0
150 148 0
150 153 0
149 149 0
156 158 0
155 159 0
151 154 0
153 154 0
158 163 0
154 159 0
149 148 0
151 154 0
152 151 0
155 158 0
156 159 0
153 153 0
156 164 0
158 165 0
150 150 0
155 158 0
154 158 0
157 165 0
156 160 0
156 160 0
151 157 0
157 163 0
156 159 0
160 168 0
152 156 0
154 160 0
157 163 0
157 164 0
153 159 0
152 153 0
150 152 0
155 161 0
153 158 0
154 160 0
155 162 0
153 158 0
151 151 0
153 157 0
157 160 0
157 163 0
154 155 0
155 164 0
153 158 0
156 164 0
157 165 0
155 160 0
157 164 0
152 156 0
156 163 0
157 165 0
158 163 0
157 165 0
158 168 0
159 164 0
156 160 0
156 167 0
157 164 0
151 154 0
156 163 0
158 165 0
156 161 0
162 173 0
156 163 0
154 161 0
156 164 0
158 167 0
155 163 0
156 166 0
161 170 0
159 169 0
163 174 0
160 169 0
155 160 0
158 170 0
159 168 0
157 162 0
154 159 0
156 164 0
158 164 0
157 162 0
157 163 0
156 163 0
156 165 0
158 170 0
154 165 0
151 153 0
157 164 0
155 164 0
159 171 0
158 171 0
150 152 0
158 165 0
158 170 0
156 163 0
157 165 0
157 167 0
161 170 0
154 160 0
156 163 0
154 163 0
158 168 0
158 168 0
157 166 0
158 168 0
156 159 0
157 168 0
155 166 0
155 161 0
157 164 0
158 164 0
158 167 0
156 164 0
155 163 0
161 172 0
158 168 0
160 167 0
164 176 0
154 160 0
156 166 0
156 162 0
156 163 0
157 166 0
158 164 0
161 171 0
160 169 0
160 168 0
159 165 0
153 161 0
162 172 0
158 165 0
158 167 0
158 167 0
156 165 0
157 166 0
161 172 0
159 170 0
158 164 0
158 166 0
156 167 0
156 165 0
160 169 0
154 163 0
166 177 0
155 160 0
161 170 0
157 163 0
158 167 0
159 167 0
159 167 0
157 162 0
156 165 0
155 163 0
160 173 0
162 171 0
155 157 0
156 163 0
155 160 0
160 167 0
151 158 0
160 168 0
158 167 0
157 164 0
160 166 0
163 174 0
161 171 0
151 157 0
159 169 0
158 166 0
160 168 0
159 170 0
163 175 0
161 172 0
158 166 0
157 174 0
163 181 0
154 171 0
160 179 0
161 179 0
158 176 0
159 176 0
159 176 0
160 177 0
155 172 0
157 172 0
157 172 0
156 171 0
154 170 0
156 169 0
163 181 0
159 176 0
153 170 0
155 172 0
149 164 0
159 178 0
155 166 0
157 174 0
151 166 0
160 178 0
154 169 0
160 174 0
156 172 0
153 166 0
154 169 0
154 172 0
157 174 0
155 170 0
158 175 0
158 175 0
157 174 0
149 162 0
154 170 0
156 169 0
157 170 0
148 162 0
156 172 0
158 174 0
160 176 0
155 171 0
150 165 0
155 168 0
161 179 0
162 177 0
152 164 0
154 169 0
156 167 0
154 169 0
158 173 0
156 169 0
156 172 0
156 167 0
158 173 0
152 163 0
152 163 0
158 172 0
151 162 0
158 173 0
153 164 0
153 166 0
157 170 0
157 172 0
158 172 0
158 171 0
154 168 0
156 170 0
157 170 0
160 174 0
153 165 0
153 167 0
151 163 0
151 158 0
159 172 0
155 166 0
163 175 0
155 168 0
155 168 0
160 175 0
157 169 0
153 167 0
156 168 0
159 173 0
161 174 0
156 166 0
158 172 0
152 162 0
154 164 0
158 172 0
156 171 0
158 169 0
155 167 0
154 168 0
163 177 0
154 166 0
155 168 0
157 168 0
154 162 0
155 164 0
153 163 0
156 167 0
158 170 0
154 161 0
157 169 0
155 163 0
152 164 0
149 160 0
154 162 0
151 161 0
158 166 0
158 167 0
160 170 0
155 164 0
152 162 0
155 164 0
153 161 0
157 167 0
155 164 0
156 167 0
152 160 0
158 167 0
148 156 0
153 160 0
149 158 0
155 160 0
154 163 0
155 161 0
150 156 0
155 164 0
153 164 0
155 163 0
155 165 0
148 151 0
154 162 0
159 169 0
154 166 0
152 158 0
154 158 0
153 158 0
151 156 0
153 158 0
158 167 0
155 162 0
150 156 0
156 165 0
163 174 0
159 167 0
153 160 0
153 156 0
151 158 0
156 164 0
150 153 0
150 156 0
152 157 0
156 164 0
149 148 0
154 158 0
154 160 0
152 154 0
155 162 0
157 166 0
154 158 0
159 166 0
153 153 0
156 161 0
155 158 0
153 161 0
151 158 0
155 160 0
154 160 0
148 148 0
157 165 0
154 158 0
149 150 0
150 152 0
148 148 0
147 148 0
152 157 0
154 163 0
154 159 0
153 156 0
147 150 0
154 157 0
152 157 0
160 167 0
151 153 0
147 147 0
152 155 0
152 156 0
156 163 0
151 153 0
151 150 0
156 158 0
151 151 0
154 159 0
150 148 0
150 154 0
156 161 0
153 156 0
151 155 0
153 157 0
153 155 0
149 154 0
153 158 0
154 158 0
156 159 0
156 160 0
153 154 0
156 159 0
153 158 0
149 151 0
151 153 0
159 164 0
153 157 0
158 164 0
154 157 0
158 162 0
152 155 0
155 164 0
152 155 0
154 160 0
154 163 0
161 167 0
155 158 0
154 158 0
154 157 0
154 157 0
156 162 0
149 151 0
163 172 0
156 157 0
151 154 0
155 161 0
155 161 0
157 165 0
158 167 0
159 168 0
159 170 0
157 165 0
158 162 0
157 169 0
151 156 0
151 154 0
151 156 0
154 161 0
158 165 0
152 160 0
160 169 0
155 164 0
151 155 0
153 159 0
156 161 0
155 161 0
156 165 0
157 164 0
157 162 0
156 160 0
159 173 0
160 166 0
153 158 0
155 158 0
152 161 0
151 156 0
160 168 0
156 161 0
153 159 0
159 165 0
156 164 0
158 166 0
154 159 0
155 164 0
156 165 0
159 168 0
154 162 0
157 163 0
155 163 0
159 167 0
158 164 0
161 174 0
158 167 0
155 162 0
152 158 0
154 160 0
158 166 0
158 164 0
161 173 0
158 163 0
158 166 0
152 160 0
156 165 0
158 167 0
154 162 0
155 161 0
161 169 0
159 168 0
157 163 0
160 170 0
160 168 0
158 167 0
161 172 0
151 156 0
156 167 0
157 166 0
158 168 0
160 169 0
158 166 0
157 164 0
155 165 0
155 162 0
159 167 0
157 167 0
156 164 0
161 170 0
159 165 0
155 160 0
159 165 0
154 159 0
161 170 0
153 160 0
154 161 0
160 171 0
155 165 0
152 157 0
157 162 0
154 162 0
156 164 0
158 169 0
153 157 0
155 163 0
160 168 0
163 172 0
158 167 0
160 174 0
160 169 0
161 170 0
157 166 0
157 167 0
159 167 0
159 169 0
154 159 0
161 172 0
157 166 0
162 172 0
162 169 0
161 174 0
160 168 0
156 163 0
155 161 0
160 171 0
160 167 0
161 168 0
157 164 0
161 170 0
158 166 0
161 173 0
158 168 0
162 171 0
159 169 0
160 172 0
156 163 0
160 167 0
163 175 0
161 170 0
163 172 0
159 167 0
160 171 0
160 170 0
161 170 0
162 173 0
163 174 0
158 168 0
161 169 0
160 169 0
154 162 0
163 172 0
164 175 0
161 168 0
162 175 0
162 172 0
159 168 0
156 173 0
157 175 0
161 179 0
155 172 0
157 173 0
156 170 0
154 170 0
157 171 0
157 173 0
160 177 0
153 170 0
160 177 0
159 175 0
153 168 0
161 178 0
154 169 0
158 177 0
155 171 0
159 176 0
160 177 0
159 176 0
157 171 0
153 169 0
155 171 0
156 173 0
155 173 0
158 175 0
155 171 0
161 177 0
156 171 0
161 176 0
151 165 0
155 171 0
154 168 0
157 172 0
157 171 0
158 172 0
158 174 0
157 172 0
157 174 0
157 173 0
157 173 0
157 175 0
157 174 0
158 177 0
148 159 0
152 167 0
152 167 0
160 177 0
156 170 0
160 173 0
153 167 0
155 171 0
159 174 0
157 171 0
156 170 0
157 173 0
155 170 0
159 175 0
159 170 0
154 167 0
154 165 0
154 169 0
161 176 0
160 175 0
160 175 0
148 159 0
152 166 0
152 165 0
160 173 0
153 166 0
155 169 0
155 170 0
154 169 0
157 168 0
158 172 0
158 173 0
156 166 0
158 170 0
158 171 0
155 165 0
153 164 0
155 167 0
158 170 0
154 166 0
151 162 0
160 170 0
154 165 0
155 168 0
154 166 0
160 176 0
153 165 0
152 164 0
157 168 0
156 167 0
156 168 0
153 163 0
155 169 0
161 175 0
152 157 0
154 166 0
157 172 0
160 176 0
156 168 0
155 167 0
161 176 0
153 163 0
154 167 0
157 166 0
155 164 0
156 165 0
152 160 0
154 165 0
154 162 0
151 162 0
153 161 0
152 160 0
152 161 0
151 158 0
156 168 0
157 166 0
159 172 0
154 162 0
152 162 0
153 163 0
161 168 0
156 163 0
153 161 0
163 176 0
153 161 0
156 162 0
151 158 0
154 163 0
155 167 0
156 161 0
154 162 0
156 163 0
151 159 0
151 154 0
152 159 0
152 154 0
155 167 0
159 167 0
157 162 0
153 162 0
153 162 0
158 168 0
154 164 0
158 166 0
153 158 0
156 163 0
158 168 0
155 161 0
155 161 0
157 161 0
155 162 0
153 159 0
154 162 0
152 156 0
153 159 0
156 163 0
153 157 0
160 167 0
153 159 0
153 159 0
151 154 0
152 156 0
155 161 0
152 159 0
154 160 0
153 157 0
153 159 0
152 156 0
149 149 0
157 164 0
157 162 0
155 159 0
158 161 0
154 153 0
157 160 0
152 154 0
154 160 0
154 160 0
156 159 0
151 155 0
152 155 0
156 163 0
157 162 0
154 163 0
154 164 0
152 155 0
155 160 0
149 154 0
155 156 0
158 162 0
156 161 0
157 160 0
156 161 0
157 164 0
160 167 0
153 157 0
156 162 0
149 154 0
156 160 0
155 161 0
159 165 0
155 160 0
156 158 0
157 164 0
154 158 0
151 153 0
156 160 0
153 157 0
153 155 0
151 152 0
155 159 0
154 160 0
154 159 0
159 163 0
153 159 0
156 159 0
152 154 0
155 160 0
154 161 0
154 156 0
150 153 0
153 159 0
157 163 0
158 163 0
151 150 0
150 156 0
155 162 0
156 161 0
151 156 0
157 164 0
151 157 0
158 166 0
153 155 0
155 157 0
156 163 0
157 163 0
158 165 0
156 160 0
154 156 0
155 159 0
156 162 0
156 162 0
158 164 0
156 163 0
150 151 0
152 157 0
150 155 0
158 165 0
154 153 0
155 163 0
156 160 0
160 170 0
159 165 0
156 164 0
155 165 0
158 166 0
155 161 0
157 168 0
156 166 0
162 173 0
155 160 0
158 166 0
159 167 0
158 168 0
157 165 0
160 170 0
158 164 0
156 163 0
156 167 0
154 156 0
159 168 0
161 173 0
157 166 0
159 172 0
155 162 0
160 171 0
154 164 0
153 162 0
159 169 0
152 156 0
154 164 0
160 170 0
157 166 0
157 166 0
160 169 0
160 169 0
157 168 0
156 162 0
156 163 0
156 162 0
156 162 0
156 166 0
160 172 0
163 175 0
153 162 0
157 166 0
153 160 0
158 165 0
159 169 0
158 167 0
154 161 0
157 166 0
159 170 0
157 163 0
161 171 0
161 172 0
155 164 0
163 175 0
155 161 0
157 167 0
159 166 0
160 170 0
157 164 0
161 169 0
158 166 0
164 177 0
156 162 0
159 170 0
155 163 0
160 168 0
159 167 0
154 159 0
153 162 0
159 168 0
157 167 0
159 168 0
162 170 0
161 170 0
157 165 0
158 167 0
159 166 0
157 166 0
157 165 0
161 171 0
159 168 0
155 161 0
157 166 0
156 164 0
159 167 0
158 167 0
159 166 0
160 169 0
159 167 0
156 166 0
161 175 0
157 166 0
160 170 0
159 167 0
161 172 0
158 166 0
163 173 0
160 169 0
160 170 0
159 169 0
158 167 0
160 172 0
161 169 0
158 166 0
160 167 0
159 170 0
158 166 0
160 170 0
159 165 0
161 170 0
160 169 0
161 170 0
159 168 0
163 171 0
168 181 0
155 161 0
163 175 0
162 172 0
157 164 0
165 177 0
159 168 0
165 176 0
162 174 0
163 176 0
162 173 0
159 177 0
161 178 0
163 180 0
162 179 0
156 174 0
159 175 0
158 176 0
159 179 0
156 174 0
156 174 0
161 180 0
151 166 0
160 178 0
154 171 0
162 177 0
159 174 0
158 174 0
152 169 0
161 176 0
155 171 0
160 177 0
155 173 0
162 178 0
156 170 0
154 169 0
155 172 0
156 171 0
156 171 0
160 175 0
153 169 0
155 172 0
156 170 0
155 171 0
154 166 0
158 174 0
154 169 0
157 173 0
155 172 0
158 174 0
157 171 0
153 167 0
156 173 0
164 181 0
160 177 0
159 174 0
155 167 0
156 172 0
159 178 0
159 174 0
158 171 0
155 170 0
153 166 0
160 175 0
154 169 0
157 168 0
157 170 0
151 163 0
157 171 0
153 165 0
159 175 0
155 168 0
158 173 0
160 177 0
157 171 0
155 170 0
160 177 0
154 167 0
154 168 0
160 176 0
150 160 0
157 170 0
151 162 0
159 174 0
159 173 0
158 175 0
157 173 0
158 172 0
154 165 0
155 170 0
156 170 0
155 167 0
152 164 0
154 164 0
154 164 0
160 175 0
153 167 0
155 169 0
154 166 0
158 175 0
157 171 0
160 174 0
159 173 0
158 170 0
152 160 0
154 167 0
151 161 0
157 170 0
155 165 0
158 172 0
156 169 0
159 173 0
153 164 0
159 174 0
154 167 0
160 173 0
150 159 0
158 169 0
154 162 0
157 168 0
159 171 0
162 174 0
156 168 0
156 167 0
149 161 0
158 171 0
162 172 0
153 162 0
155 163 0
151 159 0
156 167 0
152 161 0
158 169 0
153 161 0
160 172 0
154 163 0
156 166 0
159 169 0
150 155 0
153 161 0
155 165 0
158 169 0
158 169 0
155 165 0
158 171 0
154 162 0
157 169 0
157 165 0
153 157 0
156 160 0
155 164 0
154 162 0
154 163 0
154 160 0
156 162 0
154 160 0
156 166 0
155 165 0
150 155 0
154 163 0
147 151 0
154 159 0
154 164 0
155 160 0
158 165 0
154 159 0
152 156 0
152 161 0
153 159 0
153 158 0
156 161 0
157 165 0
158 164 0
153 160 0
150 155 0
159 168 0
155 157 0
147 150 0
156 164 0
155 162 0
155 164 0
154 159 0
154 159 0
158 160 0
154 158 0
155 163 0
153 161 0
158 166 0
151 157 0
158 163 0
152 158 0
154 157 0
153 156 0
160 167 0
156 161 0
150 145 0
151 154 0
154 157 0
152 154 0
150 152 0
156 163 0
153 155 0
158 168 0
158 165 0
152 155 0
157 162 0
156 157 0
153 156 0
155 161 0
154 158 0
154 161 0
152 156 0
156 164 0
152 156 0
155 159 0
153 156 0
153 156 0
155 158 0
152 153 0
154 158 0
152 154 0
154 159 0
159 169 0
153 157 0
156 157 0
155 160 0
157 164 0
155 161 0
154 157 0
158 166 0
157 165 0
158 167 0
155 157 0
156 158 0
156 159 0
158 162 0
152 152 0
158 167 0
156 161 0
155 159 0
153 159 0
153 159 0
157 160 0
162 171 0
160 168 0
156 159 0
148 151 0
156 159 0
159 167 0
154 160 0
151 155 0
156 163 0
156 162 0
153 161 0
160 166 0
157 163 0
156 161 0
159 166 0
159 165 0
152 157 0
156 160 0
159 165 0
154 158 0
157 162 0
159 165 0
155 160 0
151 151 0
151 151 0
155 160 0
158 164 0
155 161 0
162 169 0
162 171 0
160 168 0
155 161 0
151 154 0
157 167 0
161 169 0
160 168 0
157 164 0
161 173 0
158 167 0
157 164 0
160 167 0
156 167 0
158 169 0
154 161 0
159 167 0
159 166 0
154 162 0
162 172 0
159 170 0
158 165 0
158 167 0
156 166 0
154 160 0
155 164 0
155 160 0
161 172 0
159 165 0
158 167 0
155 164 0
155 160 0
156 164 0
155 162 0
160 171 0
157 169 0
159 169 0
162 175 0
159 169 0
163 174 0
158 166 0
157 167 0
162 170 0
155 162 0
155 163 0
160 172 0
156 163 0
161 169 0
156 163 0
157 163 0
160 169 0
158 168 0
159 168 0
154 162 0
151 158 0
156 167 0
161 171 0
158 165 0
156 167 0
158 167 0
156 165 0
158 167 0
165 176 0
158 168 0
159 169 0
158 166 0
161 172 0
158 169 0
160 170 0
154 162 0
159 168 0
153 159 0
159 164 0
159 169 0
162 173 0
156 165 0
154 160 0
160 170 0
160 168 0
158 169 0
155 162 0
158 166 0
156 164 0
158 166 0
161 168 0
154 160 0
157 165 0
161 169 0
160 167 0
161 172 0
161 170 0
156 166 0
159 166 0
165 177 0
157 166 0
161 171 0
162 171 0
163 174 0
160 169 0
159 167 0
159 164 0
158 168 0
163 177 0
164 175 0
162 171 0
159 168 0
158 168 0
158 165 0
157 167 0
163 172 0
161 171 0
155 161 0
161 171 0
162 174 0
163 174 0
156 160 0
162 173 0
161 170 0
162 171 0
162 173 0
162 171 0
154 162 0
162 173 0
162 172 0
154 170 0
157 174 0
160 178 0
159 178 0
158 175 0
164 181 0
157 175 0
156 172 0
163 183 0
159 177 0
154 170 0
157 174 0
159 177 0
156 171 0
153 170 0
151 166 0
155 171 0
160 178 0
157 173 0
161 176 0
151 166 0
156 169 0
155 170 0
157 175 0
158 175 0
156 172 0
156 171 0
160 179 0
156 167 0
158 174 0
154 171 0
158 175 0
152 167 0
161 177 0
163 181 0
154 169 0
159 173 0
158 176 0
159 176 0
158 174 0
160 178 0
159 177 0
150 164 0
156 172 0
157 171 0
158 175 0
158 173 0
153 167 0
157 171 0
159 173 0
152 168 0
152 166 0
156 169 0
158 171 0
153 166 0
157 171 0
159 174 0
150 162 0
154 169 0
156 170 0
162 178 0
157 172 0
157 171 0
157 171 0
154 169 0
154 169 0
156 169 0
153 162 0
159 176 0
156 171 0
153 165 0
160 176 0
152 162 0
154 166 0
153 166 0
161 175 0
151 161 0
150 162 0
156 168 0
149 163 0
154 166 0
155 165 0
156 170 0
161 174 0
152 165 0
159 172 0
159 168 0
153 165 0
152 164 0
149 161 0
157 169 0
157 171 0
157 170 0
156 166 0
152 163 0
159 172 0
153 165 0
157 168 0
156 170 0
154 168 0
157 172 0
153 164 0
156 170 0
154 166 0
151 161 0
152 164 0
154 162 0
154 160 0
158 168 0
156 162 0
160 169 0
157 167 0
160 173 0
149 157 0
151 160 0
152 163 0
159 173 0
159 167 0
160 171 0
160 171 0
159 171 0
155 165 0
153 160 0
160 171 0
155 166 0
158 166 0
156 160 0
157 167 0
160 170 0
154 162 0
158 172 0
157 166 0
158 166 0
151 158 0
152 156 0
154 162 0
155 165 0
159 167 0
157 165 0
155 159 0
150 155 0
156 163 0
157 166 0
155 164 0
150 158 0
155 164 0
155 162 0
156 164 0
148 153 0
156 164 0
157 164 0
153 159 0
152 157 0
151 156 0
158 164 0
151 160 0
154 164 0
153 160 0
158 164 0
153 161 0
154 157 0
151 156 0
149 153 0
154 160 0
157 165 0
151 158 0
156 162 0
156 161 0
151 153 0
153 154 0
148 148 0
152 152 0
155 157 0
153 158 0
155 164 0
152 158 0
156 167 0
152 151 0
153 158 0
151 154 0
149 149 0
153 160 0
152 154 0
151 154 0
158 167 0
156 161 0
156 162 0
152 152 0
157 162 0
158 163 0
158 161 0
154 158 0
153 156 0
151 153 0
152 153 0
154 155 0
156 163 0
158 164 0
157 163 0
157 166 0
155 158 0
157 163 0
152 153 0
156 159 0
158 165 0
151 151 0
156 163 0
153 157 0
155 158 0
155 160 0
156 159 0
153 156 0
160 169 0
154 161 0
158 156 0
161 169 0
156 159 0
155 158 0
159 167 0
158 168 0
159 165 0
149 153 0
154 158 0
156 162 0
156 162 0
152 155 0
154 158 0
156 164 0
158 165 0
155 157 0
155 162 0
158 164 0
153 157 0
152 157 0
159 166 0
149 154 0
153 160 0
160 165 0
151 156 0
155 161 0
153 155 0
158 164 0
155 160 0
155 157 0
161 166 0
159 165 0
152 158 0
157 166 0
157 161 0
159 167 0
155 161 0
154 157 0
155 158 0
153 158 0
154 158 0
159 163 0
160 169 0
159 168 0
157 165 0
155 164 0
157 164 0
158 163 0
158 167 0
156 163 0
156 164 0
155 160 0
157 165 0
158 167 0
160 170 0
155 161 0
157 161 0
158 168 0
161 171 0
153 158 0
150 153 0
161 171 0
161 170 0
161 172 0
158 162 0
159 165 0
153 160 0
159 165 0
159 165 0
154 159 0
158 169 0
159 166 0
155 157 0
164 177 0
154 161 0
161 172 0
155 160 0
158 168 0
154 161 0
156 163 0
160 170 0
163 175 0
156 162 0
158 165 0
160 168 0
157 169 0
156 163 0
157 162 0
155 157 0
155 162 0
160 170 0
160 170 0
159 171 0
157 165 0
157 164 0
154 161 0
153 158 0
164 175 0
159 168 0
157 167 0
156 162 0
156 164 0
162 174 0
159 172 0
153 163 0
163 175 0
162 175 0
161 171 0
155 162 0
157 162 0
158 171 0
160 173 0
159 168 0
161 170 0
157 165 0
156 164 0
159 167 0
160 173 0
154 160 0
152 157 0
157 168 0
161 171 0
162 175 0
160 171 0
159 168 0
159 167 0
160 172 0
161 168 0
160 170 0
160 167 0
161 171 0
159 169 0
157 167 0
154 163 0
157 165 0
159 172 0
160 165 0
158 169 0
159 169 0
155 163 0
158 166 0
162 173 0
155 162 0
156 162 0
159 164 0
160 170 0
158 165 0
158 166 0
160 170 0
159 169 0
158 165 0
161 171 0
159 168 0
155 161 0
161 169 0
161 173 0
160 170 0
162 171 0
156 164 0
162 172 0
160 172 0
163 176 0
164 175 0
162 172 0
162 174 0
160 169 0
160 171 0
160 169 0
162 174 0
159 168 0
161 181 0
158 175 0
158 175 0
152 167 0
156 174 0
155 171 0
158 175 0
160 178 0
156 173 0
158 175 0
156 171 0
157 174 0
158 176 0
154 172 0
157 174 0
156 174 0
157 174 0
156 172 0
151 168 0
154 171 0
158 174 0
160 175 0
156 173 0
154 169 0
160 177 0
155 172 0
155 170 0
157 173 0
157 176 0
157 173 0
156 172 0
162 179 0
153 167 0
156 172 0
156 172 0
151 166 0
157 170 0
160 176 0
150 164 0
157 173 0
159 174 0
155 169 0
155 169 0
161 177 0
161 177 0
156 171 0
156 170 0
155 170 0
153 166 0
155 170 0
155 170 0
156 166 0
155 171 0
154 169 0
161 178 0
154 169 0
161 176 0
157 173 0
153 166 0
155 169 0
155 169 0
161 176 0
162 177 0
148 156 0
156 170 0
154 167 0
156 169 0
160 175 0
158 174 0
154 168 0
155 166 0
157 171 0
160 175 0
156 171 0
156 167 0
156 167 0
159 173 0
153 165 0
153 165 0
157 171 0
163 176 0
153 165 0
153 166 0
153 163 0
156 169 0
153 161 0
160 172 0
159 173 0
152 160 0
158 171 0
160 173 0
153 163 0
157 172 0
158 174 0
154 167 0
155 168 0
159 173 0
160 173 0
156 167 0
156 165 0
159 174 0
157 170 0
152 161 0
152 164 0
158 169 0
153 163 0
151 163 0
153 163 0
157 165 0
154 162 0
160 172 0
155 163 0
155 162 0
153 160 0
158 167 0
154 168 0
151 160 0
156 167 0
156 168 0
157 164 0
154 164 0
152 160 0
158 166 0
157 165 0
148 153 0
156 166 0
155 162 0
155 166 0
160 169 0
155 161 0
158 169 0
155 163 0
158 167 0
155 167 0
155 163 0
160 169 0
151 159 0
155 164 0
154 162 0
149 153 0
161 174 0
159 171 0
151 158 0
155 164 0
152 158 0
159 167 0
159 166 0
151 158 0
154 155 0
156 165 0
151 157 0
156 165 0
154 161 0
152 154 0
155 166 0
159 165 0
156 165 0
162 174 0
152 156 0
156 163 0
154 159 0
152 158 0
157 164 0
151 157 0
157 168 0
154 159 0
156 163 0
157 164 0
161 169 0
154 158 0
156 163 0
155 158 0
154 160 0
155 161 0
154 158 0
153 155 0
158 161 0
152 159 0
157 161 0
157 164 0
153 156 0
153 162 0
151 154 0
150 154 0
158 165 0
145 145 0
152 156 0
153 160 0
152 160 0
157 164 0
156 162 0
153 159 0
153 159 0
153 152 0
153 161 0
159 166 0
156 160 0
157 160 0
156 161 0
151 151 0
157 161 0
154 157 0
152 158 0
153 155 0
157 161 0
155 160 0
156 162 0
153 155 0
155 160 0
156 162 0
155 159 0
157 162 0
149 146 0
154 152 0
159 168 0
150 152 0
153 158 0
156 158 0
154 160 0
153 154 0
158 166 0
161 170 0
154 160 0
158 164 0
154 154 0
152 157 0
158 167 0
151 158 0
156 162 0
156 161 0
154 161 0
154 162 0
149 150 0
155 162 0
160 169 0
154 162 0
154 161 0
156 162 0
154 161 0
159 167 0
155 162 0
154 158 0
154 161 0
147 147 0
155 161 0
157 162 0
156 166 0
158 165 0
152 156 0
156 164 0
156 165 0
162 171 0
156 159 0
156 164 0
156 160 0
156 161 0
162 174 0
161 171 0
157 164 0
158 163 0
159 167 0
154 164 0
155 159 0
156 163 0
156 162 0
154 158 0
152 157 0
157 163 0
156 160 0
159 168 0
155 163 0
157 166 0
159 167 0
158 167 0
159 168 0
160 171 0
159 167 0
158 166 0
155 159 0
154 161 0
162 172 0
161 171 0
162 173 0
155 162 0
152 155 0
153 157 0
159 169 0
160 170 0
154 162 0
152 158 0
160 170 0
159 168 0
159 169 0
160 169 0
159 170 0
158 165 0
159 168 0
156 166 0
159 171 0
153 159 0
152 161 0
160 172 0
159 169 0
156 167 0
155 159 0
157 166 0
161 171 0
156 164 0
157 164 0
155 162 0
155 165 0
158 167 0
161 170 0
156 162 0
160 171 0
161 168 0
155 161 0
160 169 0
153 161 0
160 169 0
154 160 0
161 173 0
155 164 0
156 165 0
160 169 0
158 167 0
157 167 0
160 167 0
158 169 0
157 167 0
161 170 0
158 167 0
159 166 0
157 164 0
157 166 0
158 168 0
161 170 0
164 175 0
158 167 0
159 168 0
158 168 0
163 173 0
158 165 0
159 169 0
160 169 0
162 175 0
161 168 0
157 163 0
158 168 0
161 171 0
157 162 0
159 167 0
163 171 0
162 172 0
156 163 0
160 167 0
154 161 0
162 173 0
161 173 0
161 171 0
160 172 0
164 179 0
160 170 0
163 174 0
159 168 0
158 167 0
156 163 0
158 168 0
158 166 0
158 164 0
163 173 0
160 169 0
158 167 0
159 168 0
163 171 0
163 175 0
154 162 0
157 167 0
159 167 0
162 174 0
163 171 0
166 179 0
158 165 0
164 176 0
155 171 0
155 171 0
156 173 0
157 173 0
157 176 0
161 179 0
160 178 0
159 176 0
164 183 0
158 176 0
153 168 0
164 183 0
158 175 0
160 176 0
158 172 0
160 176 0
160 177 0
155 170 0
158 172 0
158 177 0
158 174 0
154 170 0
156 172 0
156 172 0
157 173 0
157 172 0
154 170 0
156 168 0
157 173 0
153 169 0
157 171 0
159 175 0
155 171 0
159 175 0
161 177 0
152 166 0
158 171 0
159 174 0
155 169 0
154 170 0
154 168 0
156 172 0
152 169 0
156 172 0
161 179 0
164 181 0
156 166 0
160 174 0
155 169 0
160 176 0
158 174 0
151 163 0
155 169 0
156 170 0
156 170 0
156 170 0
161 174 0
160 177 0
156 170 0
162 178 0
160 179 0
157 172 0
159 175 0
153 167 0
157 168 0
160 173 0
158 172 0
162 176 0
156 170 0
156 171 0
156 170 0
157 175 0
157 173 0
156 170 0
159 171 0
162 178 0
152 166 0
156 169 0
157 171 0
156 166 0
154 167 0
157 170 0
156 169 0
161 174 0
156 165 0
159 172 0
153 165 0
159 171 0
158 167 0
157 170 0
157 172 0
152 161 0
156 164 0
160 173 0
158 173 0
157 170 0
151 159 0
157 167 0
157 168 0
155 164 0
157 166 0
157 165 0
155 164 0
158 169 0
157 169 0
155 166 0
158 170 0
157 169 0
152 160 0
156 165 0
159 169 0
157 168 0
160 169 0
158 169 0
155 166 0
158 170 0
152 161 0
153 164 0
148 158 0
158 167 0
162 176 0
154 158 0
158 167 0
158 168 0
158 169 0
154 166 0
158 172 0
155 164 0
157 163 0
157 168 0
156 166 0
156 164 0
158 168 0
157 168 0
157 167 0
154 163 0
155 166 0
151 156 0
164 176 0
156 168 0
158 167 0
158 164 0
160 168 0
157 164 0
152 159 0
157 166 0
157 164 0
157 167 0
157 162 0
155 162 0
157 159 0
155 164 0
154 161 0
157 168 0
160 169 0
155 164 0
157 167 0
158 166 0
154 160 0
158 163 0
151 158 0
158 166 0
155 162 0
156 162 0
151 158 0
155 164 0
157 164 0
157 164 0
155 157 0
159 166 0
154 154 0
148 152 0
149 154 0
154 158 0
157 166 0
155 160 0
159 167 0
158 167 0
155 165 0
154 158 0
154 161 0
158 165 0
151 151 0
154 160 0
151 151 0
160 167 0
146 149 0
150 154 0
156 159 0
158 163 0
149 153 0
158 169 0
148 150 0
152 158 0
157 162 0
158 166 0
149 151 0
157 164 0
153 159 0
157 165 0
159 166 0
159 169 0
154 155 0
156 160 0
155 158 0
156 164 0
152 155 0
155 163 0
153 162 0
156 162 0
152 159 0
153 155 0
160 167 0
152 154 0
149 147 0
147 146 0
153 154 0
154 158 0
155 162 0
153 160 0
158 165 0
154 155 0
156 160 0
157 163 0
156 162 0
154 159 0
156 164 0
155 159 0
152 159 0
155 159 0
156 164 0
156 164 0
155 159 0
160 169 0
155 160 0
157 164 0
151 151 0
157 163 0
155 161 0
162 171 0
156 163 0
161 172 0
161 168 0
156 163 0
156 159 0
160 165 0
157 167 0
161 169 0
157 161 0
155 161 0
158 165 0
156 161 0
159 166 0
151 154 0
158 166 0
161 170 0
158 164 0
158 166 0
154 161 0
158 165 0
157 164 0
158 164 0
157 164 0
155 165 0
161 172 0
157 161 0
159 166 0
158 164 0
158 169 0
160 169 0
154 161 0
161 172 0
153 158 0
162 174 0
158 167 0
158 167 0
155 162 0
158 166 0
159 167 0
158 166 0
161 170 0
154 162 0
151 157 0
156 167 0
156 164 0
161 171 0
162 175 0
156 167 0
161 171 0
160 170 0
158 166 0
163 174 0
158 168 0
159 168 0
157 166 0
158 165 0
159 170 0
160 168 0
165 178 0
159 170 0
157 166 0
159 172 0
158 165 0
157 167 0
156 164 0
163 177 0
161 170 0
161 170 0
156 160 0
158 166 0
161 169 0
160 169 0
160 172 0
151 155 0
159 168 0
158 169 0
159 169 0
160 171 0
159 169 0
153 162 0
158 167 0
157 168 0
154 161 0
160 168 0
165 177 0
160 169 0
156 166 0
160 169 0
154 160 0
158 168 0
158 168 0
159 169 0
162 172 0
162 173 0
158 169 0
163 173 0
160 171 0
160 169 0
161 173 0
162 176 0
158 166 0
162 172 0
162 170 0
165 181 0
158 166 0
160 172 0
156 164 0
162 174 0
163 173 0
161 171 0
160 169 0
159 164 0
156 163 0
156 166 0
157 167 0
162 171 0
162 172 0
158 164 0
162 173 0
159 168 0
160 169 0
159 162 0
158 168 0
158 168 0
155 163 0
159 168 0
157 164 0
164 176 0
161 169 0
160 166 0
160 171 0
158 166 0
166 180 0
160 168 0
160 171 0
158 169 0
161 172 0
159 170 0
164 174 0
160 171 0
162 168 0
164 178 0
164 175 0
163 174 0
155 172 0
160 177 0
162 179 0
158 176 0
162 181 0
162 181 0
156 172 0
161 179 0
156 172 0
155 169 0
158 175 0
160 177 0
153 169 0
155 170 0
161 179 0
154 169 0
160 176 0
161 180 0
162 182 0
152 169 0
156 171 0
154 171 0
156 173 0
160 178 0
160 176 0
154 172 0
156 173 0
158 175 0
158 173 0
156 173 0
157 173 0
160 175 0
154 165 0
160 177 0
153 166 0
156 172 0
159 176 0
162 179 0
158 173 0
159 176 0
158 174 0
162 177 0
157 172 0
159 173 0
155 171 0
157 173 0
155 170 0
157 172 0
159 175 0
162 178 0
162 179 0
157 173 0
160 176 0
155 170 0
155 171 0
157 172 0
153 164 0
163 179 0
158 172 0
155 167 0
157 172 0
156 172 0
163 177 0
155 167 0
159 175 0
157 171 0
159 171 0
159 176 0
158 173 0
160 176 0
159 174 0
158 172 0
150 162 0
158 171 0
155 168 0
150 162 0
158 172 0
162 177 0
160 177 0
160 172 0
158 171 0
158 172 0
150 158 0
155 164 0
158 170 0
154 165 0
156 168 0
152 162 0
156 167 0
158 175 0
159 171 0
150 160 0
157 169 0
158 170 0
153 163 0
152 163 0
160 173 0
155 164 0
155 168 0
160 173 0
155 165 0
156 166 0
156 169 0
155 163 0
153 159 0
161 174 0
160 172 0
158 167 0
155 168 0
161 171 0
154 164 0
155 164 0
158 171 0
156 164 0
156 165 0
154 168 0
161 175 0
157 169 0
157 167 0
152 161 0
156 167 0
155 164 0
160 173 0
154 164 0
156 166 0
156 164 0
152 158 0
157 168 0
154 163 0
153 161 0
157 167 0
163 176 0
154 159 0
157 167 0
151 159 0
158 168 0
157 170 0
158 169 0
159 171 0
154 162 0
162 171 0
155 164 0
156 168 0
153 161 0
160 168 0
160 169 0
161 171 0
156 166 0
152 156 0
156 165 0
157 165 0
158 166 0
153 160 0
155 157 0
154 160 0
154 162 0
154 161 0
157 164 0
159 168 0
161 170 0
153 156 0
152 156 0
158 166 0
160 169 0
148 150 0
153 156 0
154 160 0
153 161 0
151 154 0
159 169 0
157 165 0
158 166 0
155 159 0
154 158 0
156 158 0
151 157 0
148 149 0
154 161 0
154 161 0
156 161 0
162 171 0
157 165 0
158 165 0
152 150 0
148 149 0
158 166 0
157 163 0
158 165 0
155 160 0
157 160 0
150 151 0
152 157 0
160 168 0
156 161 0
150 154 0
152 157 0
158 163 0
150 151 0
155 163 0
154 159 0
153 157 0
158 163 0
154 162 0
160 169 0
156 159 0
149 150 0
154 159 0
159 164 0
148 151 0
156 159 0
157 165 0
153 154 0
159 170 0
156 159 0
155 162 0
149 148 0
158 166 0
153 158 0
154 157 0
149 151 0
157 163 0
161 169 0
158 166 0
159 166 0
158 168 0
154 158 0
155 160 0
157 164 0
157 165 0
156 162 0
154 155 0
155 160 0
154 157 0
156 157 0
153 157 0
156 163 0
154 159 0
159 165 0
161 168 0
156 162 0
156 158 0
157 166 0
151 153 0
156 162 0
154 154 0
156 159 0
156 160 0
155 162 0
153 157 0
156 165 0
158 163 0
161 166 0
158 170 0
156 164 0
159 165 0
155 159 0
163 174 0
160 170 0
156 161 0
157 166 0
157 166 0
155 163 0
159 164 0
155 163 0
160 168 0
154 162 0
156 163 0
160 172 0
158 168 0
156 164 0
159 165 0
160 168 0
161 168 0
159 168 0
157 162 0
158 168 0
157 161 0
156 163 0
158 167 0
162 173 0
164 173 0
154 161 0
159 172 0
160 172 0
155 164 0
162 171 0
163 176 0
159 164 0
155 161 0
158 169 0
164 177 0
157 164 0
161 171 0
161 170 0
158 166 0
160 171 0
161 171 0
159 170 0
155 162 0
157 166 0
159 168 0
157 163 0
158 169 0
159 168 0
165 173 0
159 169 0
159 168 0
155 162 0
157 162 0
161 172 0
156 165 0
158 170 0
160 171 0
161 175 0
162 176 0
155 166 0
162 175 0
157 165 0
157 166 0
161 170 0
157 163 0
160 170 0
162 176 0
153 159 0
159 169 0
154 161 0
158 163 0
158 167 0
158 167 0
157 167 0
157 165 0
160 172 0
156 164 0
159 169 0
161 171 0
162 173 0
161 172 0
161 172 0
156 164 0
159 169 0
158 168 0
156 163 0
157 165 0
161 172 0
162 173 0
160 170 0
162 176 0
157 165 0
161 167 0
161 170 0
161 171 0
159 170 0
161 170 0
160 168 0
163 171 0
156 166 0
162 175 0
156 165 0
155 164 0
161 171 0
159 167 0
161 170 0
158 167 0
159 170 0
156 165 0
164 177 0
158 165 0
159 168 0
160 173 0
162 175 0
161 172 0
165 177 0
160 170 0
159 169 0
160 170 0
166 177 0
159 166 0
161 176 0
163 175 0
162 174 0
161 173 0
156 163 0
158 168 0
161 172 0
162 181 0
159 174 0
156 170 0
159 176 0
156 174 0
162 181 0
161 179 0
160 173 0
162 180 0
152 166 0
160 178 0
163 179 0
157 173 0
157 172 0
155 169 0
156 170 0
151 166 0
161 178 0
165 183 0
156 173 0
162 180 0
161 178 0
155 169 0
155 169 0
158 173 0
159 177 0
157 173 0
163 182 0
157 172 0
151 163 0
159 172 0
155 171 0
159 175 0
160 179 0
159 174 0
158 173 0
158 171 0
161 176 0
158 173 0
155 172 0
159 173 0
156 174 0
153 168 0
162 177 0
156 168 0
158 174 0
157 173 0
154 168 0
154 166 0
159 172 0
160 175 0
156 168 0
164 180 0
152 166 0
161 176 0
155 169 0
156 173 0
160 174 0
160 175 0
151 163 0
162 179 0
159 173 0
160 174 0
156 167 0
162 177 0
155 170 0
154 167 0
160 175 0
159 175 0
152 165 0
158 172 0
158 174 0
159 172 0
156 170 0
161 177 0
158 168 0
157 169 0
155 167 0
155 168 0
149 158 0
157 170 0
154 167 0
154 163 0
157 169 0
160 172 0
161 179 0
153 166 0
157 169 0
157 171 0
160 174 0
156 166 0
155 166 0
156 170 0
158 168 0
158 171 0
157 172 0
159 171 0
153 164 0
156 169 0
153 163 0
156 168 0
153 165 0
153 164 0
149 160 0
157 169 0
155 165 0
154 163 0
156 167 0
159 171 0
160 174 0
154 164 0
155 165 0
157 166 0
155 164 0
157 170 0
154 167 0
154 165 0
159 173 0
159 168 0
156 166 0
149 158 0
148 152 0
157 167 0
157 169 0
155 162 0
152 162 0
157 167 0
155 164 0
157 168 0
156 166 0
152 159 0
157 169 0
158 167 0
156 164 0
159 174 0
157 169 0
156 160 0
158 167 0
156 165 0
153 161 0
158 168 0
152 160 0
157 166 0
154 161 0
157 166 0
152 157 0
154 159 0
158 168 0
154 161 0
155 162 0
155 162 0
158 169 0
155 161 0
156 167 0
155 165 0
156 162 0
154 162 0
155 161 0
153 159 0
157 165 0
157 164 0
156 166 0
155 161 0
154 160 0
157 166 0
157 164 0
155 164 0
146 151 0
153 160 0
159 171 0
156 161 0
157 164 0
153 161 0
154 158 0
156 161 0
152 154 0
154 156 0
158 167 0
156 165 0
153 157 0
153 156 0
154 161 0
155 159 0
155 161 0
155 160 0
157 163 0
153 157 0
151 151 0
154 160 0
153 158 0
158 163 0
156 165 0
156 160 0
150 155 0
152 157 0
158 163 0
154 162 0
152 153 0
156 162 0
151 154 0
154 161 0
151 151 0
159 163 0
158 166 0
156 161 0
156 159 0
155 162 0
154 159 0
160 166 0
159 166 0
159 166 0
158 165 0
154 158 0
155 157 0
157 164 0
158 166 0
157 162 0
153 160 0
152 156 0
157 163 0
153 159 0
155 159 0
157 166 0
157 163 0
159 165 0
156 161 0
154 156 0
157 161 0
155 162 0
150 151 0
156 164 0
157 165 0
152 156 0
155 159 0
155 163 0
160 168 0
156 161 0
158 163 0
155 161 0
155 161 0
157 158 0
158 167 0
155 160 0
161 167 0
157 162 0
154 157 0
157 168 0
161 169 0
156 162 0
154 156 0
155 163 0
158 168 0
155 160 0
159 166 0
156 165 0
156 163 0
158 163 0
159 165 0
156 164 0
153 161 0
157 167 0
157 164 0
152 154 0
159 169 0
157 166 0
157 166 0
152 159 0
162 172 0
155 161 0
156 167 0
164 181 0
158 165 0
157 164 0
163 171 0
160 170 0
154 159 0
158 168 0
157 166 0
155 161 0
159 170 0
159 166 0
159 168 0
157 167 0
160 168 0
156 164 0
156 165 0
159 169 0
159 166 0
158 166 0
156 164 0
155 163 0
157 166 0
160 170 0
158 169 0
161 171 0
161 172 0
158 168 0
157 166 0
159 172 0
159 170 0
160 169 0
159 169 0
158 167 0
156 161 0
154 163 0
161 168 0
160 173 0
157 169 0
162 173 0
156 162 0
157 169 0
152 162 0
159 166 0
158 169 0
162 171 0
158 164 0
160 171 0
160 167 0
162 172 0
157 168 0
162 174 0
162 173 0
166 180 0
161 173 0
158 166 0
162 174 0
160 171 0
156 165 0
160 170 0
157 168 0
161 174 0
159 167 0
156 164 0
158 165 0
161 173 0
165 180 0
160 172 0
158 168 0
159 169 0
158 164 0
159 171 0
161 172 0
159 169 0
158 165 0
158 168 0
158 167 0
158 168 0
163 172 0
160 169 0
162 172 0
158 168 0
162 173 0
159 168 0
161 174 0
161 171 0
160 169 0
158 166 0
161 170 0
157 167 0
157 166 0
161 174 0
158 170 0
157 164 0
160 171 0
159 169 0
159 171 0
162 172 0
163 177 0
164 177 0
160 171 0
160 169 0
161 167 0
161 170 0
162 175 0
160 171 0
162 170 0
160 170 0
157 167 0
161 173 0
158 167 0
162 172 0
164 179 0
163 171 0
159 170 0
158 176 0
162 181 0
161 180 0
158 176 0
164 184 0
161 180 0
155 172 0
153 169 0
154 173 0
157 173 0
157 174 0
160 176 0
157 171 0
158 175 0
159 175 0
162 178 0
158 175 0
164 184 0
151 165 0
156 172 0
160 176 0
155 172 0
157 173 0
153 168 0
157 173 0
152 170 0
160 175 0
162 180 0
161 177 0
158 174 0
160 176 0
152 168 0
152 166 0
157 171 0
159 174 0
160 178 0
159 177 0
158 175 0
153 170 0
156 173 0
159 176 0
157 171 0
162 179 0
158 172 0
157 172 0
158 174 0
161 179 0
158 176 0
160 176 0
156 173 0
152 167 0
149 163 0
158 172 0
157 171 0
157 172 0
158 173 0
159 174 0
159 174 0
156 170 0
161 180 0
157 172 0
160 176 0
157 173 0
161 177 0
156 169 0
156 169 0
157 172 0
161 177 0
163 179 0
157 175 0
156 170 0
154 166 0
159 173 0
159 174 0
161 177 0
158 173 0
161 175 0
159 172 0
161 177 0
156 169 0
155 167 0
160 176 0
155 166 0
158 169 0
155 168 0
153 166 0
159 174 0
158 172 0
157 170 0
159 173 0
156 170 0
157 172 0
160 172 0
166 184 0
154 165 0
161 173 0
157 166 0
155 168 0
159 168 0
155 166 0
157 168 0
155 169 0
161 172 0
155 167 0
157 169 0
153 165 0
156 166 0
154 163 0
159 168 0
157 169 0
151 162 0
159 171 0
156 168 0
160 175 0
153 158 0
158 168 0
152 162 0
154 162 0
157 166 0
156 165 0
157 171 0
152 162 0
158 170 0
156 166 0
156 165 0
154 164 0
157 169 0
155 166 0
154 164 0
159 169 0
156 164 0
153 161 0
156 165 0
152 161 0
155 162 0
151 157 0
152 161 0
153 159 0
157 166 0
160 170 0
156 165 0
157 167 0
155 163 0
156 163 0
155 161 0
159 165 0
160 173 0
156 165 0
155 163 0
156 159 0
158 165 0
154 162 0
155 162 0
154 163 0
155 161 0
152 157 0
156 165 0
158 164 0
152 155 0
154 161 0
154 157 0
153 157 0
156 165 0
155 162 0
156 165 0
154 160 0
160 166 0
158 164 0
159 166 0
155 161 0
154 158 0
158 165 0
154 159 0
160 170 0
158 165 0
152 154 0
158 163 0
156 160 0
162 169 0
159 169 0
160 171 0
157 164 0
151 152 0
156 161 0
153 163 0
152 156 0
157 165 0
155 156 0
163 172 0
155 163 0
160 167 0
150 152 0
153 155 0
157 164 0
155 163 0
157 160 0
156 156 0
162 171 0
153 158 0
155 161 0
157 165 0
156 157 0
152 158 0
157 161 0
154 163 0
152 158 0
152 157 0
158 163 0
156 161 0
157 161 0
156 165 0
155 158 0
153 158 0
159 162 0
156 161 0
159 167 0
153 155 0
152 156 0
155 161 0
154 160 0
155 162 0
149 148 0
156 158 0
158 167 0
155 160 0
157 164 0
159 166 0
156 163 0
160 170 0
156 163 0
156 165 0
153 155 0
157 167 0
157 161 0
153 155 0
156 166 0
158 164 0
157 165 0
157 165 0
160 171 0
157 166 0
154 159 0
157 162 0
156 163 0
160 169 0
156 160 0
159 168 0
161 170 0
157 162 0
161 170 0
151 156 0
160 168 0
156 164 0
157 163 0
165 174 0
156 166 0
158 166 0
155 162 0
158 166 0
158 167 0
155 162 0
154 164 0
156 169 0
161 168 0
154 160 0
154 160 0
162 173 0
159 166 0
157 164 0
157 166 0
154 162 0
158 166 0
154 160 0
160 172 0
156 167 0
153 157 0
157 164 0
154 160 0
160 171 0
156 163 0
157 164 0
155 165 0
159 167 0
159 169 0
161 170 0
159 167 0
153 157 0
160 166 0
160 172 0
164 177 0
164 176 0
153 161 0
157 165 0
160 171 0
159 167 0
161 175 0
157 165 0
162 174 0
159 170 0
160 170 0
161 174 0
161 171 0
159 167 0
159 170 0
159 167 0
157 164 0
154 164 0
162 172 0
156 162 0
159 168 0
161 174 0
162 175 0
161 171 0
155 160 0
157 165 0
159 171 0
157 165 0
156 162 0
158 168 0
158 165 0
158 170 0
158 168 0
161 171 0
161 172 0
155 163 0
160 170 0
162 172 0
157 168 0
158 168 0
160 167 0
159 170 0
165 180 0
162 173 0
162 169 0
158 164 0
157 166 0
159 169 0
164 175 0
158 167 0
160 167 0
160 170 0
158 170 0
153 158 0
156 162 0
158 168 0
161 171 0
157 166 0
164 176 0
162 169 0
157 168 0
157 166 0
158 167 0
158 168 0
159 170 0
162 175 0
161 173 0
159 166 0
156 163 0
159 169 0
163 175 0
161 170 0
159 171 0
160 172 0
153 160 0
160 171 0
159 171 0
158 169 0
159 167 0
160 169 0
163 174 0
161 173 0
161 171 0
163 173 0
159 171 0
159 169 0
160 172 0
160 170 0
161 173 0
157 166 0
159 170 0
160 170 0
162 171 0
160 175 0
160 172 0
